;FLAVOR:Marlin
;TIME:5011
;Filament used: 7.36275m
;Layer height: 0.35
;MINX:90
;MINY:73
;MINZ:0.2
;MAXX:145
;MAXY:162
;MAXZ:69.85
;Generated with Cura_SteamEngine 5.2.1
M140 S60
M105
M190 S60
M104 S210
M105
M109 S210
M82 ;absolute extrusion mode
; Ender 3 Custom Start G-code
G92 E0 ; Reset Extruder
G28 ; Home all axes
G1 Z2.0 F3000 ; Move Z Axis up little to prevent scratching of Heat Bed
G1 X0.1 Y20 Z0.3 F5000.0 ; Move to start position
G1 X0.1 Y200.0 Z0.3 F1500.0 E15 ; Draw the first line
G1 X0.4 Y200.0 Z0.3 F5000.0 ; Move to side a little
G1 X0.4 Y20 Z0.3 F1500.0 E30 ; Draw the second line
G92 E0 ; Reset Extruder
G1 Z2.0 F3000 ; Move Z Axis up little to prevent scratching of Heat Bed
G1 X5 Y20 Z0.3 F5000.0 ; Move over to prevent blob squish
G92 E0
G92 E0
G1 F2700 E-5
;LAYER_COUNT:200
;LAYER:0
M107
M204 S1000
M205 X8 Y8
G0 F6000 X92.566 Y76.958 Z0.2
;TYPE:SKIRT
G1 F2700 E0
G1 F6000 X93.198 Y76.264 E0.03122
G1 X93.886 Y75.627 E0.0624
G1 X94.626 Y75.051 E0.09359
G1 X95.412 Y74.539 E0.12479
G1 X96.239 Y74.097 E0.15598
G1 X97.101 Y73.727 E0.18718
G1 X97.991 Y73.431 E0.21838
G1 X98.903 Y73.213 E0.24957
G1 X99.83 Y73.072 E0.28075
G1 X100.701 Y73.013 E0.30979
G1 X101.33 Y73 E0.33071
G1 X106.45 Y73.001 E0.50101
G1 X107.149 Y73.011 E0.52426
G1 X108.086 Y73.065 E0.55547
G1 X109.014 Y73.197 E0.58665
G1 X109.928 Y73.409 E0.61786
G1 X110.82 Y73.698 E0.64904
G1 X111.685 Y74.061 E0.68024
G1 X112.515 Y74.497 E0.71143
G1 X113.305 Y75.002 E0.74261
G1 X114.05 Y75.573 E0.77383
G1 X114.743 Y76.205 E0.80503
G1 X115.38 Y76.893 E0.83621
G1 X115.955 Y77.634 E0.86741
G1 X116.466 Y78.42 E0.89859
G1 X116.908 Y79.248 E0.92981
G1 X117.277 Y80.109 E0.96096
G1 X117.572 Y81 E0.99218
G1 X117.79 Y81.912 E1.02337
G1 X117.965 Y83.235 E1.06775
G1 X118.173 Y86.181 E1.16598
G1 X118.42 Y88.63 E1.24785
G1 X118.746 Y91.156 E1.33256
G1 X119.139 Y93.641 E1.41624
G1 X119.604 Y96.12 E1.50013
G1 X120.131 Y98.561 E1.58319
G1 X120.732 Y100.994 E1.66654
G1 X121.414 Y103.456 E1.75151
G1 X122.154 Y105.863 E1.83527
G1 X122.953 Y108.221 E1.91807
G1 X123.834 Y110.6 E2.00245
G1 X124.77 Y112.921 E2.08569
G1 X125.783 Y115.243 E2.16995
G1 X126.843 Y117.496 E2.25276
G1 X127.99 Y119.765 E2.33732
G1 X129.188 Y121.98 E2.42108
G1 X130.435 Y124.132 E2.50381
G1 X131.767 Y126.291 E2.58818
G1 X133.158 Y128.409 E2.67246
G1 X134.589 Y130.457 E2.75556
G1 X136.097 Y132.493 E2.83983
G1 X137.642 Y134.46 E2.92302
G1 X139.255 Y136.397 E3.00685
G1 X140.931 Y138.297 E3.09112
G1 X141.525 Y138.937 E3.12016
G1 X142.152 Y139.631 E3.15127
G1 X142.751 Y140.353 E3.18247
G1 X143.285 Y141.123 E3.21364
G1 X143.753 Y141.937 E3.24487
G1 X144.149 Y142.787 E3.27606
G1 X144.471 Y143.667 E3.30723
G1 X144.718 Y144.572 E3.33843
G1 X144.886 Y145.495 E3.36963
G1 X144.985 Y146.667 E3.40875
G1 X145 Y147.33 E3.43081
G1 X144.999 Y150.4 E3.53292
G1 X144.99 Y151.127 E3.5571
G1 X144.939 Y152.064 E3.58831
G1 X144.807 Y152.992 E3.61948
G1 X144.598 Y153.906 E3.65067
G1 X144.311 Y154.799 E3.68187
G1 X143.949 Y155.665 E3.71308
G1 X143.515 Y156.496 E3.74427
G1 X143.011 Y157.287 E3.77546
G1 X142.442 Y158.032 E3.80664
G1 X141.811 Y158.727 E3.83786
G1 X141.124 Y159.365 E3.86905
G1 X140.385 Y159.942 E3.90023
G1 X139.599 Y160.454 E3.93143
G1 X138.773 Y160.897 E3.9626
G1 X137.911 Y161.269 E3.99383
G1 X137.022 Y161.565 E4.02499
G1 X136.11 Y161.785 E4.0562
G1 X135.183 Y161.926 E4.08738
G1 X134.299 Y161.987 E4.11686
G1 X133.67 Y162 E4.13778
G1 X101.565 Y161.999 E5.2056
G1 X100.867 Y161.99 E5.22882
G1 X99.931 Y161.938 E5.26
G1 X99.002 Y161.806 E5.2912
G1 X98.088 Y161.596 E5.3224
G1 X97.195 Y161.309 E5.35359
G1 X96.33 Y160.946 E5.38479
G1 X95.499 Y160.512 E5.41598
G1 X94.708 Y160.008 E5.44717
G1 X93.963 Y159.438 E5.47837
G1 X93.269 Y158.807 E5.50957
G1 X92.632 Y158.12 E5.54073
G1 X92.055 Y157.38 E5.57194
G1 X91.543 Y156.594 E5.60314
G1 X91.1 Y155.767 E5.63434
G1 X90.729 Y154.906 E5.66552
G1 X90.433 Y154.016 E5.69672
G1 X90.214 Y153.104 E5.72792
G1 X90.073 Y152.177 E5.7591
G1 X90.013 Y151.288 E5.78874
G1 X90 Y150.658 E5.8097
G1 X90.001 Y84.525 E8.00929
G1 X90.01 Y83.86 E8.03141
G1 X90.063 Y82.924 E8.06259
G1 X90.195 Y81.995 E8.0938
G1 X90.406 Y81.081 E8.125
G1 X90.694 Y80.189 E8.15617
G1 X91.057 Y79.324 E8.18738
G1 X91.492 Y78.493 E8.21857
G1 X91.996 Y77.703 E8.24974
G1 X92.566 Y76.958 E8.28094
G0 X92.961 Y77.111
G1 X93.589 Y76.439 E8.31153
G1 X94.274 Y75.823 E8.34217
G1 X95.01 Y75.27 E8.37279
G1 X95.791 Y74.782 E8.40342
G1 X96.611 Y74.364 E8.43403
G1 X97.465 Y74.019 E8.46467
G1 X98.345 Y73.749 E8.49528
G1 X99.245 Y73.557 E8.52589
G1 X100.159 Y73.443 E8.55653
G1 X100.712 Y73.413 E8.57495
G1 X101.33 Y73.4 E8.59551
G1 X106.293 Y73.4 E8.76058
G1 X107.144 Y73.411 E8.78888
G1 X108.063 Y73.464 E8.8195
G1 X108.974 Y73.597 E8.85012
G1 X109.87 Y73.808 E8.88074
G1 X110.744 Y74.096 E8.91134
G1 X111.59 Y74.459 E8.94196
G1 X112.402 Y74.894 E8.9726
G1 X113.172 Y75.398 E9.00321
G1 X113.896 Y75.967 E9.03384
G1 X114.568 Y76.596 E9.06445
G1 X115.183 Y77.282 E9.09509
G1 X115.736 Y78.018 E9.12571
G1 X116.223 Y78.799 E9.15633
G1 X116.64 Y79.62 E9.18695
G1 X116.985 Y80.474 E9.21759
G1 X117.254 Y81.354 E9.24819
G1 X117.446 Y82.254 E9.2788
G1 X117.566 Y83.264 E9.31263
G1 X117.774 Y86.217 E9.41109
G1 X118.023 Y88.682 E9.49349
G1 X118.349 Y91.203 E9.57804
G1 X118.745 Y93.706 E9.66233
G1 X119.212 Y96.199 E9.74669
G1 X119.74 Y98.644 E9.82988
G1 X120.353 Y101.125 E9.91488
G1 X121.02 Y103.532 E9.99796
G1 X121.769 Y105.971 E10.08282
G1 X122.583 Y108.371 E10.16711
G1 X123.468 Y110.763 E10.25194
G1 X124.403 Y113.082 E10.3351
G1 X125.412 Y115.394 E10.419
G1 X126.482 Y117.667 E10.50256
G1 X127.646 Y119.972 E10.58844
G1 X128.833 Y122.165 E10.67138
G1 X130.098 Y124.348 E10.7553
G1 X131.435 Y126.515 E10.83999
G1 X132.812 Y128.612 E10.92343
G1 X134.272 Y130.702 E11.00822
G1 X135.776 Y132.733 E11.09228
G1 X137.319 Y134.696 E11.17532
G1 X138.964 Y136.672 E11.26084
G1 X140.622 Y138.552 E11.34421
G1 X141.122 Y139.089 E11.36862
G1 X141.855 Y139.899 E11.40495
G1 X142.442 Y140.608 E11.43556
G1 X142.965 Y141.366 E11.46619
G1 X143.421 Y142.166 E11.49682
G1 X143.805 Y143.002 E11.52742
G1 X144.116 Y143.869 E11.55806
G1 X144.349 Y144.76 E11.58869
G1 X144.505 Y145.667 E11.6193
G1 X144.585 Y146.679 E11.65306
G1 X144.6 Y147.33 E11.67472
G1 X144.599 Y150.395 E11.77666
G1 X144.59 Y151.122 E11.80084
G1 X144.539 Y152.041 E11.83146
G1 X144.408 Y152.953 E11.8621
G1 X144.198 Y153.849 E11.89271
G1 X143.912 Y154.724 E11.92333
G1 X143.551 Y155.571 E11.95395
G1 X143.117 Y156.383 E11.98457
G1 X142.615 Y157.155 E12.0152
G1 X142.047 Y157.88 E12.04583
G1 X141.419 Y158.553 E12.07645
G1 X140.735 Y159.169 E12.10707
G1 X140 Y159.723 E12.13768
G1 X139.22 Y160.212 E12.1683
G1 X138.4 Y160.631 E12.19893
G1 X137.547 Y160.977 E12.22954
G1 X136.667 Y161.248 E12.26017
G1 X135.767 Y161.441 E12.29078
G1 X134.853 Y161.556 E12.32142
G1 X134.288 Y161.587 E12.34024
G1 X133.67 Y161.6 E12.3608
G1 X101.57 Y161.599 E13.42845
G1 X100.872 Y161.59 E13.45167
G1 X99.953 Y161.538 E13.48228
G1 X99.042 Y161.407 E13.5129
G1 X98.146 Y161.197 E13.5435
G1 X97.271 Y160.91 E13.57413
G1 X96.424 Y160.548 E13.60477
G1 X95.612 Y160.114 E13.63539
G1 X94.841 Y159.612 E13.66599
G1 X94.116 Y159.044 E13.69662
G1 X93.443 Y158.415 E13.72726
G1 X92.828 Y157.731 E13.75786
G1 X92.274 Y156.996 E13.78847
G1 X91.786 Y156.215 E13.8191
G1 X91.367 Y155.395 E13.84973
G1 X91.021 Y154.542 E13.88034
G1 X90.751 Y153.662 E13.91096
G1 X90.558 Y152.761 E13.94161
G1 X90.444 Y151.848 E13.97221
G1 X90.413 Y151.277 E13.99123
G1 X90.4 Y150.658 E14.01182
G1 X90.401 Y84.531 E16.21121
G1 X90.41 Y83.866 E16.23333
G1 X90.462 Y82.946 E16.26398
G1 X90.594 Y82.035 E16.2946
G1 X90.805 Y81.139 E16.32521
G1 X91.092 Y80.264 E16.35584
G1 X91.455 Y79.418 E16.38646
G1 X91.889 Y78.606 E16.41708
G1 X92.392 Y77.835 E16.4477
G1 X92.961 Y77.111 E16.47833
G0 X93.355 Y77.267
G1 X93.981 Y76.617 E16.50834
G1 X94.662 Y76.024 E16.53838
G1 X95.394 Y75.494 E16.56844
G1 X96.169 Y75.031 E16.59846
G1 X96.982 Y74.638 E16.6285
G1 X97.827 Y74.318 E16.65855
G1 X98.696 Y74.075 E16.68856
G1 X99.584 Y73.909 E16.71861
G1 X100.723 Y73.813 E16.75663
G1 X101.33 Y73.8 E16.77682
G1 X106.293 Y73.8 E16.94189
G1 X107.138 Y73.811 E16.97
G1 X108.039 Y73.864 E17.00002
G1 X108.933 Y73.996 E17.03007
G1 X109.811 Y74.207 E17.06011
G1 X110.667 Y74.495 E17.09014
G1 X111.494 Y74.857 E17.12017
G1 X112.286 Y75.291 E17.15021
G1 X113.037 Y75.794 E17.18027
G1 X113.74 Y76.361 E17.21031
G1 X114.39 Y76.988 E17.24035
G1 X114.982 Y77.67 E17.27039
G1 X115.511 Y78.401 E17.3004
G1 X115.974 Y79.177 E17.33045
G1 X116.366 Y79.99 E17.36047
G1 X116.685 Y80.835 E17.39051
G1 X116.928 Y81.705 E17.42056
G1 X117.093 Y82.593 E17.4506
G1 X117.167 Y83.292 E17.47398
G1 X117.376 Y86.252 E17.57267
G1 X117.627 Y88.737 E17.65574
G1 X117.95 Y91.245 E17.73985
G1 X118.351 Y93.777 E17.82511
G1 X118.821 Y96.287 E17.91005
G1 X119.347 Y98.72 E17.99284
G1 X119.965 Y101.222 E18.07856
G1 X120.647 Y103.685 E18.16356
G1 X121.383 Y106.081 E18.24692
G1 X122.2 Y108.491 E18.33156
G1 X123.093 Y110.903 E18.41711
G1 X124.03 Y113.225 E18.50039
G1 X125.061 Y115.588 E18.58614
G1 X126.12 Y117.84 E18.66891
G1 X127.288 Y120.149 E18.75497
G1 X128.471 Y122.336 E18.83767
G1 X129.754 Y124.553 E18.92287
G1 X131.104 Y126.74 E19.00835
G1 X132.483 Y128.839 E19.09188
G1 X133.938 Y130.923 E19.17642
G1 X135.457 Y132.972 E19.26125
G1 X137.013 Y134.954 E19.34506
G1 X138.673 Y136.947 E19.43133
G1 X140.312 Y138.806 E19.51376
G1 X140.932 Y139.473 E19.54405
G1 X141.559 Y140.167 E19.57516
G1 X142.134 Y140.863 E19.60518
G1 X142.645 Y141.608 E19.63523
G1 X143.089 Y142.395 E19.66528
G1 X143.461 Y143.217 E19.69529
G1 X143.759 Y144.07 E19.72535
G1 X143.98 Y144.945 E19.75536
G1 X144.123 Y145.837 E19.78541
G1 X144.185 Y146.691 E19.81389
G1 X144.2 Y147.33 E19.83515
G1 X144.199 Y150.39 E19.93692
G1 X144.19 Y151.117 E19.96111
G1 X144.139 Y152.019 E19.99115
G1 X144.008 Y152.913 E20.02121
G1 X143.799 Y153.791 E20.05122
G1 X143.513 Y154.648 E20.08127
G1 X143.152 Y155.476 E20.11132
G1 X142.72 Y156.268 E20.14132
G1 X142.219 Y157.02 E20.17138
G1 X141.653 Y157.724 E20.20142
G1 X141.028 Y158.375 E20.23144
G1 X140.347 Y158.969 E20.26149
G1 X139.616 Y159.5 E20.29154
G1 X138.842 Y159.964 E20.32156
G1 X138.029 Y160.358 E20.35161
G1 X137.185 Y160.678 E20.38163
G1 X136.315 Y160.923 E20.41169
G1 X135.428 Y161.089 E20.4417
G1 X134.277 Y161.187 E20.48013
G1 X133.67 Y161.2 E20.50032
G1 X101.575 Y161.199 E21.5678
G1 X100.877 Y161.19 E21.59102
G1 X99.976 Y161.139 E21.62104
G1 X99.082 Y161.007 E21.65109
G1 X98.204 Y160.798 E21.68111
G1 X97.347 Y160.511 E21.71117
G1 X96.52 Y160.15 E21.74118
G1 X95.727 Y159.717 E21.77123
G1 X94.976 Y159.216 E21.80126
G1 X94.272 Y158.65 E21.8313
G1 X93.621 Y158.024 E21.86134
G1 X93.028 Y157.343 E21.89138
G1 X92.498 Y156.612 E21.92141
G1 X92.034 Y155.837 E21.95145
G1 X91.64 Y155.024 E21.9815
G1 X91.32 Y154.18 E22.01152
G1 X91.076 Y153.31 E22.04158
G1 X90.91 Y152.422 E22.07162
G1 X90.813 Y151.267 E22.11017
G1 X90.8 Y150.658 E22.13043
G1 X90.801 Y84.536 E24.32966
G1 X90.81 Y83.871 E24.35178
G1 X90.862 Y82.969 E24.38183
G1 X90.994 Y82.076 E24.41185
G1 X91.204 Y81.198 E24.44188
G1 X91.491 Y80.341 E24.47194
G1 X91.853 Y79.514 E24.50197
G1 X92.286 Y78.722 E24.53199
G1 X92.788 Y77.971 E24.56203
G1 X93.355 Y77.267 E24.5921
G1 F2700 E19.5921
;MESH:test screwdriver.stl
G0 F6000 X100.335 Y84.42
G0 X101.601 Y150.399
;TYPE:WALL-INNER
G1 F2700 E24.5921
G1 F1200 X133.4 Y150.4 E25.64974
G1 X133.4 Y149 E25.6963
G1 X133.4 Y147.6 E25.74286
G1 X116.101 Y147.6 E26.31823
G1 X115.876 Y147.557 E26.32585
G1 X115.696 Y147.444 E26.33292
G1 X115.552 Y147.244 E26.34112
G1 X114.963 Y145.918 E26.38937
G1 X114.413 Y144.582 E26.43743
G1 X113.899 Y143.224 E26.48572
G1 X113.422 Y141.85 E26.5341
G1 X112.985 Y140.465 E26.5824
G1 X112.587 Y139.069 E26.63068
G1 X112.229 Y137.663 E26.67894
G1 X111.907 Y136.234 E26.72766
G1 X111.634 Y134.82 E26.77556
G1 X111.395 Y133.388 E26.82384
G1 X111.198 Y131.952 E26.87205
G1 X111.04 Y130.508 E26.92037
G1 X110.924 Y129.059 E26.96872
G1 X110.85 Y127.611 E27.01694
G1 X110.816 Y126.177 E27.06465
G1 X110.822 Y124.706 E27.11357
G1 X110.869 Y123.255 E27.16186
G1 X110.958 Y121.807 E27.21011
G1 X111.087 Y120.361 E27.2584
G1 X111.177 Y119.601 E27.28385
G1 X109.601 Y119.601 E27.33627
G1 X109.494 Y120.493 E27.36615
G1 X109.363 Y121.887 E27.41272
G1 X109.27 Y123.31 E27.46015
G1 X109.215 Y124.725 E27.50725
G1 X109.2 Y126.207 E27.55654
G1 X109.222 Y127.554 E27.60135
G1 X109.285 Y128.968 E27.64842
G1 X109.385 Y130.377 E27.69541
G1 X109.525 Y131.785 E27.74247
G1 X109.702 Y133.191 E27.7896
G1 X109.918 Y134.589 E27.83665
G1 X110.172 Y135.981 E27.88371
G1 X110.465 Y137.365 E27.93076
G1 X110.795 Y138.742 E27.97786
G1 X111.164 Y140.109 E28.02495
G1 X111.563 Y141.451 E28.07152
G1 X112.008 Y142.808 E28.11902
G1 X112.486 Y144.141 E28.16612
G1 X113.001 Y145.461 E28.21325
G1 X113.583 Y146.834 E28.26285
G1 X113.603 Y147.016 E28.26894
G1 X113.55 Y147.244 E28.27672
G1 X113.406 Y147.444 E28.28492
G1 X113.077 Y147.6 E28.29703
G1 X107 Y147.6 E28.49915
G1 X106.787 Y147.562 E28.50635
G1 X106.612 Y147.459 E28.5131
G1 X106.427 Y147.182 E28.52418
G1 X106.4 Y147 E28.5303
G1 X106.4 Y84.6 E30.60573
G1 X101.6 Y84.6 E30.76538
G1 X101.601 Y150.399 E32.95386
G0 F6000 X101.201 Y150.799
;TYPE:WALL-OUTER
G1 F1200 X133.8 Y150.8 E34.03811
G1 X133.8 Y149 E34.09798
G1 X133.8 Y147.2 E34.15785
G1 X116.101 Y147.2 E34.74652
G1 X115.943 Y147.139 E34.75215
G1 X115.333 Y145.766 E34.80212
G1 X114.781 Y144.424 E34.85039
G1 X114.277 Y143.093 E34.89772
G1 X113.804 Y141.73 E34.94571
G1 X113.37 Y140.355 E34.99366
G1 X112.975 Y138.97 E35.04157
G1 X112.619 Y137.575 E35.08945
G1 X112.3 Y136.158 E35.13776
G1 X112.028 Y134.754 E35.18533
G1 X111.791 Y133.334 E35.23321
G1 X111.596 Y131.908 E35.28108
G1 X111.439 Y130.476 E35.32899
G1 X111.324 Y129.039 E35.37694
G1 X111.25 Y127.601 E35.42483
G1 X111.216 Y126.131 E35.47374
G1 X111.222 Y124.719 E35.5207
G1 X111.269 Y123.279 E35.56862
G1 X111.356 Y121.843 E35.61647
G1 X111.485 Y120.408 E35.66439
G1 X111.627 Y119.201 E35.70481
G1 X109.247 Y119.201 E35.78397
G1 X109.096 Y120.455 E35.82598
G1 X108.963 Y121.871 E35.87329
G1 X108.87 Y123.294 E35.92072
G1 X108.815 Y124.721 E35.96821
G1 X108.8 Y126.213 E36.01784
G1 X108.822 Y127.571 E36.06301
G1 X108.886 Y128.996 E36.11046
G1 X108.987 Y130.416 E36.1578
G1 X109.128 Y131.835 E36.20523
G1 X109.306 Y133.251 E36.2527
G1 X109.524 Y134.661 E36.30015
G1 X109.78 Y136.063 E36.34756
G1 X110.076 Y137.458 E36.39499
G1 X110.409 Y138.846 E36.44246
G1 X110.78 Y140.223 E36.48989
G1 X111.183 Y141.575 E36.53682
G1 X111.631 Y142.943 E36.58469
G1 X112.113 Y144.286 E36.63215
G1 X112.633 Y145.617 E36.67968
G1 X113.196 Y146.951 E36.72784
G1 X113.184 Y147.082 E36.73221
G1 X113.036 Y147.198 E36.73847
G1 X106.944 Y147.2 E36.94109
G1 X106.831 Y147.108 E36.94594
G1 X106.802 Y147.035 E36.94855
G1 X106.8 Y84.2 E39.03845
G1 X101.2 Y84.2 E39.22471
G1 X101.201 Y150.799 E41.4398
G0 F6000 X101.47 Y150.53
G0 X101.701 Y150.038
G0 X101.962 Y150.038
;TYPE:SKIN
G1 F1200 X133.04 Y150.04 E42.47346
G1 X133.04 Y149 E42.50805
G1 X133.04 Y147.96 E42.54264
G1 X116.067 Y147.957 E43.10716
G1 X115.742 Y147.895 E43.11817
G1 X115.451 Y147.71 E43.12964
G1 X115.219 Y147.385 E43.14292
G1 X114.638 Y146.076 E43.19055
G1 X114.077 Y144.714 E43.23954
G1 X113.56 Y143.351 E43.28803
G1 X113.084 Y141.979 E43.33633
G1 X112.643 Y140.585 E43.38496
G1 X112.246 Y139.194 E43.43307
G1 X111.878 Y137.754 E43.4825
G1 X111.551 Y136.299 E43.5321
G1 X111.281 Y134.899 E43.57953
G1 X111.041 Y133.461 E43.62802
G1 X110.842 Y132.01 E43.67673
G1 X110.683 Y130.559 E43.72528
G1 X110.566 Y129.096 E43.77409
G1 X110.49 Y127.641 E43.82255
G1 X110.456 Y126.18 E43.87116
G1 X110.461 Y124.733 E43.91929
G1 X110.509 Y123.254 E43.9685
G1 X110.597 Y121.795 E44.01712
G1 X110.729 Y120.32 E44.06637
G1 X110.772 Y119.962 E44.07837
G1 X109.922 Y119.962 E44.10664
G1 X109.855 Y120.518 E44.12526
G1 X109.724 Y121.908 E44.1717
G1 X109.631 Y123.311 E44.21847
G1 X109.575 Y124.734 E44.26583
G1 X109.56 Y126.203 E44.31469
G1 X109.582 Y127.526 E44.3587
G1 X109.643 Y128.936 E44.40564
G1 X109.743 Y130.333 E44.45223
G1 X109.882 Y131.738 E44.49919
