;FLAVOR:Marlin
;TIME:2293
;Filament used: 3.38966m
;Layer height: 0.35
;MINX:90
;MINY:73
;MINZ:0.2
;MAXX:145
;MAXY:162
;MAXZ:29.95
;Generated with Cura_SteamEngine 5.2.1
M140 S60
M105
M190 S60
M104 S210
M105
M109 S210
M82 ;absolute extrusion mode
; Ender 3 Custom Start G-code
G92 E0 ; Reset Extruder
G28 ; Home all axes
G1 Z2.0 F3000 ; Move Z Axis up little to prevent scratching of Heat Bed
G1 X0.1 Y20 Z0.3 F5000.0 ; Move to start position
G1 X0.1 Y200.0 Z0.3 F1500.0 E15 ; Draw the first line
G1 X0.4 Y200.0 Z0.3 F5000.0 ; Move to side a little
G1 X0.4 Y20 Z0.3 F1500.0 E30 ; Draw the second line
G92 E0 ; Reset Extruder
G1 Z2.0 F3000 ; Move Z Axis up little to prevent scratching of Heat Bed
G1 X5 Y20 Z0.3 F5000.0 ; Move over to prevent blob squish
G92 E0
G92 E0
G1 F2700 E-5
;LAYER_COUNT:86
;LAYER:0
M107
M204 S1000
M205 X8 Y8
G0 F6000 X92.566 Y76.958 Z0.2
;TYPE:SKIRT
G1 F2700 E0
G1 F6000 X93.198 Y76.264 E0.03122
G1 X93.886 Y75.627 E0.0624
G1 X94.626 Y75.051 E0.09359
G1 X95.412 Y74.539 E0.12479
G1 X96.239 Y74.097 E0.15598
G1 X97.101 Y73.727 E0.18718
G1 X97.991 Y73.431 E0.21838
G1 X98.903 Y73.213 E0.24957
G1 X99.83 Y73.072 E0.28075
G1 X100.701 Y73.013 E0.30979
G1 X101.33 Y73 E0.33071
G1 X106.45 Y73.001 E0.50101
G1 X107.149 Y73.011 E0.52426
G1 X108.086 Y73.065 E0.55547
G1 X109.014 Y73.197 E0.58665
G1 X109.928 Y73.409 E0.61786
G1 X110.82 Y73.698 E0.64904
G1 X111.685 Y74.061 E0.68024
G1 X112.515 Y74.497 E0.71143
G1 X113.305 Y75.002 E0.74261
G1 X114.05 Y75.573 E0.77383
G1 X114.743 Y76.205 E0.80503
G1 X115.38 Y76.893 E0.83621
G1 X115.955 Y77.634 E0.86741
G1 X116.466 Y78.42 E0.89859
G1 X116.908 Y79.248 E0.92981
G1 X117.277 Y80.109 E0.96096
G1 X117.572 Y81 E0.99218
G1 X117.856 Y82.285 E1.03595
G1 X118.248 Y84.751 E1.119
G1 X118.717 Y87.257 E1.2038
G1 X119.243 Y89.687 E1.28649
G1 X119.843 Y92.122 E1.3699
G1 X120.519 Y94.563 E1.45414
G1 X121.256 Y96.962 E1.53762
G1 X122.072 Y99.373 E1.62227
G1 X122.942 Y101.721 E1.70556
G1 X123.877 Y104.043 E1.78881
G1 X124.883 Y106.348 E1.87246
G1 X125.964 Y108.648 E1.95699
G1 X127.095 Y110.887 E2.04042
G1 X128.3 Y113.113 E2.12461
G1 X128.59 Y113.632 E2.14438
G1 X129.012 Y114.469 E2.17556
G1 X129.352 Y115.314 E2.20585
G1 X129.589 Y115.981 E2.2294
G1 X130.502 Y118.448 E2.31689
G1 X131.448 Y120.798 E2.40114
G1 X132.454 Y123.106 E2.48488
G1 X133.534 Y125.403 E2.56931
G1 X134.652 Y127.616 E2.65177
G1 X135.862 Y129.855 E2.73642
G1 X137.124 Y132.036 E2.82023
G1 X138.429 Y134.152 E2.90291
G1 X139.83 Y136.287 E2.98785
G1 X141.268 Y138.346 E3.07138
G1 X142.831 Y140.458 E3.15877
G1 X143.357 Y141.235 E3.18998
G1 X143.814 Y142.053 E3.22114
G1 X144.2 Y142.908 E3.25234
G1 X144.511 Y143.793 E3.28354
G1 X144.747 Y144.701 E3.31475
G1 X144.904 Y145.625 E3.34592
G1 X144.985 Y146.667 E3.38068
G1 X145 Y147.33 E3.40274
G1 X144.999 Y150.415 E3.50535
G1 X144.989 Y151.142 E3.52953
G1 X144.936 Y152.079 E3.56074
G1 X144.804 Y153.007 E3.59192
G1 X144.593 Y153.921 E3.62312
G1 X144.304 Y154.813 E3.6543
G1 X143.941 Y155.678 E3.6855
G1 X143.506 Y156.509 E3.7167
G1 X143.001 Y157.299 E3.74789
G1 X142.431 Y158.044 E3.77909
G1 X141.8 Y158.738 E3.81028
G1 X141.111 Y159.375 E3.84149
G1 X140.371 Y159.951 E3.87268
G1 X139.585 Y160.462 E3.90386
G1 X138.758 Y160.904 E3.93505
G1 X137.896 Y161.274 E3.96625
G1 X137.006 Y161.569 E3.99744
G1 X136.094 Y161.788 E4.02863
G1 X135.167 Y161.928 E4.05981
G1 X134.299 Y161.987 E4.08875
G1 X133.67 Y162 E4.10968
G1 X101.565 Y161.999 E5.17749
G1 X100.867 Y161.99 E5.20071
G1 X99.931 Y161.938 E5.23189
G1 X99.002 Y161.806 E5.2631
G1 X98.088 Y161.596 E5.29429
G1 X97.195 Y161.309 E5.32549
G1 X96.33 Y160.946 E5.35669
G1 X95.499 Y160.512 E5.38787
G1 X94.708 Y160.008 E5.41907
G1 X93.963 Y159.438 E5.45027
G1 X93.269 Y158.807 E5.48146
G1 X92.632 Y158.12 E5.51262
G1 X92.055 Y157.38 E5.54383
G1 X91.543 Y156.594 E5.57503
G1 X91.1 Y155.767 E5.60624
G1 X90.729 Y154.906 E5.63742
G1 X90.433 Y154.016 E5.66862
G1 X90.214 Y153.104 E5.69981
G1 X90.073 Y152.177 E5.731
G1 X90.013 Y151.288 E5.76063
G1 X90 Y150.658 E5.78159
G1 X90.001 Y84.525 E7.98118
G1 X90.01 Y83.86 E8.0033
G1 X90.063 Y82.924 E8.03449
G1 X90.195 Y81.995 E8.06569
G1 X90.406 Y81.081 E8.09689
G1 X90.694 Y80.189 E8.12807
G1 X91.057 Y79.324 E8.15927
G1 X91.492 Y78.493 E8.19047
G1 X91.996 Y77.703 E8.22163
G1 X92.566 Y76.958 E8.25283
G0 X92.961 Y77.111
G1 X93.589 Y76.439 E8.28343
G1 X94.274 Y75.823 E8.31407
G1 X95.01 Y75.27 E8.34469
G1 X95.791 Y74.782 E8.37532
G1 X96.611 Y74.364 E8.40593
G1 X97.465 Y74.019 E8.43656
G1 X98.345 Y73.749 E8.46718
G1 X99.245 Y73.557 E8.49779
G1 X100.159 Y73.443 E8.52842
G1 X100.712 Y73.413 E8.54684
G1 X101.33 Y73.4 E8.5674
G1 X106.293 Y73.4 E8.73247
G1 X107.144 Y73.411 E8.76078
G1 X108.063 Y73.464 E8.79139
G1 X108.974 Y73.597 E8.82201
G1 X109.87 Y73.808 E8.85263
G1 X110.744 Y74.096 E8.88324
G1 X111.59 Y74.459 E8.91386
G1 X112.402 Y74.894 E8.9445
G1 X113.172 Y75.398 E8.9751
G1 X113.896 Y75.967 E9.00573
G1 X114.568 Y76.596 E9.03635
G1 X115.183 Y77.282 E9.06699
G1 X115.736 Y78.018 E9.09761
G1 X116.223 Y78.799 E9.12822
G1 X116.64 Y79.62 E9.15885
G1 X116.985 Y80.474 E9.18948
G1 X117.254 Y81.354 E9.22009
G1 X117.461 Y82.348 E9.25386
G1 X117.852 Y84.81 E9.33677
G1 X118.327 Y87.343 E9.42249
G1 X118.851 Y89.77 E9.50507
G1 X119.461 Y92.243 E9.58979
G1 X120.136 Y94.682 E9.67396
G1 X120.873 Y97.081 E9.75743
G1 X121.686 Y99.48 E9.84168
G1 X122.572 Y101.873 E9.92655
G1 X123.515 Y104.216 E10.01055
G1 X124.518 Y106.513 E10.09392
G1 X125.603 Y108.82 E10.17871
G1 X126.723 Y111.037 E10.26132
G1 X127.973 Y113.347 E10.34868
G1 X128.241 Y113.827 E10.36697
G1 X128.654 Y114.649 E10.39756
G1 X128.975 Y115.448 E10.4262
G1 X129.206 Y116.098 E10.44915
G1 X130.136 Y118.61 E10.53824
G1 X131.087 Y120.971 E10.6229
G1 X132.083 Y123.257 E10.70583
G1 X133.179 Y125.588 E10.7915
G1 X134.293 Y127.793 E10.87367
G1 X135.515 Y130.055 E10.95918
G1 X136.771 Y132.225 E11.04257
G1 X138.103 Y134.384 E11.12695
G1 X139.495 Y136.505 E11.21133
G1 X140.934 Y138.567 E11.29496
G1 X142.51 Y140.696 E11.38306
G1 X143.025 Y141.459 E11.41368
G1 X143.472 Y142.264 E11.4443
G1 X143.847 Y143.104 E11.4749
G1 X144.148 Y143.974 E11.50552
G1 X144.373 Y144.867 E11.53615
G1 X144.519 Y145.776 E11.56677
G1 X144.585 Y146.679 E11.59688
G1 X144.6 Y147.33 E11.61854
G1 X144.599 Y150.41 E11.72098
G1 X144.589 Y151.137 E11.74517
G1 X144.536 Y152.056 E11.77578
G1 X144.404 Y152.967 E11.8064
G1 X144.193 Y153.863 E11.83702
G1 X143.906 Y154.738 E11.86764
G1 X143.543 Y155.584 E11.89826
G1 X143.109 Y156.396 E11.92889
G1 X142.605 Y157.167 E11.95952
G1 X142.037 Y157.891 E11.99013
G1 X141.408 Y158.563 E12.02074
G1 X140.723 Y159.178 E12.05136
G1 X139.987 Y159.731 E12.08198
G1 X139.206 Y160.219 E12.11261
G1 X138.386 Y160.637 E12.14322
G1 X137.532 Y160.982 E12.17386
G1 X136.652 Y161.251 E12.20446
G1 X135.751 Y161.444 E12.23511
G1 X134.838 Y161.557 E12.26571
G1 X134.288 Y161.587 E12.28403
G1 X133.67 Y161.6 E12.30459
G1 X101.57 Y161.599 E13.37224
G1 X100.872 Y161.59 E13.39546
G1 X99.953 Y161.538 E13.42607
G1 X99.042 Y161.407 E13.45668
G1 X98.146 Y161.197 E13.48729
G1 X97.271 Y160.91 E13.51792
G1 X96.424 Y160.548 E13.54856
G1 X95.612 Y160.114 E13.57918
G1 X94.841 Y159.612 E13.60978
G1 X94.116 Y159.044 E13.64041
G1 X93.443 Y158.415 E13.67105
G1 X92.828 Y157.731 E13.70164
G1 X92.274 Y156.996 E13.73226
G1 X91.786 Y156.215 E13.76289
G1 X91.367 Y155.395 E13.79351
G1 X91.021 Y154.542 E13.82413
G1 X90.751 Y153.662 E13.85475
G1 X90.558 Y152.761 E13.88539
G1 X90.444 Y151.848 E13.916
G1 X90.413 Y151.277 E13.93501
G1 X90.4 Y150.658 E13.95561
G1 X90.401 Y84.531 E16.155
G1 X90.41 Y83.866 E16.17712
G1 X90.462 Y82.946 E16.20777
G1 X90.594 Y82.035 E16.23838
G1 X90.805 Y81.139 E16.269
G1 X91.092 Y80.264 E16.29963
G1 X91.455 Y79.418 E16.33025
G1 X91.889 Y78.606 E16.36087
G1 X92.392 Y77.835 E16.39149
G1 X92.961 Y77.111 E16.42212
G0 X93.355 Y77.267
G1 X93.981 Y76.617 E16.45213
G1 X94.662 Y76.024 E16.48217
G1 X95.394 Y75.494 E16.51222
G1 X96.169 Y75.031 E16.54225
G1 X96.982 Y74.638 E16.57228
G1 X97.827 Y74.318 E16.60234
G1 X98.696 Y74.075 E16.63235
G1 X99.584 Y73.909 E16.66239
G1 X100.723 Y73.813 E16.70041
G1 X101.33 Y73.8 E16.72061
G1 X106.293 Y73.8 E16.88568
G1 X107.138 Y73.811 E16.91378
G1 X108.039 Y73.864 E16.9438
G1 X108.933 Y73.996 E16.97386
G1 X109.811 Y74.207 E17.00389
G1 X110.667 Y74.495 E17.03393
G1 X111.494 Y74.857 E17.06396
G1 X112.286 Y75.291 E17.094
G1 X113.037 Y75.794 E17.12406
G1 X113.74 Y76.361 E17.1541
G1 X114.39 Y76.988 E17.18414
G1 X114.982 Y77.67 E17.21417
G1 X115.511 Y78.401 E17.24418
G1 X115.974 Y79.177 E17.27424
G1 X116.366 Y79.99 E17.30426
G1 X116.685 Y80.835 E17.3343
G1 X116.928 Y81.705 E17.36434
G1 X117.066 Y82.41 E17.38824
G1 X117.464 Y84.915 E17.4726
G1 X117.922 Y87.361 E17.55537
G1 X118.472 Y89.903 E17.64187
G1 X119.067 Y92.316 E17.72453
G1 X119.754 Y94.801 E17.81028
G1 X120.495 Y97.211 E17.89414
G1 X121.308 Y99.611 E17.97842
G1 X122.201 Y102.025 E18.06403
G1 X123.137 Y104.347 E18.1473
G1 X124.161 Y106.694 E18.23247
G1 X125.242 Y108.992 E18.31693
G1 X126.379 Y111.243 E18.40081
G1 X127.628 Y113.552 E18.48812
G1 X127.891 Y114.022 E18.50604
G1 X128.297 Y114.829 E18.53608
G1 X128.599 Y115.582 E18.56307
G1 X128.854 Y116.299 E18.58838
G1 X129.766 Y118.762 E18.67573
G1 X130.708 Y121.101 E18.7596
G1 X131.726 Y123.438 E18.84438
G1 X132.818 Y125.76 E18.92973
G1 X133.941 Y127.984 E19.01259
G1 X135.16 Y130.239 E19.09785
G1 X136.443 Y132.456 E19.18305
G1 X137.755 Y134.583 E19.26617
G1 X139.165 Y136.732 E19.35166
G1 X140.617 Y138.812 E19.43603
G1 X142.188 Y140.934 E19.52384
G1 X142.693 Y141.683 E19.55389
G1 X143.129 Y142.473 E19.5839
G1 X143.494 Y143.299 E19.61393
G1 X143.784 Y144.155 E19.64399
G1 X143.998 Y145.032 E19.67402
G1 X144.133 Y145.925 E19.70406
G1 X144.185 Y146.691 E19.72959
G1 X144.2 Y147.33 E19.75085
G1 X144.199 Y150.404 E19.85309
G1 X144.189 Y151.131 E19.87728
G1 X144.137 Y152.033 E19.90733
G1 X144.005 Y152.926 E19.93735
G1 X143.794 Y153.805 E19.96742
G1 X143.507 Y154.661 E19.99745
G1 X143.145 Y155.488 E20.02747
G1 X142.711 Y156.28 E20.05751
G1 X142.209 Y157.031 E20.08755
G1 X141.643 Y157.734 E20.11757
G1 X141.016 Y158.385 E20.14763
G1 X140.335 Y158.977 E20.17765
G1 X139.604 Y159.507 E20.20768
G1 X138.828 Y159.97 E20.23773
G1 X138.015 Y160.363 E20.26777
G1 X137.17 Y160.683 E20.29782
G1 X136.301 Y160.926 E20.32783
G1 X135.413 Y161.091 E20.35787
G1 X134.277 Y161.187 E20.39579
G1 X133.67 Y161.2 E20.41598
G1 X101.575 Y161.199 E21.48347
G1 X100.877 Y161.19 E21.50669
G1 X99.976 Y161.139 E21.5367
G1 X99.082 Y161.007 E21.56676
G1 X98.204 Y160.798 E21.59678
G1 X97.347 Y160.511 E21.62684
G1 X96.52 Y160.15 E21.65685
G1 X95.727 Y159.717 E21.6869
G1 X94.976 Y159.216 E21.71693
G1 X94.272 Y158.65 E21.74697
G1 X93.621 Y158.024 E21.77701
G1 X93.028 Y157.343 E21.80704
G1 X92.498 Y156.612 E21.83707
G1 X92.034 Y155.837 E21.86712
G1 X91.64 Y155.024 E21.89717
G1 X91.32 Y154.18 E21.92719
G1 X91.076 Y153.31 E21.95724
G1 X90.91 Y152.422 E21.98729
G1 X90.813 Y151.267 E22.02584
G1 X90.8 Y150.658 E22.0461
G1 X90.801 Y84.536 E24.24532
G1 X90.81 Y83.871 E24.26744
G1 X90.862 Y82.969 E24.29749
G1 X90.994 Y82.076 E24.32752
G1 X91.204 Y81.198 E24.35754
G1 X91.491 Y80.341 E24.3876
G1 X91.853 Y79.514 E24.41763
G1 X92.286 Y78.722 E24.44765
G1 X92.788 Y77.971 E24.4777
G1 X93.355 Y77.267 E24.50776
G1 F2700 E19.50776
;MESH:screwdriverholder2.stl
G0 F6000 X100.335 Y84.42
G0 X101.601 Y150.399
;TYPE:WALL-INNER
G1 F2700 E24.50776
G1 F1200 X133.4 Y150.4 E25.5654
G1 X133.4 Y149 E25.61197
G1 X133.4 Y147.6 E25.65853
G1 X122.396 Y147.6 E26.02452
G1 X122.152 Y147.549 E26.03282
G1 X121.928 Y147.392 E26.04191
G1 X121.35 Y146.394 E26.08027
G1 X120.845 Y145.463 E26.1155
G1 X120.373 Y144.522 E26.15051
G1 X119.925 Y143.564 E26.18569
G1 X119.51 Y142.598 E26.22066
G1 X119.114 Y141.601 E26.25634
G1 X118.762 Y140.622 E26.29094
G1 X118.434 Y139.618 E26.32607
G1 X118.136 Y138.604 E26.36122
G1 X117.87 Y137.586 E26.39622
G1 X117.632 Y136.557 E26.43135
G1 X117.427 Y135.521 E26.46647
G1 X117.253 Y134.479 E26.50161
G1 X117.111 Y133.434 E26.53668
G1 X116.998 Y132.384 E26.57181
G1 X116.919 Y131.334 E26.60683
G1 X116.871 Y130.277 E26.64202
G1 X116.855 Y129.219 E26.67722
G1 X116.87 Y128.163 E26.71234
G1 X116.918 Y127.11 E26.7474
G1 X116.997 Y126.057 E26.78252
G1 X117.108 Y125.008 E26.81761
G1 X117.248 Y123.961 E26.85274
G1 X117.417 Y122.95 E26.88683
G1 X117.627 Y121.882 E26.92304
G1 X117.863 Y120.854 E26.95812
G1 X118.19 Y119.6 E27.00122
G1 X115.471 Y119.6 E27.09165
G1 X115.325 Y120.19 E27.11187
G1 X115.103 Y121.225 E27.14708
G1 X114.913 Y122.249 E27.18172
G1 X114.75 Y123.311 E27.21745
G1 X114.621 Y124.344 E27.25208
G1 X114.521 Y125.398 E27.28729
G1 X114.452 Y126.454 E27.32249
G1 X114.415 Y127.49 E27.35697
G1 X114.408 Y128.584 E27.39336
G1 X114.435 Y129.641 E27.42852
G1 X114.49 Y130.68 E27.46313
G1 X114.579 Y131.75 E27.49884
G1 X114.698 Y132.803 E27.53409
G1 X114.848 Y133.851 E27.5693
G1 X115.028 Y134.892 E27.60443
G1 X115.24 Y135.928 E27.63961
G1 X115.483 Y136.959 E27.67484
G1 X115.754 Y137.982 E27.71004
G1 X116.052 Y138.981 E27.74471
G1 X116.377 Y139.969 E27.7793
G1 X116.75 Y140.995 E27.81561
G1 X117.141 Y141.978 E27.8508
G1 X117.561 Y142.953 E27.88611
G1 X118.001 Y143.892 E27.9206
G1 X118.484 Y144.847 E27.95619
G1 X118.988 Y145.78 E27.99146
G1 X119.563 Y146.774 E28.02966
G1 X119.599 Y146.954 E28.03576
G1 X119.52 Y147.302 E28.04763
G1 X119.432 Y147.417 E28.05245
G1 X119.244 Y147.549 E28.06009
G1 X119.078 Y147.6 E28.06586
G1 X107 Y147.6 E28.46758
G1 X106.787 Y147.562 E28.47478
G1 X106.612 Y147.459 E28.48153
G1 X106.427 Y147.182 E28.49261
G1 X106.4 Y147 E28.49873
G1 X106.4 Y84.6 E30.57416
G1 X101.6 Y84.6 E30.73381
G1 X101.601 Y150.399 E32.92229
G0 F6000 X101.201 Y150.799
;TYPE:WALL-OUTER
G1 F1200 X133.8 Y150.8 E34.00654
G1 X133.8 Y149 E34.06641
G1 X133.8 Y147.2 E34.12628
G1 X122.338 Y147.2 E34.5075
G1 X122.238 Y147.129 E34.51158
G1 X121.702 Y146.203 E34.54717
G1 X121.203 Y145.283 E34.58198
G1 X120.735 Y144.352 E34.61664
G1 X120.293 Y143.406 E34.65137
G1 X119.882 Y142.45 E34.68598
G1 X119.49 Y141.465 E34.72124
G1 X119.142 Y140.498 E34.75542
G1 X118.818 Y139.505 E34.79016
G1 X118.523 Y138.503 E34.8249
G1 X118.26 Y137.496 E34.85952
G1 X118.024 Y136.479 E34.89424
G1 X117.821 Y135.455 E34.92896
G1 X117.649 Y134.425 E34.9637
G1 X117.509 Y133.391 E34.9984
G1 X117.397 Y132.354 E35.03309
G1 X117.319 Y131.316 E35.06771
G1 X117.271 Y130.271 E35.10251
G1 X117.255 Y129.225 E35.1373
G1 X117.27 Y128.181 E35.17203
G1 X117.317 Y127.14 E35.20669
G1 X117.395 Y126.099 E35.24141
G1 X117.504 Y125.061 E35.27612
G1 X117.643 Y124.027 E35.31082
G1 X117.813 Y123.01 E35.34512
G1 X118.017 Y121.972 E35.3803
G1 X118.25 Y120.955 E35.415
G1 X118.513 Y119.945 E35.44972
G1 X118.731 Y119.2 E35.47553
G1 X115.158 Y119.2 E35.59437
G1 X114.937 Y120.089 E35.62484
G1 X114.71 Y121.152 E35.66099
G1 X114.515 Y122.206 E35.69664
G1 X114.353 Y123.261 E35.73215
G1 X114.223 Y124.3 E35.76697
G1 X114.122 Y125.366 E35.80259
G1 X114.052 Y126.434 E35.83818
G1 X114.015 Y127.476 E35.87286
G1 X114.008 Y128.594 E35.91005
G1 X114.035 Y129.662 E35.94558
G1 X114.093 Y130.729 E35.98112
G1 X114.181 Y131.794 E36.01667
G1 X114.302 Y132.859 E36.05232
G1 X114.454 Y133.919 E36.08793
G1 X114.636 Y134.972 E36.12347
G1 X114.858 Y136.048 E36.16002
G1 X115.096 Y137.061 E36.19463
G1 X115.371 Y138.096 E36.23024
G1 X115.666 Y139.087 E36.26463
G1 X115.997 Y140.094 E36.29989
G1 X116.378 Y141.143 E36.33701
G1 X116.773 Y142.136 E36.37255
G1 X117.199 Y143.122 E36.40828
G1 X117.65 Y144.084 E36.44362
G1 X118.132 Y145.037 E36.47914
G1 X118.642 Y145.98 E36.51479
G1 X119.205 Y146.962 E36.55244
G1 X119.174 Y147.101 E36.55718
G1 X119.035 Y147.198 E36.56282
G1 X106.944 Y147.2 E36.96497
G1 X106.831 Y147.108 E36.96981
G1 X106.802 Y147.035 E36.97242
G1 X106.8 Y84.2 E39.06233
G1 X101.2 Y84.2 E39.24858
G1 X101.201 Y150.799 E41.46367
G0 F6000 X101.47 Y150.53
G0 X101.701 Y150.038
G0 X101.962 Y150.038
;TYPE:SKIN
G1 F1200 X133.04 Y150.04 E42.49733
G1 X133.04 Y149 E42.53192
G1 X133.04 Y147.96 E42.56651
G1 X122.36 Y147.956 E42.92173
G1 X122.006 Y147.882 E42.93376
G1 X121.647 Y147.627 E42.94841
G1 X121.043 Y146.584 E42.98849
G1 X120.533 Y145.645 E43.02403
