;FLAVOR:Marlin
;TIME:906
;Filament used: 0.406803m
;Layer height: 0.2
;MINX:101.666
;MINY:128.391
;MINZ:0.2
;MAXX:133.054
;MAXY:159.933
;MAXZ:13.6
;Generated with Cura_SteamEngine 5.2.1
M140 S50
M105
M190 S50
M104 S200
M105
M109 S200
M82 ;absolute extrusion mode
; Ender 3 Custom Start G-code
G92 E0 ; Reset Extruder
G28 ; Home all axes
G1 Z2.0 F3000 ; Move Z Axis up little to prevent scratching of Heat Bed
G1 X0.1 Y20 Z0.3 F5000.0 ; Move to start position
G1 X0.1 Y200.0 Z0.3 F1500.0 E15 ; Draw the first line
G1 X0.4 Y200.0 Z0.3 F5000.0 ; Move to side a little
G1 X0.4 Y20 Z0.3 F1500.0 E30 ; Draw the second line
G92 E0 ; Reset Extruder
G1 Z2.0 F3000 ; Move Z Axis up little to prevent scratching of Heat Bed
G1 X5 Y20 Z0.3 F5000.0 ; Move over to prevent blob squish
G92 E0
G92 E0
G1 F2700 E-5
;LAYER_COUNT:68
;LAYER:0
M107
G0 F6000 X106.147 Y131.175 Z0.2
;TYPE:SKIRT
G1 F2700 E0
G1 F1200 X106.437 Y130.957 E0.01207
G1 X107.21 Y130.426 E0.04326
G1 X108.026 Y129.963 E0.07446
G1 X108.878 Y129.571 E0.10566
G1 X109.76 Y129.253 E0.13684
G1 X110.78 Y128.986 E0.17191
G1 X112.475 Y128.629 E0.22952
G1 X113.4 Y128.475 E0.26071
G1 X114.335 Y128.401 E0.29191
G1 X114.94 Y128.395 E0.31203
G1 X115.675 Y128.408 E0.33648
G1 X118.313 Y128.417 E0.42422
G1 X119.381 Y128.394 E0.45975
G1 X119.946 Y128.391 E0.47854
G1 X120.883 Y128.426 E0.50973
G1 X121.814 Y128.541 E0.54093
G1 X122.287 Y128.631 E0.55694
G1 X123.946 Y128.983 E0.61335
G1 X124.854 Y129.216 E0.64453
G1 X125.74 Y129.526 E0.67575
G1 X126.595 Y129.911 E0.70694
G1 X127.415 Y130.367 E0.73814
G1 X128.227 Y130.916 E0.77074
G1 X128.504 Y131.122 E0.78223
G1 X129.232 Y131.714 E0.81343
G1 X129.907 Y132.365 E0.84463
G1 X130.524 Y133.071 E0.87581
G1 X131.079 Y133.827 E0.907
G1 X131.567 Y134.628 E0.9382
G1 X131.986 Y135.467 E0.96939
G1 X132.292 Y136.229 E0.9967
G1 X132.398 Y136.524 E1.00713
G1 X132.677 Y137.42 E1.03834
G1 X132.879 Y138.336 E1.06954
G1 X133.002 Y139.265 E1.10071
G1 X133.038 Y139.833 E1.11964
G1 X133.054 Y140.463 E1.1406
G1 X133.05 Y142.73 E1.216
G1 X133.031 Y143.477 E1.24085
G1 X133.004 Y144.136 E1.26279
G1 X132.941 Y145.214 E1.2987
G1 X132.689 Y148.896 E1.42145
G1 X132.63 Y149.619 E1.44558
G1 X132.513 Y150.549 E1.47676
G1 X132.319 Y151.467 E1.50796
G1 X132.046 Y152.364 E1.53915
G1 X131.698 Y153.235 E1.57035
G1 X131.278 Y154.073 E1.60152
G1 X130.787 Y154.873 E1.63274
G1 X130.222 Y155.638 E1.66437
G1 X130.062 Y155.836 E1.67284
G1 X129.442 Y156.539 E1.70402
G1 X128.764 Y157.188 E1.73523
G1 X128.033 Y157.776 E1.76644
G1 X127.256 Y158.3 E1.79761
G1 X126.436 Y158.755 E1.8288
G1 X125.58 Y159.14 E1.86002
G1 X124.695 Y159.45 E1.8912
G1 X123.787 Y159.683 E1.92238
G1 X122.862 Y159.838 E1.95358
G1 X121.676 Y159.921 E1.99312
G1 X120.901 Y159.933 E2.0189
G1 X113.854 Y159.933 E2.25328
G1 X113.027 Y159.92 E2.28079
G1 X112.091 Y159.865 E2.31198
G1 X111.163 Y159.731 E2.34316
G1 X110.249 Y159.518 E2.37438
G1 X109.357 Y159.228 E2.40558
G1 X108.493 Y158.863 E2.43677
G1 X107.663 Y158.426 E2.46797
G1 X106.874 Y157.92 E2.49915
G1 X106.13 Y157.348 E2.53036
G1 X105.438 Y156.715 E2.56155
G1 X104.802 Y156.026 E2.59274
G1 X104.228 Y155.285 E2.62391
G1 X103.888 Y154.777 E2.64424
G1 X103.744 Y154.548 E2.65324
G1 X103.279 Y153.733 E2.68445
G1 X102.885 Y152.882 E2.71564
G1 X102.565 Y152 E2.74685
G1 X102.322 Y151.095 E2.77801
G1 X102.108 Y149.756 E2.82312
G1 X102.048 Y149.092 E2.84529
G1 X101.778 Y145.143 E2.97694
G1 X101.73 Y144.349 E3.0034
G1 X101.686 Y143.281 E3.03895
G1 X101.668 Y142.386 E3.06872
G1 X101.666 Y140.817 E3.12091
G1 X101.676 Y140.163 E3.14266
G1 X101.731 Y139.227 E3.17385
G1 X101.945 Y137.907 E3.21833
G1 X102.027 Y137.544 E3.2307
G1 X102.273 Y136.639 E3.2619
G1 X102.594 Y135.758 E3.29308
G1 X102.99 Y134.908 E3.32427
G1 X103.457 Y134.094 E3.35548
G1 X103.991 Y133.323 E3.38668
G1 X104.589 Y132.601 E3.41786
G1 X105.246 Y131.932 E3.44905
G1 X106.147 Y131.175 E3.48819
G0 F6000 X106.388 Y131.495
G1 F1200 X106.678 Y131.277 E3.50025
G1 X107.437 Y130.756 E3.53087
G1 X108.238 Y130.303 E3.56148
G1 X109.076 Y129.922 E3.5921
G1 X109.944 Y129.614 E3.62273
G1 X110.862 Y129.378 E3.65426
G1 X112.557 Y129.021 E3.71187
G1 X113.466 Y128.87 E3.74252
G1 X114.384 Y128.799 E3.77314
G1 X114.932 Y128.795 E3.79137
G1 X115.665 Y128.808 E3.81575
G1 X118.321 Y128.817 E3.90409
G1 X119.383 Y128.794 E3.93942
G1 X119.948 Y128.791 E3.95821
G1 X120.868 Y128.826 E3.98883
G1 X122.204 Y129.022 E4.03375
G1 X123.863 Y129.374 E4.09015
G1 X124.755 Y129.604 E4.12079
G1 X125.623 Y129.91 E4.1514
G1 X126.461 Y130.291 E4.18202
G1 X127.263 Y130.743 E4.21264
G1 X127.989 Y131.237 E4.24185
G1 X128.266 Y131.443 E4.25333
G1 X128.98 Y132.024 E4.28394
G1 X129.641 Y132.665 E4.31457
G1 X130.244 Y133.361 E4.3452
G1 X130.784 Y134.106 E4.3758
G1 X131.258 Y134.896 E4.40644
G1 X131.661 Y135.723 E4.43704
G1 X131.916 Y136.365 E4.46002
G1 X132.022 Y136.66 E4.47044
G1 X132.295 Y137.539 E4.50106
G1 X132.491 Y138.438 E4.53166
G1 X132.608 Y139.351 E4.56227
G1 X132.639 Y139.848 E4.57884
G1 X132.654 Y140.463 E4.5993
G1 X132.653 Y142.477 E4.66628
G1 X132.631 Y143.461 E4.69902
G1 X132.594 Y144.324 E4.72775
G1 X132.29 Y148.863 E4.87905
G1 X132.231 Y149.586 E4.90318
G1 X132.116 Y150.5 E4.93382
G1 X131.923 Y151.4 E4.96444
G1 X131.652 Y152.28 E4.99506
G1 X131.306 Y153.133 E5.02568
G1 X130.887 Y153.953 E5.05631
G1 X130.398 Y154.733 E5.08692
G1 X129.911 Y155.386 E5.11402
G1 X129.751 Y155.584 E5.12249
G1 X129.141 Y156.275 E5.15314
G1 X128.475 Y156.909 E5.18373
G1 X127.755 Y157.484 E5.21437
G1 X126.989 Y157.994 E5.24498
G1 X126.181 Y158.435 E5.2756
G1 X125.338 Y158.805 E5.30622
G1 X124.466 Y159.1 E5.33683
G1 X123.571 Y159.319 E5.36748
G1 X122.661 Y159.459 E5.3981
G1 X121.67 Y159.521 E5.43113
G1 X120.895 Y159.533 E5.45691
G1 X113.86 Y159.533 E5.69089
G1 X113.033 Y159.52 E5.7184
G1 X112.114 Y159.465 E5.74902
G1 X111.204 Y159.331 E5.77962
G1 X110.308 Y159.119 E5.81024
G1 X109.434 Y158.829 E5.84087
G1 X108.588 Y158.465 E5.8715
G1 X107.777 Y158.029 E5.90212
G1 X107.008 Y157.524 E5.93272
G1 X106.284 Y156.954 E5.96337
G1 X105.613 Y156.324 E5.99398
G1 X105 Y155.638 E6.02458
G1 X104.227 Y154.564 E6.06859
G1 X104.083 Y154.335 E6.07759
G1 X103.627 Y153.535 E6.10822
G1 X103.242 Y152.698 E6.13886
G1 X102.932 Y151.832 E6.16945
G1 X102.697 Y150.941 E6.2001
G1 X102.506 Y149.717 E6.24131
G1 X102.447 Y149.065 E6.26308
G1 X102.177 Y145.119 E6.39463
G1 X102.129 Y144.325 E6.42109
G1 X102.092 Y143.477 E6.44932
G1 X102.068 Y142.385 E6.48565
G1 X102.066 Y140.823 E6.5376
G1 X102.076 Y140.169 E6.55936
G1 X102.13 Y139.25 E6.58997
G1 X102.336 Y137.995 E6.63227
G1 X102.418 Y137.632 E6.64465
G1 X102.659 Y136.744 E6.67526
G1 X102.977 Y135.88 E6.70588
G1 X103.369 Y135.047 E6.7365
G1 X103.831 Y134.251 E6.76711
G1 X104.361 Y133.498 E6.79773
G1 X104.954 Y132.794 E6.82835
G1 X105.606 Y132.144 E6.85897
G1 X106.388 Y131.495 E6.89277
G0 F6000 X106.628 Y131.815
G1 F1200 X106.918 Y131.597 E6.90484
G1 X107.663 Y131.087 E6.93487
G1 X108.451 Y130.644 E6.96493
G1 X109.274 Y130.273 E6.99496
G1 X110.127 Y129.977 E7.02499
G1 X110.945 Y129.769 E7.05306
G1 X112.64 Y129.412 E7.11067
G1 X113.531 Y129.265 E7.14071
G1 X114.431 Y129.198 E7.17073
G1 X114.925 Y129.195 E7.18716
G1 X115.657 Y129.208 E7.21151
G1 X118.328 Y129.217 E7.30035
G1 X119.385 Y129.194 E7.33551
G1 X119.95 Y129.191 E7.3543
G1 X120.852 Y129.226 E7.38433
G1 X122.121 Y129.413 E7.42699
G1 X123.78 Y129.765 E7.4834
G1 X124.654 Y129.991 E7.51342
G1 X125.505 Y130.294 E7.54347
G1 X126.326 Y130.671 E7.57351
G1 X127.11 Y131.119 E7.60355
G1 X127.75 Y131.558 E7.62936
G1 X128.027 Y131.764 E7.64084
G1 X128.727 Y132.335 E7.67089
G1 X129.374 Y132.965 E7.70092
G1 X129.962 Y133.65 E7.73095
G1 X130.488 Y134.384 E7.76098
G1 X130.947 Y135.162 E7.79103
G1 X131.335 Y135.978 E7.82108
G1 X131.539 Y136.5 E7.83972
G1 X131.645 Y136.795 E7.85015
G1 X131.913 Y137.657 E7.88017
G1 X132.103 Y138.54 E7.91021
G1 X132.239 Y139.863 E7.95445
G1 X132.254 Y140.463 E7.97441
G1 X132.253 Y142.477 E8.04139
G1 X132.231 Y143.445 E8.0736
G1 X132.195 Y144.3 E8.10206
G1 X132.148 Y145.08 E8.12805
G1 X131.891 Y148.831 E8.2531
G1 X131.832 Y149.554 E8.27723
G1 X131.719 Y150.45 E8.30727
G1 X131.527 Y151.332 E8.33729
G1 X131.258 Y152.194 E8.36732
G1 X130.913 Y153.029 E8.39737
G1 X130.496 Y153.83 E8.42741
G1 X130.01 Y154.591 E8.45744
G1 X129.599 Y155.135 E8.48012
G1 X129.439 Y155.333 E8.48858
G1 X128.841 Y156.01 E8.51863
G1 X128.186 Y156.631 E8.54865
G1 X127.478 Y157.191 E8.57867
G1 X126.723 Y157.687 E8.60872
G1 X125.927 Y158.114 E8.63876
G1 X125.097 Y158.469 E8.66879
G1 X124.238 Y158.749 E8.69883
G1 X123.358 Y158.952 E8.72887
G1 X122.464 Y159.077 E8.7589
G1 X121.664 Y159.121 E8.78554
G1 X120.889 Y159.133 E8.81132
G1 X113.867 Y159.133 E9.04488
G1 X113.04 Y159.12 E9.07239
G1 X112.138 Y159.066 E9.10244
G1 X111.245 Y158.932 E9.13247
G1 X110.367 Y158.72 E9.16252
G1 X109.512 Y158.431 E9.19253
G1 X108.685 Y158.067 E9.22259
G1 X107.894 Y157.632 E9.25261
G1 X107.144 Y157.128 E9.28267
G1 X106.442 Y156.561 E9.31268
G1 X105.792 Y155.933 E9.34274
G1 X105.201 Y155.25 E9.37278
G1 X104.565 Y154.351 E9.40941
G1 X104.421 Y154.122 E9.41841
G1 X103.975 Y153.337 E9.44843
G1 X103.6 Y152.515 E9.47848
G1 X103.299 Y151.664 E9.50851
G1 X103.074 Y150.789 E9.53856
G1 X102.904 Y149.678 E9.57594
G1 X102.846 Y149.037 E9.59735
G1 X102.577 Y145.095 E9.72876
G1 X102.519 Y144.109 E9.76161
G1 X102.492 Y143.46 E9.78322
G1 X102.468 Y142.384 E9.81901
G1 X102.466 Y140.829 E9.87073
G1 X102.476 Y140.175 E9.89249
G1 X102.53 Y139.274 E9.92251
G1 X102.726 Y138.083 E9.96266
G1 X102.808 Y137.72 E9.97503
G1 X103.045 Y136.849 E10.00506
G1 X103.359 Y136.002 E10.0351
G1 X103.747 Y135.187 E10.06512
G1 X104.205 Y134.409 E10.09515
G1 X104.731 Y133.674 E10.12521
G1 X105.319 Y132.989 E10.15524
G1 X105.965 Y132.358 E10.18527
G1 X106.628 Y131.815 E10.21378
G1 F2700 E5.21378
;MESH:scincepro1+others.3mf(1)
G0 F6000 X112.486 Y139.328
G0 X112.914 Y141.274
;TYPE:WALL-OUTER
G1 F2700 E10.21378
G1 F963.9 X113.067 Y140.938 E10.22906
G1 X113.262 Y140.595 E10.2454
G1 X113.494 Y140.252 E10.26255
G1 X113.812 Y139.861 E10.28342
G1 X113.154 Y139.971 E10.31104
G1 X112.965 Y140.143 E10.32163
G1 X112.914 Y140.357 E10.33074
G1 X112.914 Y141.274 E10.36871
G0 F6000 X112.772 Y142.211
G1 F2318.8 X112.767 Y142.285 E10.36998
G1 F2700 E5.36998
G0 F6000 X113.468 Y142.763
G0 X114.023 Y145.177
G0 X113.623 Y148.334
;TYPE:WALL-INNER
G1 F2700 E10.36998
G1 F1200 X116.08 Y148.333 E10.4517
G1 F1100.9 X116.611 Y148.297 E10.471
G1 X116.012 Y148.144 E10.49341
G1 F1200 X115.504 Y147.971 E10.51126
G1 X115.064 Y147.778 E10.52724
G1 X114.554 Y147.494 E10.54666
G1 X114.057 Y147.123 E10.56728
G1 X113.7 Y146.798 E10.58334
G1 X113.504 Y146.583 E10.59302
G1 X113.623 Y148.334 E10.65139
G0 F6000 X113.705 Y148.072
G0 X118.113 Y148.297
G1 F1100.9 X118.655 Y148.333 E10.67108
G1 F1200 X121.099 Y148.333 E10.75237
G1 X121.219 Y146.584 E10.81068
G1 X120.933 Y146.896 E10.82476
G1 X120.528 Y147.235 E10.84232
G1 X120.08 Y147.545 E10.86044
G1 X119.711 Y147.751 E10.8745
G1 X119.271 Y147.951 E10.89058
G1 X118.72 Y148.14 E10.90995
G1 F1100.9 X118.113 Y148.297 E10.93268
G1 F2700 E5.93268
G0 F6000 X113.783 Y148.163
G1 F2700 E10.93268
G0 F6000 X113.308 Y148.734
;TYPE:WALL-OUTER
G1 F1200 X121.415 Y148.733 E11.20232
G1 X121.479 Y148.656 E11.20565
G1 X121.723 Y145.07 E11.3252
G1 X121.635 Y145.272 E11.33253
G1 X121.446 Y145.616 E11.34558
G1 X121.139 Y146.073 E11.36389
G1 X120.675 Y146.589 E11.38697
G1 X120.27 Y146.929 E11.40456
G1 X119.885 Y147.195 E11.42012
G1 X119.5 Y147.409 E11.43477
G1 X119.09 Y147.592 E11.44971
G1 X118.565 Y147.768 E11.46812
G1 X118.013 Y147.872 E11.48681
G1 X117.595 Y147.91 E11.50077
G1 X117.133 Y147.91 E11.51613
G1 X116.708 Y147.871 E11.53033
G1 X116.14 Y147.764 E11.54955
G1 X115.633 Y147.592 E11.56736
G1 X115.21 Y147.404 E11.58275
G1 X114.75 Y147.145 E11.60031
G1 X114.299 Y146.805 E11.6191
G1 X113.959 Y146.491 E11.63449
G1 X113.602 Y146.097 E11.65218
G1 X113.285 Y145.632 E11.67089
G1 X113.003 Y145.118 E11.69039
G1 X113.242 Y148.632 E11.80754
G1 X113.308 Y148.734 E11.81158
G0 F6000 X113.705 Y148.072
G0 X116.611 Y148.297
;TYPE:WALL-INNER
G1 F1069 X117.096 Y148.321 E11.82971
G1 F1126.8 X117.632 Y148.321 E11.8487
G1 F1069 X118.113 Y148.297 E11.86668
G1 F2700 E6.86668
G0 F6000 X119.606 Y147.601
G0 X119.114 Y146.635
G0 X120.841 Y141.356
G0 X121.663 Y140.954
;TYPE:WALL-OUTER
G1 F2700 E11.86668
G1 F960 X121.808 Y141.274 E11.88128
G1 X121.807 Y140.308 E11.92144
G1 X121.768 Y140.157 E11.92793
G1 X121.569 Y139.974 E11.93917
G1 X120.909 Y139.856 E11.96704
G1 X121.22 Y140.245 E11.98775
G1 X121.458 Y140.59 E12.00517
G1 X121.663 Y140.954 E12.02254
G1 F2700 E7.02254
G0 F6000 X121.632 Y140.542
G0 X120.841 Y141.356
G0 X120.081 Y145.958
G0 X119.976 Y147.992
;TYPE:SKIN
G1 F2700 E12.02254
G1 F1329.6 X120.781 Y147.992 E12.04671
G1 X120.818 Y147.436 E12.06343
G1 X120.736 Y147.507 E12.06669
G1 X120.26 Y147.834 E12.08402
G1 X119.976 Y147.992 E12.09378
G0 F6000 X119.86 Y147.783
G0 X117.824 Y148.112
G0 X113.941 Y148.234
G0 X113.941 Y147.994
G1 F1333.3 X114.748 Y147.993 E12.11794
G1 X114.298 Y147.734 E12.13348
G1 X113.903 Y147.428 E12.14843
G1 X113.941 Y147.994 E12.16541
G1 F2700 E7.16541
;MESH:NONMESH
G0 F300 X113.941 Y147.994 Z0.4
G0 F6000 X113.941 Y148.234
G0 X113.265 Y145.966
G0 X114.023 Y145.177
G0 X115.562 Y139.564
G0 X115.088 Y138.616
G0 X112.783 Y139.109
G0 X112.353 Y139.428
G0 X112.114 Y139.761
G0 X112.024 Y140.155
G0 X112.009 Y142.791
G0 X112.527 Y142.53
;TIME_ELAPSED:28.174048
;LAYER:1
M106 S85
;TYPE:WALL-OUTER
;MESH:scincepro1+others.3mf(1)
G1 F2700 E12.16541
G1 F444.8 X112.522 Y143.186 E12.19563
G1 F461.5 X112.55 Y143.713 E12.21907
G1 F447.3 X112.576 Y143.976 E12.23118
G1 F412.8 X112.643 Y144.449 E12.25489
G1 F2700 E7.25489
G0 F7500 X112.795 Y145.165
G0 X112.527 Y142.53
G1 F2700 E12.25489
G1 F491.9 X112.669 Y142.205 E12.26967
G1 F599.6 X112.783 Y141.779 E12.28474
G1 F616.1 X112.921 Y141.38 E12.29878
G1 X113.044 Y141.098 E12.30901
G1 X113.203 Y140.792 E12.32048
G1 X113.475 Y140.355 E12.3376
G1 X113.806 Y139.95 E12.355
G1 X114.091 Y139.658 E12.36857
G1 X114.343 Y139.438 E12.37969
G1 X114.604 Y139.24 E12.39059
G1 X114.754 Y139.142 E12.39655
G1 X114.013 Y139.328 E12.42196
G1 X113.728 Y139.386 E12.43163
G1 X113.041 Y139.501 E12.4548
G1 X112.693 Y139.691 E12.46799
G1 X112.511 Y139.979 E12.47932
G1 X112.434 Y140.248 E12.48863
G1 F608.5 X112.433 Y142.134 E12.55214
G1 F497.9 X112.527 Y142.53 E12.56889
G1 F2700 E7.56889
G0 F7500 X113.473 Y142.668
G0 X114.852 Y146.14
G0 X114.157 Y146.972
G0 X114.644 Y147.317
G0 X116.519 Y148.505
G1 F2700 E12.56889
G0 F7500 X113.223 Y148.758
;TYPE:WALL-INNER
G1 F616.1 X115.905 Y148.758 E12.6581
G1 F571.8 X116.42 Y148.728 E12.67658
G1 F548.9 X116.835 Y148.742 E12.69209
G1 F577.2 X117.475 Y148.749 E12.71481
G1 F566.5 X118.155 Y148.734 E12.73941
G1 F579.9 X118.597 Y148.759 E12.75506
G1 F616.1 X121.495 Y148.76 E12.85144
G1 X121.688 Y145.972 E12.9444
G1 X121.443 Y146.336 E12.95899
G1 X121.023 Y146.798 E12.97976
G1 X120.709 Y147.088 E12.99397
G1 X120.246 Y147.446 E13.01344
G1 X119.673 Y147.77 E13.03533
G1 X119.113 Y148.016 E13.05568
G1 X118.599 Y148.166 E13.07348
G1 F579.9 X118.103 Y148.289 E13.09154
G1 F565.2 X117.532 Y148.329 E13.1123
G1 F575.8 X116.864 Y148.308 E13.13608
G1 F548.9 X116.451 Y148.266 E13.15158
G1 F571.8 X115.918 Y148.111 E13.17147
G1 F616.1 X115.461 Y147.954 E13.18754
G1 X114.981 Y147.742 E13.205
G1 X114.401 Y147.385 E13.22765
G1 X114.019 Y147.091 E13.24368
G1 X113.595 Y146.702 E13.26282
G1 X113.23 Y146.261 E13.28186
G1 X113.032 Y145.971 E13.29354
G1 X113.223 Y148.758 E13.38645
G0 F7500 X112.961 Y149.11
;TYPE:WALL-OUTER
G1 F616.1 X113.083 Y149.158 E13.39081
G1 X121.616 Y149.16 E13.67462
G1 X121.774 Y149.099 E13.68025
G1 X121.885 Y148.926 E13.68709
G1 X122.19 Y144.52 E13.83399
G1 F503 X122.127 Y144.117 E13.8506
G1 X121.944 Y144.482 E13.86724
G1 F616.1 X121.805 Y144.889 E13.88155
G1 X121.637 Y145.268 E13.89533
G1 X121.436 Y145.631 E13.90913
G1 X121.117 Y146.1 E13.928
G1 X120.751 Y146.504 E13.94613
G1 X120.437 Y146.794 E13.96035
G1 X119.978 Y147.144 E13.97955
G1 X119.509 Y147.405 E13.9974
G1 X119.001 Y147.632 E14.0159
G1 X118.487 Y147.782 E14.03371
G1 X118.03 Y147.87 E14.04919
