;FLAVOR:Marlin
;TIME:1007
;Filament used: 0.359413m
;Layer height: 0.2
;MINX:107.832
;MINY:100.502
;MINZ:0.2
;MAXX:139.076
;MAXY:137.418
;MAXZ:14
;Generated with Cura_SteamEngine 5.2.1
M140 S50
M105
M190 S50
M104 S200
M105
M109 S200
M82 ;absolute extrusion mode
; Ender 3 Custom Start G-code
G92 E0 ; Reset Extruder
G28 ; Home all axes
G1 Z2.0 F3000 ; Move Z Axis up little to prevent scratching of Heat Bed
G1 X0.1 Y20 Z0.3 F5000.0 ; Move to start position
G1 X0.1 Y200.0 Z0.3 F1500.0 E15 ; Draw the first line
G1 X0.4 Y200.0 Z0.3 F5000.0 ; Move to side a little
G1 X0.4 Y20 Z0.3 F1500.0 E30 ; Draw the second line
G92 E0 ; Reset Extruder
G1 Z2.0 F3000 ; Move Z Axis up little to prevent scratching of Heat Bed
G1 X5 Y20 Z0.3 F5000.0 ; Move over to prevent blob squish
G92 E0
G92 E0
G1 F2700 E-5
;LAYER_COUNT:70
;LAYER:0
M107
G0 F6000 X110.716 Y104.924 Z0.2
;TYPE:SKIRT
G1 F2700 E0
G1 F1200 X111.37 Y104.251 E0.03121
G1 X112.238 Y103.512 E0.06913
G1 X112.537 Y103.283 E0.08165
G1 X113.305 Y102.745 E0.11284
G1 X114.116 Y102.274 E0.14404
G1 X114.964 Y101.875 E0.17521
G1 X115.844 Y101.549 E0.20642
G1 X117.157 Y101.212 E0.2515
G1 X119.78 Y100.71 E0.34033
G1 X120.708 Y100.573 E0.37153
G1 X121.832 Y100.514 E0.40897
G1 X123.183 Y100.512 E0.4539
G1 X124.01 Y100.502 E0.48141
G1 X124.993 Y100.502 E0.5141
G1 X125.93 Y100.542 E0.5453
G1 X127.057 Y100.697 E0.58313
G1 X129.737 Y101.209 E0.67388
G1 X130.65 Y101.425 E0.70509
G1 X131.541 Y101.717 E0.73627
G1 X132.404 Y102.084 E0.76746
G1 X133.233 Y102.523 E0.79866
G1 X134.232 Y103.183 E0.83849
G1 X134.539 Y103.411 E0.85121
G1 X135.267 Y104.002 E0.88239
G1 X135.942 Y104.652 E0.91356
G1 X136.56 Y105.358 E0.94477
G1 X137.115 Y106.114 E0.97596
G1 X137.604 Y106.915 E1.00717
G1 X138.023 Y107.754 E1.03837
G1 X138.369 Y108.626 E1.06957
G1 X138.669 Y109.643 E1.10484
G1 X138.749 Y109.972 E1.1161
G1 X138.931 Y110.892 E1.14729
G1 X139.035 Y111.824 E1.17848
G1 X139.058 Y112.379 E1.19696
G1 X139.076 Y113.492 E1.23398
G1 X139.074 Y115.389 E1.29707
G1 X139.056 Y116.381 E1.33007
G1 X139.023 Y117.044 E1.35215
G1 X138.329 Y126.717 E1.6747
G1 X138.273 Y127.361 E1.6962
G1 X138.152 Y128.291 E1.7274
G1 X137.952 Y129.207 E1.75858
G1 X137.675 Y130.103 E1.78977
G1 X137.322 Y130.972 E1.82097
G1 X136.897 Y131.808 E1.85216
G1 X136.402 Y132.605 E1.88337
G1 X135.841 Y133.357 E1.91457
G1 X135.218 Y134.058 E1.94576
G1 X134.538 Y134.703 E1.97694
G1 X133.805 Y135.289 E2.00815
G1 X133.025 Y135.809 E2.03933
G1 X132.204 Y136.262 E2.07052
G1 X131.346 Y136.642 E2.10173
G1 X130.46 Y136.949 E2.13292
G1 X129.551 Y137.178 E2.16409
G1 X128.625 Y137.33 E2.1953
G1 X127.479 Y137.407 E2.23351
G1 X126.745 Y137.418 E2.25792
G1 X120.134 Y137.418 E2.4778
G1 X119.437 Y137.408 E2.50099
G1 X118.501 Y137.354 E2.53217
G1 X117.572 Y137.221 E2.56339
G1 X116.659 Y137.01 E2.59455
G1 X115.766 Y136.721 E2.62577
G1 X114.902 Y136.358 E2.65694
G1 X114.072 Y135.922 E2.68812
G1 X113.281 Y135.417 E2.71934
G1 X112.537 Y134.846 E2.75053
G1 X111.844 Y134.214 E2.78173
G1 X111.207 Y133.525 E2.81294
G1 X110.631 Y132.785 E2.84413
G1 X110.121 Y131.998 E2.87532
G1 X109.679 Y131.171 E2.9065
G1 X109.31 Y130.309 E2.93769
G1 X109.015 Y129.419 E2.96888
G1 X108.797 Y128.507 E3.00006
G1 X108.636 Y127.353 E3.03882
G1 X108.557 Y126.429 E3.06966
G1 X107.912 Y117.426 E3.36987
G1 X107.86 Y116.536 E3.39952
G1 X107.832 Y115.576 E3.43147
G1 X107.832 Y113.098 E3.51389
G1 X107.841 Y112.477 E3.53454
G1 X107.895 Y111.54 E3.56576
G1 X108.097 Y110.273 E3.60843
G1 X108.183 Y109.882 E3.62175
G1 X108.423 Y108.975 E3.65295
G1 X108.74 Y108.093 E3.68412
G1 X109.131 Y107.24 E3.71533
G1 X109.592 Y106.424 E3.74651
G1 X110.122 Y105.65 E3.77771
G1 X110.716 Y104.924 E3.80891
G0 F6000 X111.082 Y105.115
G1 F1200 X111.731 Y104.461 E3.83955
G1 X112.481 Y103.83 E3.87215
G1 X112.78 Y103.601 E3.88468
G1 X113.534 Y103.073 E3.91529
G1 X114.332 Y102.613 E3.94593
G1 X115.166 Y102.224 E3.97654
G1 X116.031 Y101.909 E4.00715
G1 X117.232 Y101.605 E4.04836
G1 X119.855 Y101.103 E4.13718
G1 X120.766 Y100.969 E4.16781
G1 X121.833 Y100.914 E4.20335
G1 X123.189 Y100.912 E4.24845
G1 X124.01 Y100.902 E4.27575
G1 X124.993 Y100.902 E4.30845
G1 X125.913 Y100.942 E4.33908
G1 X126.982 Y101.09 E4.37497
G1 X129.662 Y101.602 E4.46572
G1 X130.558 Y101.814 E4.49634
G1 X131.432 Y102.103 E4.52696
G1 X132.278 Y102.467 E4.55759
G1 X133.089 Y102.902 E4.5882
G1 X133.993 Y103.504 E4.62433
G1 X134.3 Y103.732 E4.63705
G1 X135.015 Y104.313 E4.66769
G1 X135.676 Y104.953 E4.69829
G1 X136.28 Y105.648 E4.72892
G1 X136.82 Y106.393 E4.75952
G1 X137.295 Y107.182 E4.79015
G1 X137.698 Y108.01 E4.82078
G1 X138.029 Y108.869 E4.8514
G1 X138.28 Y109.737 E4.88145
G1 X138.36 Y110.066 E4.89271
G1 X138.538 Y110.97 E4.92335
G1 X138.638 Y111.885 E4.95397
G1 X138.658 Y112.386 E4.97065
G1 X138.676 Y113.492 E5.00744
G1 X138.674 Y115.384 E5.07036
G1 X138.656 Y116.364 E5.10296
G1 X138.624 Y117.015 E5.12464
G1 X137.943 Y126.521 E5.44162
G1 X137.874 Y127.326 E5.4685
G1 X137.755 Y128.239 E5.49912
G1 X137.556 Y129.138 E5.52974
G1 X137.281 Y130.017 E5.56038
G1 X136.93 Y130.868 E5.591
G1 X136.507 Y131.685 E5.62159
G1 X136.014 Y132.463 E5.65223
G1 X135.456 Y133.195 E5.68284
G1 X134.836 Y133.876 E5.71347
G1 X134.16 Y134.501 E5.74409
G1 X133.432 Y135.064 E5.7747
G1 X132.658 Y135.563 E5.80533
G1 X131.843 Y135.992 E5.83597
G1 X130.994 Y136.349 E5.8666
G1 X130.118 Y136.63 E5.8972
G1 X129.22 Y136.835 E5.92783
G1 X128.308 Y136.961 E5.95846
G1 X127.473 Y137.007 E5.98627
G1 X126.739 Y137.018 E6.01069
G1 X120.14 Y137.018 E6.23017
G1 X119.443 Y137.008 E6.25335
G1 X118.524 Y136.955 E6.28397
G1 X117.613 Y136.822 E6.31459
G1 X116.717 Y136.611 E6.34521
G1 X115.842 Y136.323 E6.37585
G1 X114.996 Y135.959 E6.40648
G1 X114.185 Y135.524 E6.43709
G1 X113.414 Y135.021 E6.46771
G1 X112.69 Y134.452 E6.49833
G1 X112.019 Y133.822 E6.52895
G1 X111.404 Y133.137 E6.55956
G1 X110.851 Y132.401 E6.59018
G1 X110.364 Y131.619 E6.62082
G1 X109.947 Y130.799 E6.65142
G1 X109.602 Y129.945 E6.68206
G1 X109.333 Y129.065 E6.71266
G1 X109.141 Y128.164 E6.7433
G1 X109.034 Y127.319 E6.77163
G1 X108.956 Y126.4 E6.80231
G1 X108.301 Y117.246 E7.10755
G1 X108.259 Y116.513 E7.13197
G1 X108.232 Y115.576 E7.16315
G1 X108.232 Y113.103 E7.2454
G1 X108.241 Y112.482 E7.26606
G1 X108.294 Y111.563 E7.29667
G1 X108.487 Y110.359 E7.33723
G1 X108.573 Y109.968 E7.35054
G1 X108.81 Y109.078 E7.38118
G1 X109.123 Y108.212 E7.4118
G1 X109.51 Y107.377 E7.44241
G1 X109.968 Y106.578 E7.47305
G1 X110.493 Y105.822 E7.50366
G1 X111.082 Y105.115 E7.53426
G0 F6000 X111.448 Y105.308
G1 F1200 X112.091 Y104.674 E7.5643
G1 X112.724 Y104.147 E7.59169
G1 X113.023 Y103.918 E7.60422
G1 X113.764 Y103.401 E7.63427
G1 X114.547 Y102.952 E7.66429
G1 X115.367 Y102.574 E7.69432
G1 X116.217 Y102.27 E7.72435
G1 X117.308 Y101.998 E7.76175
G1 X119.931 Y101.496 E7.85057
G1 X120.824 Y101.365 E7.88059
G1 X121.834 Y101.314 E7.91423
G1 X123.195 Y101.312 E7.95949
G1 X124.01 Y101.302 E7.9866
G1 X124.993 Y101.302 E8.0193
G1 X125.895 Y101.342 E8.04933
G1 X126.907 Y101.483 E8.08331
G1 X129.587 Y101.995 E8.17406
G1 X130.466 Y102.204 E8.20411
G1 X131.323 Y102.489 E8.23415
G1 X132.151 Y102.849 E8.26418
G1 X132.944 Y103.281 E8.29421
G1 X133.755 Y103.825 E8.32669
G1 X134.062 Y104.053 E8.33941
G1 X134.762 Y104.623 E8.36944
G1 X135.409 Y105.253 E8.39947
G1 X135.998 Y105.938 E8.42952
G1 X136.525 Y106.672 E8.45957
G1 X136.984 Y107.449 E8.48959
G1 X137.372 Y108.264 E8.51961
G1 X137.687 Y109.111 E8.54967
G1 X137.891 Y109.832 E8.57459
G1 X137.971 Y110.161 E8.58585
G1 X138.146 Y111.047 E8.61589
G1 X138.258 Y112.393 E8.66081
G1 X138.276 Y113.492 E8.69737
G1 X138.274 Y115.378 E8.7601
G1 X138.257 Y116.347 E8.79233
G1 X138.225 Y116.987 E8.81365
G1 X137.532 Y126.648 E9.1358
G1 X137.476 Y127.292 E9.1573
G1 X137.358 Y128.187 E9.18732
G1 X137.161 Y129.068 E9.21735
G1 X136.887 Y129.929 E9.2474
G1 X136.538 Y130.762 E9.27744
G1 X136.117 Y131.561 E9.30748
G1 X135.627 Y132.319 E9.3375
G1 X135.071 Y133.031 E9.36755
G1 X134.455 Y133.691 E9.39757
G1 X133.783 Y134.295 E9.42763
G1 X133.06 Y134.836 E9.45766
G1 X132.292 Y135.311 E9.48769
G1 X131.485 Y135.716 E9.51773
G1 X130.645 Y136.049 E9.54778
G1 X129.779 Y136.306 E9.57782
G1 X128.894 Y136.485 E9.60786
G1 X127.996 Y136.585 E9.63791
G1 X127.467 Y136.607 E9.65552
G1 X126.733 Y136.618 E9.67993
G1 X120.146 Y136.618 E9.89902
G1 X119.449 Y136.608 E9.9222
G1 X118.547 Y136.555 E9.95225
G1 X117.654 Y136.423 E9.98228
G1 X116.776 Y136.212 E10.01231
G1 X115.92 Y135.924 E10.04235
G1 X115.092 Y135.561 E10.07242
G1 X114.301 Y135.127 E10.10243
G1 X113.55 Y134.625 E10.13247
G1 X112.847 Y134.058 E10.16251
G1 X112.197 Y133.431 E10.19255
G1 X111.605 Y132.749 E10.22259
G1 X111.075 Y132.018 E10.25262
G1 X110.613 Y131.242 E10.28266
G1 X110.22 Y130.429 E10.31269
G1 X109.902 Y129.584 E10.34272
G1 X109.659 Y128.714 E10.37276
G1 X109.494 Y127.826 E10.40281
G1 X109.433 Y127.285 E10.42091
G1 X109.355 Y126.372 E10.45139
G1 X108.71 Y117.369 E10.7516
G1 X108.659 Y116.49 E10.78088
G1 X108.632 Y115.575 E10.81133
G1 X108.632 Y113.109 E10.89335
G1 X108.641 Y112.488 E10.91401
G1 X108.694 Y111.587 E10.94403
G1 X108.878 Y110.445 E10.9825
G1 X108.964 Y110.054 E10.99581
G1 X109.197 Y109.181 E11.02587
G1 X109.506 Y108.333 E11.05588
G1 X109.889 Y107.515 E11.08593
G1 X110.343 Y106.734 E11.11597
G1 X110.864 Y105.996 E11.14602
G1 X111.448 Y105.308 E11.17603
G1 F2700 E6.17603
;MESH:scincepro1+others.3mf(4)
G0 F6000 X118.167 Y114.002
G0 X119.031 Y114.001
;TYPE:WALL-OUTER
G1 F2700 E11.17603
G1 F1200 X119.08 Y113.873 E11.18059
G1 X119.209 Y113.604 E11.19052
G1 X119.388 Y113.288 E11.20259
G1 X119.622 Y112.941 E11.21651
G1 X119.874 Y112.631 E11.2298
G1 X120.183 Y112.314 E11.24453
G1 X120.557 Y111.988 E11.26103
G1 X119.76 Y112.135 E11.28798
G1 X119.303 Y112.2 E11.30334
G1 X119.087 Y112.397 E11.31306
G1 X119.032 Y112.627 E11.32092
G1 X119.031 Y114.001 E11.36662
G0 F6000 X118.951 Y114.477
G1 F2016.8 X118.926 Y114.747 E11.37199
G1 X118.883 Y114.772 E11.37297
G1 X118.941 Y114.772 E11.37412
G1 F2700 E6.37412
G0 F6000 X119.236 Y113.146
G0 X119.477 Y112.574
;TYPE:WALL-INNER
G1 F2700 E11.37412
G1 F1340.8 X119.411 Y112.612 E11.37639
G1 X119.389 Y112.574 E11.3777
G1 X119.454 Y112.536 E11.37994
G1 F2700 E6.37994
G0 F6000 X119.892 Y112.319
G0 X120.769 Y112.953
G0 X127.084 Y114.345
G0 X127.875 Y113.993
;TYPE:WALL-OUTER
G1 F2700 E11.37994
G1 F1200 X127.875 Y112.668 E11.42401
G1 X127.821 Y112.399 E11.43313
G1 X127.599 Y112.196 E11.44314
G1 X126.947 Y112.103 E11.46504
G1 X126.326 Y111.985 E11.48607
G1 X126.582 Y112.179 E11.49675
G1 X126.887 Y112.476 E11.51091
G1 X127.237 Y112.872 E11.52849
G1 X127.519 Y113.286 E11.54515
G1 X127.705 Y113.615 E11.55772
G1 X127.875 Y113.993 E11.5715
G0 F6000 X127.671 Y113.146
G0 X127.52 Y112.573
;TYPE:WALL-INNER
G1 F1363.6 X127.454 Y112.611 E11.57373
G1 X127.432 Y112.573 E11.57502
G1 X127.497 Y112.535 E11.57722
G1 F2700 E6.57722
G0 F6000 X127.671 Y113.146
G0 X128.095 Y115.908
G1 F2700 E11.57722
G1 F1363.6 X128.029 Y115.946 E11.57945
G1 X128.007 Y115.908 E11.58074
G1 X128.072 Y115.87 E11.58294
G1 X128.007 Y115.918 E11.58531
G1 X128.029 Y115.956 E11.58659
G1 X128.095 Y115.918 E11.58882
G1 F2700 E6.58882
G0 F6000 X127.342 Y116.209
G0 X124.878 Y119.441
G0 X120.144 Y125.819
G1 F2700 E11.58882
G1 F1200 X126.764 Y125.818 E11.809
G1 X127.228 Y119.334 E12.02521
G1 X126.822 Y119.725 E12.04396
G1 X126.456 Y120.01 E12.05939
G1 X126.02 Y120.296 E12.07673
G1 X125.374 Y120.606 E12.10056
G1 X124.732 Y120.81 E12.12297
G1 X124.263 Y120.906 E12.13889
G1 X123.844 Y120.955 E12.15292
G1 X123.353 Y120.968 E12.16926
G1 X122.826 Y120.931 E12.18683
G1 X122.232 Y120.829 E12.20687
G1 X121.693 Y120.66 E12.22566
G1 X121.23 Y120.469 E12.24232
G1 X120.766 Y120.223 E12.25979
G1 X120.222 Y119.838 E12.28195
G1 X119.681 Y119.366 E12.30583
G1 X120.144 Y125.819 E12.52101
G0 F6000 X119.772 Y126.219
;TYPE:WALL-OUTER
G1 F1200 X127.136 Y126.218 E12.76594
G1 X127.729 Y117.917 E13.04274
G1 X127.528 Y118.284 E13.05665
G1 X127.257 Y118.691 E13.07292
G1 X126.917 Y119.083 E13.09018
G1 X126.575 Y119.41 E13.10591
G1 X126.236 Y119.675 E13.12023
G1 X125.776 Y119.975 E13.13849
G1 X125.204 Y120.244 E13.15952
G1 X124.65 Y120.418 E13.17883
G1 X124.217 Y120.508 E13.19354
G1 X123.798 Y120.557 E13.20757
G1 X123.339 Y120.568 E13.22284
G1 X122.89 Y120.536 E13.23781
G1 X122.35 Y120.447 E13.25601
G1 X121.843 Y120.289 E13.27368
G1 X121.436 Y120.124 E13.28828
G1 X120.931 Y119.855 E13.30731
G1 X120.5 Y119.548 E13.32491
G1 X120.091 Y119.193 E13.34293
G1 X119.719 Y118.773 E13.36159
G1 X119.453 Y118.402 E13.37677
G1 X119.304 Y118.16 E13.38622
G1 X119.176 Y117.912 E13.39551
G1 X119.772 Y126.219 E13.67251
G0 F6000 X120.025 Y125.946
G0 X120.48 Y125.719
G0 X120.48 Y125.458
;TYPE:SKIN
G1 F1200 X126.427 Y125.457 E13.87031
G1 X126.803 Y120.195 E14.04577
G1 X126.653 Y120.314 E14.05214
G1 X126.15 Y120.641 E14.07209
G1 X125.505 Y120.941 E14.09575
G1 X124.9 Y121.139 E14.11692
G1 X124.38 Y121.252 E14.13462
G1 X123.886 Y121.312 E14.15117
G1 X123.286 Y121.327 E14.17114
G1 X122.769 Y121.287 E14.18838
G1 X122.176 Y121.19 E14.20837
G1 X121.62 Y121.017 E14.22773
G1 X121.077 Y120.796 E14.24723
G1 X120.584 Y120.537 E14.26576
G1 X120.104 Y120.2 E14.28526
G1 X120.48 Y125.458 E14.46059
G0 F6000 X120.731 Y125.256
G1 F1200 X120.659 Y125.185 E14.46395
G0 F6000 X120.616 Y124.576
G1 F1200 X121.297 Y125.256 E14.49596
G0 F6000 X121.862 Y125.256
G1 F1200 X120.573 Y123.967 E14.55659
G0 F6000 X120.529 Y123.358
G1 F1200 X122.428 Y125.256 E14.64589
G0 F6000 X122.994 Y125.256
G1 F1200 X120.486 Y122.748 E14.76386
G0 F6000 X120.442 Y122.139
G1 F1200 X123.559 Y125.256 E14.91048
G0 F6000 X124.125 Y125.256
G1 F1200 X120.399 Y121.53 E15.08574
G0 F6000 X120.355 Y120.921
G1 F1200 X124.691 Y125.256 E15.28966
G0 F6000 X125.256 Y125.256
G1 F1200 X120.959 Y120.959 E15.49178
G0 F6000 X121.868 Y121.302
G1 F1200 X125.822 Y125.256 E15.67777
G0 F6000 X126.25 Y125.119
G1 F1200 X122.591 Y121.46 E15.84987
G0 F6000 X123.217 Y121.52
G1 F1200 X126.287 Y124.59 E15.99428
G0 F6000 X126.325 Y124.062
G1 F1200 X123.777 Y121.514 E16.11413
G0 F6000 X124.292 Y121.463
G1 F1200 X126.363 Y123.535 E16.21156
G0 F6000 X126.4 Y123.006
G1 F1200 X124.766 Y121.372 E16.28842
G0 F6000 X125.208 Y121.249
G1 F1200 X126.439 Y122.479 E16.3463
G0 F6000 X126.476 Y121.951
G1 F1200 X125.628 Y121.102 E16.38621
G0 F6000 X126.015 Y120.924
G1 F1200 X126.514 Y121.423 E16.40968
G0 F6000 X126.552 Y120.895
G1 F1200 X126.384 Y120.727 E16.41759
G1 F2700 E11.41759
;MESH:NONMESH
G0 F300 X126.384 Y120.727 Z0.4
G0 F6000 X126.134 Y120.342
G0 X125.27 Y120.455
G0 X124.878 Y119.441
G0 X120.124 Y113.745
G0 X118.996 Y113.183
;TIME_ELAPSED:34.872253
;LAYER:1
M106 S85
;TYPE:WALL-INNER
;MESH:scincepro1+others.3mf(4)
G1 F2700 E16.41759
G1 F1388.2 X119.253 Y112.773 E16.43324
G1 F1377.6 X119.597 Y112.346 E16.45111
G1 F1367.1 X119.854 Y112.083 E16.46319
G1 X119.345 Y112.154 E16.48007
G1 X119.162 Y112.254 E16.48692
G1 F1377.6 X119.043 Y112.419 E16.49355
G1 F1388.2 X118.996 Y112.579 E16.49894
G1 X118.996 Y113.183 E16.51848
G1 F2700 E11.51848
G0 F7500 X118.804 Y114.02
G0 X118.682 Y114.903
;TYPE:WALL-OUTER
G1 F2700 E16.51848
G1 F1003.7 X118.66 Y115.179 E16.53086
G1 F1086.5 X118.641 Y115.633 E16.54964
G1 F1139.2 X118.643 Y116.034 E16.56545
G1 F1120.3 X118.695 Y116.579 E16.58739
G1 F1048.5 X118.739 Y116.903 E16.60139
G1 F2700 E11.60139
G0 F7500 X118.682 Y114.903
G1 F2700 E16.60139
G1 F1125 X118.869 Y114.465 E16.6204
G1 F1350 X118.966 Y114.164 E16.63092
G1 X119.147 Y113.727 E16.64665
G1 X119.282 Y113.47 E16.65631
G1 X119.56 Y113.021 E16.67387
G1 X119.882 Y112.623 E16.6909
G1 X120.177 Y112.321 E16.70494
G1 X120.454 Y112.076 E16.71724
G1 X120.758 Y111.853 E16.72978
G1 X121.078 Y111.644 E16.74249
G1 F1258.7 X121.626 Y111.345 E16.76476
G1 X121.036 Y111.443 E16.78609
G1 F1350 X120.556 Y111.549 E16.80244
G1 X119.876 Y111.679 E16.82547
G1 X119.213 Y111.772 E16.84774
G1 X118.86 Y111.969 E16.86118
G1 X118.679 Y112.255 E16.87244
G1 X118.602 Y112.524 E16.88175
G1 X118.601 Y114.434 E16.94527
G1 F1125 X118.682 Y114.903 E16.96427
G1 F2700 E11.96427
G0 F7500 X119.704 Y114.687
G0 X121.976 Y112.168
G0 X121.626 Y111.345
G1 F2700 E16.96427
G1 F1304.3 X122.205 Y111.193 E16.98488
