;FLAVOR:Marlin
;TIME:1190
;Filament used: 0.414978m
;Layer height: 0.2
;MINX:98.397
;MINY:102.551
;MINZ:0.2
;MAXX:129.638
;MAXY:138.945
;MAXZ:17
;Generated with Cura_SteamEngine 5.2.1
M140 S50
M105
M190 S50
M104 S200
M105
M109 S200
M82 ;absolute extrusion mode
; Ender 3 Custom Start G-code
G92 E0 ; Reset Extruder
G28 ; Home all axes
G1 Z2.0 F3000 ; Move Z Axis up little to prevent scratching of Heat Bed
G1 X0.1 Y20 Z0.3 F5000.0 ; Move to start position
G1 X0.1 Y200.0 Z0.3 F1500.0 E15 ; Draw the first line
G1 X0.4 Y200.0 Z0.3 F5000.0 ; Move to side a little
G1 X0.4 Y20 Z0.3 F1500.0 E30 ; Draw the second line
G92 E0 ; Reset Extruder
G1 Z2.0 F3000 ; Move Z Axis up little to prevent scratching of Heat Bed
G1 X5 Y20 Z0.3 F5000.0 ; Move over to prevent blob squish
G92 E0
G92 E0
G1 F2700 E-5
;LAYER_COUNT:85
;LAYER:0
M107
G0 F6000 X101.782 Y105.962 Z0.2
;TYPE:SKIRT
G1 F2700 E0
G1 F1200 X102.472 Y105.326 E0.03121
G1 X103.214 Y104.752 E0.06241
G1 X104.001 Y104.243 E0.09359
G1 X104.531 Y103.952 E0.1137
G1 X104.853 Y103.786 E0.12575
G1 X105.704 Y103.392 E0.15694
G1 X106.585 Y103.072 E0.18811
G1 X107.491 Y102.828 E0.21932
G1 X108.414 Y102.663 E0.2505
G1 X109.721 Y102.564 E0.2941
G1 X110.885 Y102.551 E0.33282
G1 X112.595 Y102.576 E0.3897
G1 X115.307 Y102.577 E0.4799
G1 X117.15 Y102.551 E0.5412
G1 X118.284 Y102.561 E0.57892
G1 X119.221 Y102.612 E0.61013
G1 X120.15 Y102.742 E0.64133
G1 X121.064 Y102.952 E0.67253
G1 X121.957 Y103.238 E0.70371
G1 X122.822 Y103.599 E0.73489
G1 X123.654 Y104.033 E0.7661
G1 X124.257 Y104.407 E0.7897
G1 X124.59 Y104.629 E0.80301
G1 X125.347 Y105.182 E0.83419
G1 X126.055 Y105.798 E0.8654
G1 X126.707 Y106.472 E0.89659
G1 X127.3 Y107.198 E0.92777
G1 X127.829 Y107.973 E0.95898
G1 X128.444 Y109.105 E1.00183
G1 X128.584 Y109.403 E1.01278
G1 X128.946 Y110.268 E1.04397
G1 X129.234 Y111.161 E1.07518
G1 X129.444 Y112.075 E1.10637
G1 X129.575 Y113.003 E1.13754
G1 X129.624 Y113.788 E1.1637
G1 X129.638 Y114.457 E1.18595
G1 X129.637 Y116.973 E1.26964
G1 X129.627 Y117.678 E1.29309
G1 X129.607 Y118.267 E1.31269
G1 X128.901 Y128.107 E1.64081
G1 X128.841 Y128.837 E1.66517
G1 X128.724 Y129.768 E1.69638
G1 X128.529 Y130.685 E1.72756
G1 X128.256 Y131.582 E1.75875
G1 X127.908 Y132.453 E1.78994
G1 X127.487 Y133.291 E1.82114
G1 X126.995 Y134.09 E1.85235
G1 X126.438 Y134.844 E1.88352
G1 X125.819 Y135.548 E1.9147
G1 X125.141 Y136.197 E1.94592
G1 X124.411 Y136.786 E1.97712
G1 X123.634 Y137.31 E2.00829
G1 X122.814 Y137.766 E2.03949
G1 X121.959 Y138.151 E2.07068
G1 X121.074 Y138.462 E2.10188
G1 X120.166 Y138.696 E2.13307
G1 X119.241 Y138.851 E2.16426
G1 X118.038 Y138.935 E2.20437
G1 X117.352 Y138.945 E2.22719
G1 X110.7 Y138.945 E2.44844
G1 X110.002 Y138.935 E2.47166
G1 X109.066 Y138.881 E2.50284
G1 X108.138 Y138.749 E2.53402
G1 X107.224 Y138.537 E2.56522
G1 X106.332 Y138.248 E2.59641
G1 X105.467 Y137.885 E2.62761
G1 X104.637 Y137.449 E2.65879
G1 X103.846 Y136.944 E2.69001
G1 X103.102 Y136.373 E2.7212
G1 X102.409 Y135.741 E2.75239
G1 X101.772 Y135.053 E2.78358
G1 X101.197 Y134.312 E2.81477
G1 X100.686 Y133.526 E2.84596
G1 X100.244 Y132.698 E2.87717
G1 X99.875 Y131.836 E2.90836
G1 X99.58 Y130.946 E2.93955
G1 X99.362 Y130.034 E2.97073
G1 X99.2 Y128.878 E3.00956
G1 X99.139 Y128.168 E3.03326
G1 X98.469 Y118.906 E3.34212
G1 X98.425 Y118.146 E3.36744
G1 X98.402 Y117.536 E3.38774
G1 X98.397 Y114.572 E3.48633
G1 X98.406 Y113.926 E3.50781
G1 X98.459 Y112.989 E3.53903
G1 X98.592 Y112.061 E3.57021
G1 X98.803 Y111.147 E3.60141
G1 X99.091 Y110.255 E3.63258
G1 X99.466 Y109.365 E3.66471
G1 X99.632 Y109.015 E3.67759
G1 X100.07 Y108.186 E3.70878
G1 X100.577 Y107.396 E3.74
G1 X101.149 Y106.653 E3.77118
G1 X101.782 Y105.962 E3.80235
G0 F6000 X102.113 Y106.196
G1 F1200 X102.795 Y105.578 E3.83296
G1 X103.528 Y105.02 E3.8636
G1 X104.306 Y104.529 E3.8942
G1 X105.036 Y104.141 E3.9217
G1 X105.872 Y103.755 E3.95232
G1 X106.738 Y103.443 E3.98294
G1 X107.628 Y103.208 E4.01356
G1 X108.535 Y103.05 E4.04418
G1 X109.727 Y102.964 E4.08393
G1 X110.879 Y102.951 E4.12224
G1 X112.589 Y102.976 E4.17913
G1 X115.313 Y102.977 E4.26973
G1 X117.156 Y102.951 E4.33103
G1 X118.28 Y102.961 E4.36842
G1 X119.199 Y103.012 E4.39903
G1 X120.11 Y103.142 E4.42964
G1 X121.007 Y103.351 E4.46027
G1 X121.882 Y103.637 E4.49089
G1 X122.729 Y103.998 E4.52151
G1 X123.542 Y104.431 E4.55215
G1 X124.035 Y104.74 E4.5715
G1 X124.368 Y104.962 E4.58481
G1 X125.111 Y105.506 E4.61544
G1 X125.804 Y106.112 E4.64606
G1 X126.442 Y106.775 E4.67666
G1 X127.02 Y107.492 E4.70729
G1 X127.534 Y108.256 E4.73792
G1 X128.082 Y109.275 E4.7764
G1 X128.222 Y109.573 E4.78735
G1 X128.577 Y110.422 E4.81796
G1 X128.857 Y111.299 E4.84858
G1 X129.059 Y112.197 E4.87919
G1 X129.183 Y113.11 E4.90984
G1 X129.224 Y113.799 E4.93279
G1 X129.238 Y114.457 E4.95468
G1 X129.237 Y116.967 E5.03817
G1 X129.227 Y117.672 E5.06162
G1 X129.189 Y118.574 E5.09164
G1 X128.511 Y127.969 E5.40494
G1 X128.442 Y128.804 E5.4328
G1 X128.327 Y129.718 E5.46344
G1 X128.133 Y130.618 E5.49406
G1 X127.862 Y131.497 E5.52466
G1 X127.515 Y132.35 E5.55529
G1 X127.096 Y133.17 E5.58591
G1 X126.607 Y133.95 E5.61653
G1 X126.052 Y134.685 E5.64717
G1 X125.436 Y135.369 E5.67778
G1 X124.762 Y135.996 E5.7084
G1 X124.037 Y136.563 E5.73901
G1 X123.265 Y137.065 E5.76964
G1 X122.452 Y137.498 E5.80028
G1 X121.605 Y137.859 E5.8309
G1 X120.73 Y138.145 E5.86152
G1 X119.834 Y138.354 E5.89212
G1 X118.922 Y138.484 E5.92276
G1 X118.033 Y138.535 E5.95238
G1 X117.347 Y138.545 E5.97519
G1 X110.706 Y138.545 E6.19607
G1 X110.008 Y138.535 E6.21929
G1 X109.089 Y138.482 E6.24991
G1 X108.178 Y138.349 E6.28053
G1 X107.282 Y138.138 E6.31115
G1 X106.408 Y137.85 E6.34175
G1 X105.561 Y137.487 E6.3724
G1 X104.75 Y137.052 E6.40301
G1 X103.98 Y136.548 E6.43362
G1 X103.256 Y135.979 E6.46425
G1 X102.584 Y135.349 E6.49489
G1 X101.969 Y134.664 E6.5255
G1 X101.416 Y133.928 E6.55612
G1 X100.929 Y133.147 E6.58674
G1 X100.512 Y132.326 E6.61736
G1 X100.167 Y131.472 E6.648
G1 X99.898 Y130.592 E6.6786
G1 X99.706 Y129.691 E6.70924
G1 X99.599 Y128.843 E6.73767
G1 X99.527 Y127.991 E6.76611
G1 X98.869 Y118.883 E7.06983
G1 X98.825 Y118.123 E7.09515
G1 X98.802 Y117.523 E7.11512
G1 X98.797 Y114.577 E7.21311
G1 X98.806 Y113.931 E7.2346
G1 X98.859 Y113.012 E7.26521
G1 X98.991 Y112.101 E7.29583
G1 X99.202 Y111.205 E7.32645
G1 X99.49 Y110.33 E7.35708
G1 X99.828 Y109.537 E7.38576
G1 X99.994 Y109.187 E7.39864
G1 X100.424 Y108.373 E7.42926
G1 X100.923 Y107.599 E7.45989
G1 X101.488 Y106.872 E7.49051
G1 X102.113 Y106.196 E7.52113
G0 F6000 X102.444 Y106.432
G1 F1200 X103.117 Y105.83 E7.55117
G1 X103.841 Y105.291 E7.58119
G1 X104.897 Y104.663 E7.62205
G1 X105.219 Y104.497 E7.6341
G1 X106.039 Y104.119 E7.66413
G1 X106.89 Y103.815 E7.69419
G1 X107.764 Y103.588 E7.72422
G1 X108.655 Y103.438 E7.75427
G1 X109.733 Y103.364 E7.79021
G1 X110.873 Y103.351 E7.82813
G1 X112.583 Y103.376 E7.88501
G1 X115.318 Y103.377 E7.97598
G1 X117.161 Y103.351 E8.03728
G1 X118.275 Y103.361 E8.07434
G1 X119.177 Y103.411 E8.10438
G1 X120.07 Y103.541 E8.1344
G1 X120.949 Y103.75 E8.16445
G1 X121.806 Y104.036 E8.1945
G1 X122.634 Y104.396 E8.22453
G1 X123.427 Y104.828 E8.25456
G1 X124.146 Y105.295 E8.28308
G1 X124.874 Y105.829 E8.31311
G1 X125.553 Y106.425 E8.34316
G1 X126.176 Y107.079 E8.3732
G1 X126.739 Y107.785 E8.40323
G1 X127.237 Y108.538 E8.43326
G1 X127.72 Y109.445 E8.46744
G1 X127.86 Y109.743 E8.47839
G1 X128.207 Y110.576 E8.5084
G1 X128.48 Y111.437 E8.53844
G1 X128.675 Y112.319 E8.56849
G1 X128.791 Y113.215 E8.59854
G1 X128.824 Y113.81 E8.61836
G1 X128.838 Y114.457 E8.63988
G1 X128.837 Y116.962 E8.7232
G1 X128.827 Y117.667 E8.74665
G1 X128.79 Y118.545 E8.77588
G1 X128.104 Y128.042 E9.09257
G1 X128.044 Y128.772 E9.11693
G1 X127.93 Y129.667 E9.14694
G1 X127.737 Y130.55 E9.177
G1 X127.468 Y131.412 E9.20704
G1 X127.123 Y132.246 E9.23706
G1 X126.705 Y133.047 E9.26711
G1 X126.218 Y133.808 E9.29716
G1 X125.666 Y134.523 E9.3272
G1 X125.053 Y135.186 E9.35723
G1 X124.384 Y135.792 E9.38725
G1 X123.663 Y136.337 E9.41732
G1 X122.898 Y136.815 E9.44732
G1 X122.093 Y137.225 E9.47737
G1 X121.255 Y137.561 E9.50739
G1 X120.39 Y137.822 E9.53745
G1 X119.506 Y138.005 E9.56747
G1 X118.609 Y138.11 E9.59751
G1 X118.027 Y138.135 E9.61688
G1 X117.192 Y138.146 E9.64466
G1 X110.712 Y138.145 E9.86018
G1 X110.014 Y138.135 E9.8834
G1 X109.112 Y138.082 E9.91345
G1 X108.219 Y137.95 E9.94348
G1 X107.341 Y137.739 E9.97351
G1 X106.485 Y137.451 E10.00355
G1 X105.658 Y137.089 E10.03358
G1 X104.866 Y136.654 E10.06363
G1 X104.115 Y136.152 E10.09368
G1 X103.412 Y135.585 E10.12372
G1 X102.762 Y134.958 E10.15375
G1 X102.17 Y134.276 E10.18379
G1 X101.64 Y133.545 E10.21382
G1 X101.178 Y132.769 E10.24386
G1 X100.785 Y131.956 E10.27389
G1 X100.467 Y131.111 E10.30392
G1 X100.224 Y130.241 E10.33397
G1 X100.059 Y129.353 E10.36401
G1 X99.997 Y128.809 E10.38222
G1 X99.936 Y128.099 E10.40592
G1 X99.268 Y118.86 E10.71401
G1 X99.224 Y118.1 E10.73933
G1 X99.197 Y117.195 E10.76945
G1 X99.197 Y114.583 E10.85632
G1 X99.206 Y113.937 E10.87781
G1 X99.259 Y113.035 E10.90786
G1 X99.391 Y112.142 E10.93789
G1 X99.601 Y111.264 E10.96791
G1 X99.889 Y110.408 E10.99795
G1 X100.189 Y109.708 E11.02328
G1 X100.355 Y109.358 E11.03616
G1 X100.778 Y108.56 E11.0662
G1 X101.269 Y107.802 E11.09624
G1 X101.826 Y107.091 E11.12628
G1 X102.444 Y106.432 E11.15633
G1 F2700 E6.15633
;MESH:scincepro1+others.3mf(5)
G0 F6000 X109.145 Y113.233
G0 X109.678 Y115.143
;TYPE:WALL-OUTER
G1 F2700 E11.15633
G1 F852.6 X109.877 Y114.782 E11.17563
G1 X110.106 Y114.439 E11.19494
G1 X110.365 Y114.118 E11.21424
G1 X110.642 Y113.831 E11.23292
G1 X109.955 Y113.83 E11.26508
G1 X109.771 Y113.944 E11.27521
G1 X109.677 Y114.14 E11.28539
G1 X109.678 Y115.143 E11.33234
G0 F6000 X109.515 Y116.004
G1 F2016.8 X109.49 Y116.275 E11.33773
G1 X109.447 Y116.3 E11.33871
G1 X109.505 Y116.3 E11.33986
G1 F2700 E6.33986
G0 F6000 X110.205 Y116.459
G0 X116.964 Y114.752
G0 X118.358 Y115.118
G1 F2700 E11.33986
G1 F857.1 X118.358 Y114.202 E11.38251
G1 X118.272 Y113.96 E11.39447
G1 X118.083 Y113.831 E11.40513
G1 X117.392 Y113.831 E11.4373
G1 X117.685 Y114.138 E11.45706
G1 X118.001 Y114.538 E11.4808
G1 X118.358 Y115.118 E11.51251
G1 F2700 E6.51251
G0 F6000 X118.212 Y114.598
G0 X117.437 Y115.423
G0 X117.127 Y119.699
G0 X117.325 Y127.345
;TYPE:WALL-INNER
G1 F2700 E11.51251
G1 F1200 X117.794 Y120.858 E11.72883
G1 X117.708 Y120.95 E11.73302
G1 X117.234 Y121.384 E11.7544
G1 X116.733 Y121.728 E11.77461
G1 X116.293 Y121.97 E11.79131
G1 X115.877 Y122.151 E11.8064
G1 X115.412 Y122.306 E11.82271
G1 X114.84 Y122.434 E11.8422
G1 X114.308 Y122.495 E11.86001
G1 X113.621 Y122.48 E11.88287
G1 X113.135 Y122.42 E11.89915
G1 X112.633 Y122.308 E11.91626
G1 X112.21 Y122.17 E11.93106
G1 X111.699 Y121.948 E11.94959
G1 X111.264 Y121.704 E11.96618
G1 X110.773 Y121.365 E11.98602
G1 X110.241 Y120.872 E12.01015
G1 X110.71 Y127.346 E12.22604
G1 X117.325 Y127.345 E12.44605
G0 F6000 X117.697 Y127.745
;TYPE:WALL-OUTER
G1 F1200 X118.299 Y119.431 E12.7233
G1 X118.249 Y119.536 E12.72717
G1 X118.091 Y119.815 E12.73783
G1 X117.801 Y120.248 E12.75517
G1 X117.448 Y120.644 E12.77281
G1 X117.029 Y121.036 E12.7919
G1 X116.537 Y121.378 E12.81183
G1 X116.133 Y121.603 E12.82721
G1 X115.7 Y121.791 E12.84291
G1 X115.288 Y121.926 E12.85733
G1 X114.815 Y122.033 E12.87346
G1 X114.262 Y122.097 E12.89197
G1 X113.668 Y122.083 E12.91173
G1 X113.22 Y122.029 E12.92674
G1 X112.757 Y121.928 E12.9425
G1 X112.334 Y121.79 E12.9573
G1 X111.911 Y121.607 E12.97263
G1 X111.492 Y121.374 E12.98858
G1 X111.011 Y121.04 E13.00805
G1 X110.606 Y120.664 E13.02644
G1 X110.214 Y120.221 E13.04611
G1 X109.935 Y119.801 E13.06288
G1 X109.738 Y119.451 E13.07624
G1 X110.338 Y127.746 E13.35285
G1 X117.697 Y127.745 E13.59761
G0 F6000 X117.444 Y127.473
G0 X116.989 Y127.245
G0 X116.989 Y126.985
;TYPE:SKIN
G1 F1200 X117.369 Y121.729 E13.77289
G1 X116.923 Y122.034 E13.79086
G1 X116.509 Y122.266 E13.80664
G1 X116.016 Y122.484 E13.82457
G1 X115.51 Y122.653 E13.84231
G1 X114.971 Y122.778 E13.86072
G1 X114.258 Y122.857 E13.88458
G1 X113.651 Y122.843 E13.90477
G1 X113.132 Y122.784 E13.92214
G1 X112.598 Y122.672 E13.94029
G1 X112.039 Y122.491 E13.95983
G1 X111.59 Y122.297 E13.9761
G1 X111.138 Y122.049 E13.99325
G1 X110.666 Y121.728 E14.01223
G1 X111.046 Y126.985 E14.18754
G1 X116.989 Y126.985 E14.3852
G0 F6000 X116.989 Y127.245
G0 X117.574 Y121.328
G0 X116.496 Y121.975
G0 X116.719 Y122.376
G1 F1200 X117.094 Y122.75 E14.40282
G0 F6000 X117.055 Y123.278
G1 F1200 X116.337 Y122.559 E14.43662
G0 F6000 X115.933 Y122.721
G1 F1200 X117.018 Y123.806 E14.48765
G0 F6000 X116.98 Y124.334
G1 F1200 X115.503 Y122.857 E14.55712
G0 F6000 X115.044 Y122.963
G1 F1200 X116.942 Y124.861 E14.6464
G0 F6000 X116.903 Y125.389
G1 F1200 X114.54 Y123.025 E14.75757
G0 F6000 X114 Y123.051
G1 F1200 X116.865 Y125.916 E14.89233
G0 F6000 X116.827 Y126.444
G1 F1200 X113.398 Y123.015 E15.05362
G0 F6000 X112.717 Y122.899
G1 F1200 X116.601 Y126.784 E15.23634
G0 F6000 X116.036 Y126.784
G1 F1200 X111.902 Y122.65 E15.43079
G0 F6000 X110.945 Y122.825
G1 F1200 X114.904 Y126.784 E15.61701
G0 F6000 X114.339 Y126.784
G1 F1200 X110.99 Y123.435 E15.77453
G0 F6000 X111.034 Y124.044
G1 F1200 X113.773 Y126.784 E15.90339
G0 F6000 X113.207 Y126.784
G1 F1200 X111.077 Y124.654 E16.00358
G0 F6000 X111.121 Y125.263
G1 F1200 X112.642 Y126.784 E16.07512
G0 F6000 X112.076 Y126.784
G1 F1200 X111.166 Y125.874 E16.11793
G0 F6000 X111.21 Y126.483
G1 F1200 X111.51 Y126.784 E16.13206
G0 F6000 X110.774 Y126.837
G0 X110.869 Y127.175
G0 X115.47 Y127.245
G0 X115.47 Y126.784
G1 F1200 X110.901 Y122.215 E16.34697
G1 F2700 E11.34697
;MESH:NONMESH
G0 F300 X110.901 Y122.215 Z0.4
G0 F6000 X110.44 Y122.224
G0 X110.001 Y120.268
G0 X110.683 Y119.363
G0 X110.678 Y115.286
G0 X109.553 Y114.72
;TIME_ELAPSED:34.182105
;LAYER:1
M106 S85
;TYPE:WALL-INNER
;MESH:scincepro1+others.3mf(5)
G1 F2700 E16.34697
G1 F1397.6 X109.933 Y114.153 E16.36826
G1 F1393.9 X110.325 Y113.707 E16.38682
G1 X109.978 Y113.707 E16.39767
G1 X109.713 Y113.832 E16.40683
G1 F1397.6 X109.614 Y113.952 E16.41168
G1 X109.553 Y114.171 E16.41877
G1 X109.553 Y114.72 E16.43589
G1 F2700 E11.43589
G0 F7500 X109.385 Y115.461
G1 F2700 E16.43589
G0 F7500 X109.264 Y116.265
;TYPE:WALL-OUTER
G1 F951.2 X109.225 Y116.723 E16.45695
G1 F1052.4 X109.211 Y117.022 E16.46934
G1 F1098.7 X109.204 Y117.461 E16.48676
G1 F1094.2 X109.244 Y117.982 E16.50757
G1 F996.4 X109.324 Y118.572 E16.53361
G1 F2700 E11.53361
G0 F7500 X110.184 Y118.09
G0 X110.342 Y115.986
G0 X109.264 Y116.265
G1 F2700 E16.53361
G1 F1025.6 X109.422 Y115.974 E16.54768
G1 F1259.9 X109.647 Y115.394 E16.5692
G1 F1310.3 X109.886 Y114.913 E16.58706
G1 X110.21 Y114.428 E16.60646
G1 X110.558 Y114.028 E16.6241
G1 X110.915 Y113.69 E16.64045
G1 X111.203 Y113.462 E16.65267
G1 X111.422 Y113.319 E16.66136
G1 X109.921 Y113.319 E16.71129
G1 X109.685 Y113.389 E16.71948
G1 X109.451 Y113.538 E16.7287
G1 X109.274 Y113.757 E16.73807
G1 X109.166 Y114.142 E16.75137
G1 X109.167 Y115.665 E16.80202
G1 F1259.9 X109.184 Y115.937 E16.81145
G1 F1025.6 X109.264 Y116.265 E16.82579
G1 F2700 E11.82579
G0 F7500 X109.385 Y115.461
G0 X109.689 Y114.817
G0 X110.628 Y115.363
G0 X117.121 Y114.934
G0 X118.483 Y114.718
;TYPE:WALL-INNER
G1 F2700 E16.82579
G1 F1397.6 X118.483 Y114.146 E16.84363
G1 X118.424 Y113.958 E16.84977
G1 F1393.9 X118.253 Y113.78 E16.85749
G1 F1390.2 X118.023 Y113.707 E16.86506
G1 F1393.9 X117.716 Y113.708 E16.87465
G1 F1397.6 X118.141 Y114.206 E16.89507
G1 X118.483 Y114.718 E16.91427
G1 F2700 E11.91427
G0 F7500 X118.667 Y115.547
G0 X118.799 Y116.552
;TYPE:WALL-OUTER
G1 F2700 E16.91427
G1 F1023.6 X118.825 Y117.01 E16.9338
G1 F1094.2 X118.832 Y117.461 E16.95176
G1 F1082.9 X118.775 Y118.107 E16.97786
G1 F988.9 X118.706 Y118.591 E16.99941
G1 F2700 E11.99941
G0 F7500 X118.799 Y116.552
G1 F2700 E16.99941
G1 F1117.5 X118.869 Y116.127 E17.0162
G1 F1310.3 X118.87 Y114.146 E17.08209
G1 X118.87 Y114.044 E17.08548
G1 X118.764 Y113.763 E17.09547
G1 X118.579 Y113.534 E17.10527
G1 X118.428 Y113.427 E17.11142
G1 X118.083 Y113.319 E17.12344
G1 X116.617 Y113.319 E17.1722
G1 X117.02 Y113.598 E17.18851
G1 X117.481 Y114.031 E17.20954
