;FLAVOR:Marlin
;TIME:1190
;Filament used: 0.406171m
;Layer height: 0.2
;MINX:103.204
;MINY:110.938
;MINZ:0.2
;MAXX:134.445
;MAXY:147.332
;MAXZ:17
;Generated with Cura_SteamEngine 5.2.1
M140 S50
M105
M190 S50
M104 S200
M105
M109 S200
M82 ;absolute extrusion mode
; Ender 3 Custom Start G-code
G92 E0 ; Reset Extruder
G28 ; Home all axes
G1 Z2.0 F3000 ; Move Z Axis up little to prevent scratching of Heat Bed
G1 X0.1 Y20 Z0.3 F5000.0 ; Move to start position
G1 X0.1 Y200.0 Z0.3 F1500.0 E15 ; Draw the first line
G1 X0.4 Y200.0 Z0.3 F5000.0 ; Move to side a little
G1 X0.4 Y20 Z0.3 F1500.0 E30 ; Draw the second line
G92 E0 ; Reset Extruder
G1 Z2.0 F3000 ; Move Z Axis up little to prevent scratching of Heat Bed
G1 X5 Y20 Z0.3 F5000.0 ; Move over to prevent blob squish
G92 E0
G92 E0
G1 F2700 E-5
;LAYER_COUNT:85
;LAYER:0
M107
G0 F6000 X106.589 Y114.349 Z0.2
;TYPE:SKIRT
G1 F2700 E0
G1 F1200 X107.279 Y113.713 E0.03121
G1 X108.021 Y113.139 E0.06241
G1 X108.808 Y112.63 E0.09359
G1 X109.338 Y112.339 E0.1137
G1 X109.66 Y112.173 E0.12575
G1 X110.511 Y111.779 E0.15694
G1 X111.392 Y111.459 E0.18811
G1 X112.298 Y111.215 E0.21932
G1 X113.221 Y111.05 E0.2505
G1 X114.529 Y110.951 E0.29413
G1 X115.697 Y110.938 E0.33298
G1 X117.409 Y110.963 E0.38993
G1 X120.097 Y110.964 E0.47933
G1 X121.947 Y110.938 E0.54087
G1 X123.104 Y110.949 E0.57936
G1 X124.041 Y111.001 E0.61057
G1 X124.969 Y111.132 E0.64174
G1 X125.883 Y111.342 E0.67293
G1 X126.776 Y111.63 E0.70414
G1 X127.641 Y111.992 E0.73533
G1 X128.472 Y112.426 E0.76651
G1 X129.053 Y112.787 E0.78926
G1 X129.384 Y113.007 E0.80248
G1 X130.142 Y113.559 E0.83367
G1 X130.851 Y114.173 E0.86486
G1 X131.504 Y114.846 E0.89605
G1 X132.098 Y115.572 E0.92725
G1 X132.628 Y116.346 E0.95845
G1 X133.257 Y117.503 E1.00225
G1 X133.397 Y117.802 E1.01323
G1 X133.758 Y118.668 E1.04444
G1 X134.044 Y119.561 E1.07562
G1 X134.253 Y120.476 E1.10684
G1 X134.384 Y121.404 E1.13801
G1 X134.431 Y122.175 E1.1637
G1 X134.445 Y122.844 E1.18596
G1 X134.444 Y125.36 E1.26964
G1 X134.434 Y126.065 E1.29309
G1 X134.414 Y126.654 E1.31269
G1 X133.708 Y136.494 E1.64082
G1 X133.648 Y137.224 E1.66518
G1 X133.531 Y138.155 E1.69639
G1 X133.336 Y139.072 E1.72757
G1 X133.063 Y139.969 E1.75875
G1 X132.715 Y140.84 E1.78995
G1 X132.294 Y141.678 E1.82114
G1 X131.802 Y142.477 E1.85235
G1 X131.245 Y143.231 E1.88353
G1 X130.626 Y143.935 E1.91471
G1 X129.948 Y144.584 E1.94592
G1 X129.218 Y145.173 E1.97712
G1 X128.441 Y145.697 E2.00829
G1 X127.621 Y146.153 E2.0395
G1 X126.766 Y146.538 E2.07069
G1 X125.881 Y146.849 E2.10189
G1 X124.973 Y147.083 E2.13307
G1 X124.048 Y147.238 E2.16427
G1 X122.845 Y147.322 E2.20438
G1 X122.159 Y147.332 E2.2272
G1 X115.507 Y147.332 E2.44844
G1 X114.809 Y147.322 E2.47166
G1 X113.873 Y147.268 E2.50284
G1 X112.945 Y147.136 E2.53402
G1 X112.031 Y146.924 E2.56523
G1 X111.139 Y146.635 E2.59641
G1 X110.274 Y146.272 E2.62761
G1 X109.444 Y145.836 E2.6588
G1 X108.653 Y145.331 E2.69001
G1 X107.909 Y144.76 E2.7212
G1 X107.216 Y144.128 E2.7524
G1 X106.579 Y143.44 E2.78358
G1 X106.004 Y142.699 E2.81478
G1 X105.493 Y141.913 E2.84596
G1 X105.051 Y141.085 E2.87718
G1 X104.682 Y140.223 E2.90836
G1 X104.387 Y139.333 E2.93955
G1 X104.169 Y138.421 E2.97074
G1 X104.007 Y137.265 E3.00956
G1 X103.946 Y136.555 E3.03326
G1 X103.276 Y127.293 E3.34212
G1 X103.232 Y126.533 E3.36744
G1 X103.209 Y125.923 E3.38775
G1 X103.204 Y122.961 E3.48626
G1 X103.213 Y122.313 E3.50782
G1 X103.266 Y121.377 E3.539
G1 X103.399 Y120.448 E3.57021
G1 X103.61 Y119.535 E3.60138
G1 X103.898 Y118.642 E3.63259
G1 X104.273 Y117.752 E3.66471
G1 X104.439 Y117.402 E3.67759
G1 X104.877 Y116.573 E3.70878
G1 X105.384 Y115.783 E3.74
G1 X105.956 Y115.04 E3.77119
G1 X106.589 Y114.349 E3.80236
G0 F6000 X106.92 Y114.583
G1 F1200 X107.602 Y113.965 E3.83297
G1 X108.335 Y113.407 E3.86361
G1 X109.113 Y112.916 E3.89421
G1 X109.843 Y112.528 E3.9217
G1 X110.679 Y112.142 E3.95233
G1 X111.545 Y111.83 E3.98294
G1 X112.435 Y111.595 E4.01356
G1 X113.342 Y111.437 E4.04418
G1 X114.535 Y111.351 E4.08396
G1 X115.691 Y111.338 E4.12241
G1 X117.403 Y111.363 E4.17936
G1 X120.102 Y111.364 E4.26913
G1 X121.952 Y111.338 E4.33067
G1 X123.099 Y111.349 E4.36882
G1 X124.018 Y111.401 E4.39943
G1 X124.93 Y111.532 E4.43008
G1 X125.826 Y111.742 E4.46069
G1 X126.701 Y112.029 E4.49132
G1 X127.547 Y112.39 E4.52191
G1 X128.359 Y112.824 E4.55253
G1 X128.832 Y113.12 E4.57109
G1 X129.163 Y113.34 E4.58431
G1 X129.906 Y113.883 E4.61492
G1 X130.6 Y114.487 E4.64552
G1 X131.239 Y115.15 E4.67614
G1 X131.818 Y115.866 E4.70677
G1 X132.333 Y116.629 E4.73739
G1 X132.895 Y117.673 E4.77682
G1 X133.035 Y117.972 E4.7878
G1 X133.389 Y118.822 E4.81843
G1 X133.667 Y119.7 E4.84906
G1 X133.869 Y120.598 E4.87967
G1 X133.992 Y121.51 E4.91028
G1 X134.031 Y122.186 E4.9328
G1 X134.045 Y122.844 E4.95469
G1 X134.044 Y125.354 E5.03818
G1 X134.034 Y126.059 E5.06163
G1 X133.996 Y126.961 E5.09165
G1 X133.318 Y136.356 E5.40495
G1 X133.249 Y137.191 E5.43281
G1 X133.134 Y138.105 E5.46345
G1 X132.94 Y139.005 E5.49407
G1 X132.669 Y139.884 E5.52467
G1 X132.322 Y140.737 E5.5553
G1 X131.903 Y141.557 E5.58592
G1 X131.414 Y142.337 E5.61654
G1 X130.859 Y143.072 E5.64718
G1 X130.243 Y143.756 E5.67779
G1 X129.569 Y144.383 E5.70841
G1 X128.844 Y144.95 E5.73902
G1 X128.072 Y145.452 E5.76965
G1 X127.259 Y145.885 E5.80029
G1 X126.412 Y146.246 E5.83091
G1 X125.537 Y146.532 E5.86153
G1 X124.641 Y146.741 E5.89213
G1 X123.729 Y146.871 E5.92277
G1 X122.84 Y146.922 E5.95238
G1 X122.154 Y146.932 E5.9752
G1 X115.513 Y146.932 E6.19608
G1 X114.815 Y146.922 E6.2193
G1 X113.896 Y146.869 E6.24992
G1 X112.985 Y146.736 E6.28054
G1 X112.089 Y146.525 E6.31116
G1 X111.215 Y146.237 E6.34176
G1 X110.368 Y145.874 E6.37241
G1 X109.557 Y145.439 E6.40302
G1 X108.787 Y144.935 E6.43363
G1 X108.063 Y144.366 E6.46426
G1 X107.391 Y143.736 E6.49489
G1 X106.776 Y143.051 E6.52551
G1 X106.223 Y142.315 E6.55613
G1 X105.736 Y141.534 E6.58674
G1 X105.319 Y140.713 E6.61737
G1 X104.974 Y139.859 E6.64801
G1 X104.705 Y138.979 E6.67861
G1 X104.513 Y138.078 E6.70925
G1 X104.406 Y137.23 E6.73768
G1 X104.334 Y136.378 E6.76612
G1 X103.676 Y127.27 E7.06984
G1 X103.632 Y126.51 E7.09516
G1 X103.609 Y125.91 E7.11513
G1 X103.604 Y122.967 E7.21302
G1 X103.613 Y122.319 E7.23457
G1 X103.666 Y121.4 E7.26519
G1 X103.798 Y120.489 E7.2958
G1 X104.009 Y119.592 E7.32645
G1 X104.297 Y118.718 E7.35706
G1 X104.635 Y117.924 E7.38576
G1 X104.801 Y117.574 E7.39865
G1 X105.231 Y116.76 E7.42927
G1 X105.73 Y115.986 E7.45989
G1 X106.295 Y115.259 E7.49052
G1 X106.92 Y114.583 E7.52114
G0 F6000 X107.251 Y114.819
G1 F1200 X107.924 Y114.217 E7.55117
G1 X108.648 Y113.678 E7.58119
G1 X109.704 Y113.05 E7.62206
G1 X110.026 Y112.884 E7.63411
G1 X110.846 Y112.506 E7.66414
G1 X111.697 Y112.202 E7.69419
G1 X112.571 Y111.975 E7.72423
G1 X113.462 Y111.825 E7.75428
G1 X114.541 Y111.751 E7.79025
G1 X115.685 Y111.738 E7.8283
G1 X117.396 Y111.763 E7.88522
G1 X120.108 Y111.764 E7.97542
G1 X121.958 Y111.738 E8.03696
G1 X123.094 Y111.749 E8.07474
G1 X123.996 Y111.8 E8.10479
G1 X124.889 Y111.931 E8.13481
G1 X125.768 Y112.141 E8.16487
G1 X126.624 Y112.427 E8.19489
G1 X127.452 Y112.788 E8.22493
G1 X128.61 Y113.453 E8.26934
G1 X128.941 Y113.673 E8.28256
G1 X129.67 Y114.206 E8.3126
G1 X130.35 Y114.801 E8.34265
G1 X130.974 Y115.454 E8.37269
G1 X131.537 Y116.159 E8.4027
G1 X132.037 Y116.912 E8.43276
G1 X132.533 Y117.843 E8.46785
G1 X132.673 Y118.142 E8.47883
G1 X133.019 Y118.976 E8.50886
G1 X133.29 Y119.837 E8.53888
G1 X133.484 Y120.719 E8.56892
G1 X133.599 Y121.615 E8.59897
G1 X133.631 Y122.197 E8.61835
G1 X133.645 Y122.844 E8.63988
G1 X133.644 Y125.349 E8.72319
G1 X133.634 Y126.054 E8.74664
G1 X133.597 Y126.932 E8.77587
G1 X132.911 Y136.429 E9.09257
G1 X132.851 Y137.159 E9.11693
G1 X132.737 Y138.054 E9.14694
G1 X132.544 Y138.937 E9.177
G1 X132.275 Y139.799 E9.20703
G1 X131.93 Y140.633 E9.23705
G1 X131.512 Y141.434 E9.2671
G1 X131.025 Y142.195 E9.29715
G1 X130.473 Y142.91 E9.3272
G1 X129.86 Y143.573 E9.35723
G1 X129.191 Y144.179 E9.38725
G1 X128.47 Y144.724 E9.41731
G1 X127.705 Y145.202 E9.44731
G1 X126.9 Y145.612 E9.47736
G1 X126.062 Y145.948 E9.50739
G1 X125.197 Y146.209 E9.53744
G1 X124.313 Y146.392 E9.56747
G1 X123.416 Y146.497 E9.5975
G1 X122.834 Y146.522 E9.61688
G1 X121.999 Y146.533 E9.64465
G1 X115.519 Y146.532 E9.86018
G1 X114.821 Y146.522 E9.8834
G1 X113.919 Y146.469 E9.91345
G1 X113.026 Y146.337 E9.94347
G1 X112.148 Y146.126 E9.97351
G1 X111.292 Y145.838 E10.00355
G1 X110.465 Y145.476 E10.03357
G1 X109.673 Y145.041 E10.06363
G1 X108.922 Y144.539 E10.09367
G1 X108.219 Y143.972 E10.12371
G1 X107.569 Y143.345 E10.15375
G1 X106.977 Y142.663 E10.18379
G1 X106.447 Y141.932 E10.21382
G1 X105.985 Y141.156 E10.24385
G1 X105.592 Y140.343 E10.27389
G1 X105.274 Y139.498 E10.30392
G1 X105.031 Y138.628 E10.33396
G1 X104.866 Y137.74 E10.364
G1 X104.804 Y137.196 E10.38221
G1 X104.743 Y136.486 E10.40591
G1 X104.075 Y127.247 E10.71401
G1 X104.031 Y126.487 E10.73933
G1 X104.004 Y125.582 E10.76944
G1 X104.004 Y122.972 E10.85625
G1 X104.013 Y122.324 E10.8778
G1 X104.065 Y121.423 E10.90782
G1 X104.198 Y120.529 E10.93788
G1 X104.408 Y119.651 E10.96791
G1 X104.696 Y118.795 E10.99795
G1 X104.996 Y118.095 E11.02328
G1 X105.162 Y117.745 E11.03616
G1 X105.585 Y116.947 E11.0662
G1 X106.076 Y116.189 E11.09624
G1 X106.633 Y115.478 E11.12628
G1 X107.251 Y114.819 E11.15633
G1 F2700 E6.15633
;MESH:scincepro1+others.3mf(3)
G0 F6000 X113.952 Y121.62
G0 X114.568 Y123.365
;TYPE:WALL-OUTER
G1 F2700 E11.15633
G1 F851.1 X114.837 Y122.925 E11.18052
G1 X115.155 Y122.524 E11.20452
G1 X115.446 Y122.219 E11.22429
G1 X114.762 Y122.219 E11.25636
G1 X114.579 Y122.331 E11.26643
G1 X114.485 Y122.527 E11.27662
G1 X114.485 Y123.535 E11.32389
G1 X114.568 Y123.365 E11.33276
G1 F2700 E6.33276
G0 F6000 X114.63 Y122.986
G0 X115.154 Y122.343
G0 X116.131 Y122.872
G0 X121.517 Y122.873
G0 X123.165 Y123.505
G1 F2700 E11.33276
G1 F857.1 X123.165 Y122.589 E11.37542
G1 X123.079 Y122.347 E11.38738
G1 X122.892 Y122.218 E11.39795
G1 X122.199 Y122.219 E11.43022
G1 X122.49 Y122.523 E11.44982
G1 X122.808 Y122.925 E11.47369
G1 X123.165 Y123.505 E11.5054
G1 F2700 E6.5054
G0 F6000 X123.019 Y122.985
G0 X122.25 Y123.82
G0 X119.476 Y129.564
G0 X115.517 Y135.732
;TYPE:WALL-INNER
G1 F2700 E11.5054
G1 F1200 X122.132 Y135.733 E11.72541
G1 X122.601 Y129.241 E11.9419
G1 X122.382 Y129.468 E11.95239
G1 X121.999 Y129.798 E11.96921
G1 X121.542 Y130.112 E11.98765
G1 X121.1 Y130.357 E12.00446
G1 X120.684 Y130.538 E12.01955
G1 X120.219 Y130.693 E12.03585
G1 X119.647 Y130.82 E12.05534
G1 X119.118 Y130.882 E12.07305
G1 X118.425 Y130.867 E12.09611
G1 X117.997 Y130.815 E12.11045
G1 X117.44 Y130.695 E12.1294
G1 X117.017 Y130.557 E12.1442
G1 X116.421 Y130.302 E12.16576
G1 X115.744 Y129.874 E12.1924
G1 X115.234 Y129.444 E12.21459
G1 X115.048 Y129.243 E12.22369
G1 X115.517 Y135.732 E12.44008
G0 F6000 X115.145 Y136.132
;TYPE:WALL-OUTER
G1 F1200 X122.504 Y136.133 E12.68484
G1 X123.105 Y127.821 E12.96202
G1 X122.897 Y128.203 E12.97649
G1 X122.69 Y128.513 E12.98889
G1 X122.413 Y128.859 E13.00363
G1 X122.094 Y129.19 E13.01892
G1 X121.739 Y129.492 E13.03442
G1 X121.346 Y129.763 E13.0503
G1 X120.959 Y129.981 E13.06507
G1 X120.507 Y130.178 E13.08147
G1 X120.095 Y130.313 E13.09589
G1 X119.621 Y130.419 E13.11205
G1 X119.072 Y130.484 E13.13043
G1 X118.473 Y130.47 E13.15036
G1 X118.028 Y130.415 E13.16528
G1 X117.564 Y130.315 E13.18106
G1 X117.141 Y130.177 E13.19586
G1 X116.621 Y129.952 E13.21471
G1 X116.002 Y129.568 E13.23893
G1 X115.492 Y129.138 E13.26112
G1 X115.094 Y128.692 E13.281
G1 X114.826 Y128.319 E13.29628
G1 X114.669 Y128.062 E13.3063
G1 X114.544 Y127.814 E13.31553
G1 X115.145 Y136.132 E13.59291
G0 F6000 X115.398 Y135.86
G0 X115.853 Y135.632
G0 X115.853 Y135.371
;TYPE:SKIN
G1 F1200 X121.796 Y135.373 E13.79058
G1 X122.177 Y130.113 E13.96598
G1 X121.793 Y130.38 E13.98154
G1 X121.335 Y130.642 E13.99909
G1 X120.821 Y130.871 E14.0178
G1 X120.32 Y131.04 E14.03539
G1 X119.787 Y131.162 E14.05358
G1 X119.11 Y131.245 E14.07626
G1 X118.382 Y131.225 E14.10048
G1 X117.953 Y131.173 E14.11486
G1 X117.42 Y131.062 E14.13297
G1 X116.846 Y130.878 E14.15301
G1 X116.232 Y130.611 E14.17528
G1 X115.474 Y130.136 E14.20504
G1 X115.853 Y135.371 E14.37961
G0 F6000 X116.502 Y135.17
G1 F1200 X116.002 Y134.669 E14.40315
G0 F6000 X115.958 Y134.06
G1 F1200 X117.068 Y135.17 E14.45536
G0 F6000 X117.634 Y135.17
G1 F1200 X115.914 Y133.45 E14.53626
G0 F6000 X115.87 Y132.841
G1 F1200 X118.2 Y135.171 E14.64586
G0 F6000 X118.766 Y135.171
G1 F1200 X115.826 Y132.231 E14.78415
G0 F6000 X115.782 Y131.621
G1 F1200 X119.332 Y135.171 E14.95113
G0 F6000 X119.898 Y135.171
G1 F1200 X115.738 Y131.012 E15.14678
G0 F6000 X115.983 Y130.691
G1 F1200 X120.464 Y135.171 E15.35753
G0 F6000 X121.029 Y135.171
G1 F1200 X116.993 Y131.135 E15.54737
G0 F6000 X117.759 Y131.335
G1 F1200 X121.595 Y135.171 E15.7278
G0 F6000 X121.647 Y134.658
G1 F1200 X118.414 Y131.425 E15.87987
G0 F6000 X118.994 Y131.439
G1 F1200 X121.686 Y134.131 E16.0065
G0 F6000 X121.724 Y133.603
G1 F1200 X119.516 Y131.395 E16.11036
G0 F6000 X120.003 Y131.317
G1 F1200 X121.762 Y133.076 E16.19309
G0 F6000 X121.8 Y132.548
G1 F1200 X120.456 Y131.204 E16.25631
G0 F6000 X120.879 Y131.061
G1 F1200 X121.838 Y132.02 E16.30142
G0 F6000 X121.876 Y131.492
G1 F1200 X121.271 Y130.888 E16.32985
G0 F6000 X121.644 Y130.695
G1 F1200 X121.914 Y130.965 E16.34255
G1 F2700 E11.34255
;MESH:NONMESH
G0 F300 X121.914 Y130.965 Z0.4
G0 F6000 X122.373 Y130.999
G0 X122.383 Y129.713
G0 X120.592 Y130.38
G0 X120.206 Y129.366
G0 X115.52 Y123.623
G0 X114.362 Y123.114
;TIME_ELAPSED:33.685324
;LAYER:1
M106 S85
;TYPE:WALL-INNER
;MESH:scincepro1+others.3mf(3)
G1 F2700 E16.34255
G1 F1406.1 X114.62 Y122.7 E16.35789
G1 X114.917 Y122.33 E16.3728
G1 F1402.4 X115.14 Y122.095 E16.38301
G1 X114.785 Y122.095 E16.39419
G1 X114.52 Y122.219 E16.40342
G1 F1406.1 X114.424 Y122.34 E16.40827
G1 X114.361 Y122.558 E16.4154
G1 X114.362 Y123.114 E16.43288
G1 F2700 E11.43288
G0 F7500 X114.192 Y123.848
G1 F2700 E16.43288
G0 F7500 X114.071 Y124.652
;TYPE:WALL-OUTER
G1 F964.6 X114.032 Y125.109 E16.45389
G1 F1067.3 X114.018 Y125.409 E16.46633
G1 F1114.2 X114.011 Y125.848 E16.48374
G1 F1109.6 X114.051 Y126.369 E16.50455
G1 F1063 X114.084 Y126.649 E16.51628
G1 F986.1 X114.134 Y126.976 E16.5311
G1 F2700 E11.5311
G0 F7500 X114.991 Y126.477
G0 X115.149 Y124.373
G0 X114.071 Y124.652
G1 F2700 E16.5311
G1 F1040.1 X114.229 Y124.361 E16.54517
G1 F1277.6 X114.454 Y123.781 E16.56669
G1 F1328.7 X114.651 Y123.385 E16.5814
G1 X114.924 Y122.943 E16.59868
G1 X115.229 Y122.564 E16.61486
G1 X115.542 Y122.24 E16.62984
G1 X115.82 Y121.994 E16.64219
G1 X116.222 Y121.707 E16.65862
G1 X114.728 Y121.706 E16.70831
G1 X114.492 Y121.776 E16.7165
G1 X114.258 Y121.925 E16.72572
G1 X114.082 Y122.144 E16.73507
G1 X113.972 Y122.529 E16.74839
G1 X113.974 Y124.052 E16.79904
G1 F1277.6 X113.991 Y124.324 E16.80847
G1 F1040.1 X114.071 Y124.652 E16.82281
G1 F2700 E11.82281
G0 F7500 X114.192 Y123.848
G0 X114.33 Y123.525
G0 X114.736 Y122.827
G0 X115.625 Y123.452
G0 X121.66 Y123.015
G0 X123.288 Y123.114
;TYPE:WALL-INNER
G1 F2700 E16.82281
G1 F1402.4 X123.288 Y122.534 E16.84109
G1 X123.229 Y122.346 E16.8473
G1 F1406.1 X123.118 Y122.206 E16.85292
G1 F1409.8 X122.83 Y122.094 E16.8626
G1 F1413.5 X122.519 Y122.094 E16.87233
G1 F1417.3 X122.853 Y122.476 E16.88815
G1 F1409.8 X123.1 Y122.812 E16.90122
G1 F1402.4 X123.288 Y123.114 E16.91243
G1 F2700 E11.91243
G0 F7500 X123.475 Y123.937
G0 X123.608 Y124.96
;TYPE:WALL-OUTER
G1 F2700 E16.91243
G1 F1042.1 X123.632 Y125.397 E16.93099
G1 F1109.6 X123.639 Y125.849 E16.949
G1 F1121.3 X123.613 Y126.198 E16.96279
G1 F1078.1 X123.564 Y126.634 E16.98078
G1 F995.3 X123.517 Y126.954 E16.99514
G1 F2700 E11.99514
G0 F7500 X123.608 Y124.96
G1 F2700 E16.99514
G1 F1109.6 X123.664 Y124.634 E17.00831
G1 F1290 X123.676 Y124.349 E17.01808
G1 F1328.7 X123.677 Y122.534 E17.07845
G1 X123.677 Y122.431 E17.08188
G1 X123.571 Y122.15 E17.09187
G1 X123.386 Y121.921 E17.10166
G1 X123.235 Y121.814 E17.10781
G1 X122.89 Y121.706 E17.11984
G1 X121.421 Y121.706 E17.16869
G1 X121.85 Y122.004 E17.18607
