;FLAVOR:Marlin
;TIME:1020
;Filament used: 0.37237m
;Layer height: 0.2
;MINX:91.592
;MINY:99.612
;MINZ:0.2
;MAXX:122.837
;MAXY:136.528
;MAXZ:14
;Generated with Cura_SteamEngine 5.2.1
M140 S50
M105
M190 S50
M104 S200
M105
M109 S200
M82 ;absolute extrusion mode
; Ender 3 Custom Start G-code
G92 E0 ; Reset Extruder
G28 ; Home all axes
G1 Z2.0 F3000 ; Move Z Axis up little to prevent scratching of Heat Bed
G1 X0.1 Y20 Z0.3 F5000.0 ; Move to start position
G1 X0.1 Y200.0 Z0.3 F1500.0 E15 ; Draw the first line
G1 X0.4 Y200.0 Z0.3 F5000.0 ; Move to side a little
G1 X0.4 Y20 Z0.3 F1500.0 E30 ; Draw the second line
G92 E0 ; Reset Extruder
G1 Z2.0 F3000 ; Move Z Axis up little to prevent scratching of Heat Bed
G1 X5 Y20 Z0.3 F5000.0 ; Move over to prevent blob squish
G92 E0
G92 E0
G1 F2700 E-5
;LAYER_COUNT:70
;LAYER:0
M107
G0 F6000 X95.179 Y103.314 Z0.2
;TYPE:SKIRT
G1 F2700 E0
G1 F1200 X96.096 Y102.546 E0.03978
G1 X96.391 Y102.325 E0.05204
G1 X97.165 Y101.796 E0.08322
G1 X97.981 Y101.334 E0.11441
G1 X98.833 Y100.943 E0.14559
G1 X99.716 Y100.626 E0.1768
G1 X100.909 Y100.327 E0.2177
G1 X103.52 Y99.825 E0.30614
G1 X104.448 Y99.687 E0.33734
G1 X105.581 Y99.627 E0.37508
G1 X106.844 Y99.625 E0.41708
G1 X107.683 Y99.613 E0.44499
G1 X108.758 Y99.612 E0.48075
G1 X109.695 Y99.652 E0.51194
G1 X110.858 Y99.814 E0.551
G1 X113.45 Y100.311 E0.63878
G1 X114.364 Y100.521 E0.66997
G1 X115.257 Y100.809 E0.70118
G1 X116.122 Y101.172 E0.73238
G1 X116.953 Y101.607 E0.76357
G1 X118.056 Y102.339 E0.8076
G1 X118.36 Y102.568 E0.82026
G1 X119.085 Y103.164 E0.85148
G1 X119.756 Y103.819 E0.88267
G1 X120.369 Y104.529 E0.91386
G1 X120.919 Y105.289 E0.94507
G1 X121.402 Y106.092 E0.97623
G1 X121.815 Y106.934 E1.00743
G1 X122.155 Y107.808 E1.03862
G1 X122.425 Y108.733 E1.07067
G1 X122.504 Y109.055 E1.08169
G1 X122.689 Y109.975 E1.11291
G1 X122.794 Y110.906 E1.14407
G1 X122.819 Y111.487 E1.16341
G1 X122.837 Y112.613 E1.20086
G1 X122.835 Y114.502 E1.26369
G1 X122.816 Y115.5 E1.29689
G1 X122.785 Y116.125 E1.31771
G1 X122.104 Y125.635 E1.63482
G1 X122.033 Y126.468 E1.66263
G1 X121.912 Y127.398 E1.69382
G1 X121.713 Y128.314 E1.725
G1 X121.436 Y129.21 E1.75619
G1 X121.084 Y130.08 E1.7874
G1 X120.659 Y130.916 E1.8186
G1 X120.165 Y131.713 E1.84978
G1 X119.604 Y132.464 E1.88096
G1 X118.981 Y133.166 E1.91218
G1 X118.301 Y133.812 E1.94337
G1 X117.569 Y134.397 E1.97454
G1 X116.789 Y134.918 E2.00574
G1 X115.967 Y135.371 E2.03695
G1 X115.11 Y135.752 E2.06815
G1 X114.224 Y136.058 E2.09933
G1 X113.315 Y136.288 E2.13051
G1 X112.389 Y136.44 E2.16172
G1 X111.234 Y136.518 E2.20023
G1 X110.545 Y136.528 E2.22314
G1 X103.895 Y136.528 E2.44432
G1 X103.197 Y136.518 E2.46754
G1 X102.261 Y136.464 E2.49873
G1 X101.333 Y136.332 E2.5299
G1 X100.419 Y136.12 E2.56111
G1 X99.527 Y135.831 E2.59229
G1 X98.662 Y135.468 E2.6235
G1 X97.832 Y135.032 E2.65468
G1 X97.041 Y134.527 E2.68589
G1 X96.297 Y133.956 E2.71708
G1 X95.604 Y133.324 E2.74828
G1 X94.967 Y132.636 E2.77946
G1 X94.392 Y131.895 E2.81066
G1 X93.881 Y131.109 E2.84184
G1 X93.439 Y130.281 E2.87306
G1 X93.07 Y129.419 E2.90425
G1 X92.775 Y128.529 E2.93543
G1 X92.557 Y127.617 E2.96662
G1 X92.395 Y126.458 E3.00554
G1 X92.322 Y125.595 E3.03435
G1 X91.672 Y116.54 E3.33629
G1 X91.605 Y115.319 E3.37697
G1 X91.592 Y114.695 E3.39772
G1 X91.592 Y112.202 E3.48064
G1 X91.601 Y111.591 E3.50097
G1 X91.655 Y110.655 E3.53215
G1 X91.87 Y109.33 E3.5768
G1 X91.961 Y108.927 E3.59054
G1 X92.207 Y108.022 E3.62173
G1 X92.528 Y107.141 E3.65292
G1 X92.924 Y106.291 E3.6841
G1 X93.39 Y105.477 E3.7153
G1 X93.924 Y104.706 E3.74649
G1 X94.522 Y103.983 E3.7777
G1 X95.179 Y103.314 E3.80889
G0 F6000 X95.539 Y103.526
G1 F1200 X96.336 Y102.867 E3.84328
G1 X96.631 Y102.646 E3.85554
G1 X97.391 Y102.126 E3.88617
G1 X98.193 Y101.675 E3.91678
G1 X99.031 Y101.294 E3.94739
G1 X99.9 Y100.988 E3.97804
G1 X100.985 Y100.72 E4.01521
G1 X103.596 Y100.218 E4.10364
G1 X104.506 Y100.083 E4.13424
G1 X105.581 Y100.027 E4.17004
G1 X106.85 Y100.025 E4.21225
G1 X107.689 Y100.013 E4.24016
G1 X108.758 Y100.012 E4.27571
G1 X109.678 Y100.052 E4.30634
G1 X110.782 Y100.207 E4.34342
G1 X112.462 Y100.534 E4.40034
G1 X113.377 Y100.704 E4.4313
G1 X114.274 Y100.911 E4.46192
G1 X115.15 Y101.196 E4.49256
G1 X115.997 Y101.556 E4.52317
G1 X116.81 Y101.987 E4.55377
G1 X117.816 Y102.658 E4.59399
G1 X118.12 Y102.887 E4.60665
G1 X118.83 Y103.473 E4.63727
G1 X119.488 Y104.118 E4.66792
G1 X120.086 Y104.817 E4.69851
G1 X120.622 Y105.566 E4.72914
G1 X121.091 Y106.358 E4.75976
G1 X121.489 Y107.188 E4.79037
G1 X121.814 Y108.05 E4.82102
G1 X122.037 Y108.828 E4.84793
G1 X122.116 Y109.15 E4.85896
G1 X122.296 Y110.053 E4.88959
G1 X122.397 Y110.968 E4.9202
G1 X122.419 Y111.494 E4.93771
G1 X122.437 Y112.613 E4.97494
G1 X122.435 Y114.496 E5.03757
G1 X122.417 Y115.482 E5.07037
G1 X122.386 Y116.096 E5.09081
G1 X121.693 Y125.763 E5.41316
G1 X121.635 Y126.433 E5.43553
G1 X121.515 Y127.346 E5.46616
G1 X121.317 Y128.245 E5.49678
G1 X121.042 Y129.124 E5.52741
G1 X120.692 Y129.975 E5.55801
G1 X120.269 Y130.793 E5.58864
G1 X119.777 Y131.571 E5.61926
G1 X119.219 Y132.303 E5.64987
G1 X118.599 Y132.984 E5.6805
G1 X117.923 Y133.609 E5.71113
G1 X117.195 Y134.173 E5.74176
G1 X116.421 Y134.671 E5.77237
G1 X115.607 Y135.101 E5.80299
G1 X114.758 Y135.458 E5.83362
G1 X113.882 Y135.74 E5.86423
G1 X112.984 Y135.945 E5.89486
G1 X112.073 Y136.072 E5.92546
G1 X111.228 Y136.118 E5.9536
G1 X110.539 Y136.128 E5.97652
G1 X103.901 Y136.128 E6.1973
G1 X103.203 Y136.118 E6.22052
G1 X102.284 Y136.065 E6.25114
G1 X101.373 Y135.932 E6.28176
G1 X100.477 Y135.721 E6.31237
G1 X99.603 Y135.433 E6.34298
G1 X98.756 Y135.07 E6.37363
G1 X97.945 Y134.635 E6.40424
G1 X97.175 Y134.131 E6.43485
G1 X96.451 Y133.562 E6.46548
G1 X95.779 Y132.932 E6.49611
G1 X95.164 Y132.247 E6.52673
G1 X94.611 Y131.511 E6.55735
G1 X94.124 Y130.73 E6.58796
G1 X93.707 Y129.909 E6.61859
G1 X93.362 Y129.055 E6.64922
G1 X93.093 Y128.175 E6.67983
G1 X92.901 Y127.274 E6.71047
G1 X92.794 Y126.424 E6.73896
G1 X92.721 Y125.566 E6.7676
G1 X92.071 Y116.511 E7.06955
G1 X92.005 Y115.308 E7.10962
G1 X91.992 Y114.695 E7.13002
G1 X91.992 Y112.208 E7.21273
G1 X92.001 Y111.597 E7.23306
G1 X92.055 Y110.678 E7.26368
G1 X92.26 Y109.418 E7.30614
G1 X92.351 Y109.015 E7.31988
G1 X92.593 Y108.127 E7.35049
G1 X92.911 Y107.263 E7.38111
G1 X93.302 Y106.43 E7.41172
G1 X93.765 Y105.633 E7.44237
G1 X94.294 Y104.88 E7.47298
G1 X94.887 Y104.176 E7.5036
G1 X95.539 Y103.526 E7.53422
G0 F6000 X95.899 Y103.741
G1 F1200 X96.575 Y103.187 E7.56329
G1 X96.87 Y102.966 E7.57555
G1 X97.616 Y102.457 E7.60558
G1 X98.405 Y102.016 E7.63565
G1 X99.229 Y101.646 E7.66569
G1 X100.082 Y101.351 E7.69571
G1 X101.06 Y101.112 E7.72919
G1 X103.671 Y100.61 E7.81763
G1 X104.565 Y100.479 E7.84768
G1 X105.582 Y100.427 E7.88155
G1 X106.857 Y100.425 E7.92396
G1 X107.842 Y100.412 E7.95672
G1 X108.758 Y100.412 E7.98719
G1 X109.66 Y100.452 E8.01722
G1 X110.705 Y100.6 E8.05232
G1 X113.304 Y101.097 E8.14033
G1 X114.184 Y101.302 E8.17038
G1 X115.042 Y101.583 E8.20041
G1 X115.872 Y101.939 E8.23045
G1 X116.667 Y102.367 E8.26048
G1 X117.575 Y102.978 E8.29688
G1 X117.879 Y103.207 E8.30954
G1 X118.576 Y103.782 E8.33959
G1 X119.219 Y104.416 E8.36962
G1 X119.803 Y105.104 E8.39964
G1 X120.324 Y105.842 E8.42969
G1 X120.778 Y106.623 E8.45973
G1 X121.161 Y107.44 E8.48974
G1 X121.471 Y108.289 E8.51981
G1 X121.648 Y108.924 E8.54173
G1 X121.727 Y109.246 E8.55276
G1 X121.903 Y110.131 E8.58277
G1 X122 Y111.029 E8.61281
G1 X122.019 Y111.501 E8.62852
G1 X122.037 Y112.613 E8.66551
G1 X122.035 Y114.491 E8.72798
G1 X122.017 Y115.465 E8.76038
G1 X121.987 Y116.068 E8.78046
G1 X121.306 Y125.578 E9.09757
G1 X121.236 Y126.399 E9.12498
G1 X121.118 Y127.294 E9.155
G1 X120.922 Y128.176 E9.18505
G1 X120.648 Y129.036 E9.21507
G1 X120.3 Y129.869 E9.2451
G1 X119.879 Y130.668 E9.27514
G1 X119.389 Y131.427 E9.30519
G1 X118.834 Y132.139 E9.33521
G1 X118.218 Y132.8 E9.36526
G1 X117.546 Y133.403 E9.39529
G1 X116.823 Y133.945 E9.42535
G1 X116.055 Y134.42 E9.45538
G1 X115.248 Y134.826 E9.48543
G1 X114.409 Y135.159 E9.51545
G1 X113.543 Y135.416 E9.5455
G1 X112.658 Y135.595 E9.57553
G1 X111.76 Y135.696 E9.60558
G1 X111.222 Y135.718 E9.62349
G1 X110.385 Y135.729 E9.65133
G1 X103.907 Y135.728 E9.86679
G1 X103.209 Y135.718 E9.89001
G1 X102.307 Y135.665 E9.92006
G1 X101.414 Y135.533 E9.95009
G1 X100.536 Y135.322 E9.98012
G1 X99.68 Y135.034 E10.01016
G1 X98.853 Y134.672 E10.04018
G1 X98.061 Y134.237 E10.07024
G1 X97.31 Y133.735 E10.10028
G1 X96.607 Y133.168 E10.13032
G1 X95.957 Y132.541 E10.16036
G1 X95.365 Y131.859 E10.1904
G1 X94.835 Y131.128 E10.22043
G1 X94.373 Y130.352 E10.25047
G1 X93.98 Y129.539 E10.2805
G1 X93.662 Y128.694 E10.31053
G1 X93.419 Y127.824 E10.34057
G1 X93.254 Y126.936 E10.37061
G1 X93.192 Y126.39 E10.38889
G1 X93.12 Y125.537 E10.41736
G1 X92.461 Y116.345 E10.72387
G1 X92.405 Y115.297 E10.75878
G1 X92.392 Y114.694 E10.77884
G1 X92.392 Y112.214 E10.86133
G1 X92.401 Y111.603 E10.88165
G1 X92.454 Y110.701 E10.9117
G1 X92.651 Y109.506 E10.95199
G1 X92.742 Y109.103 E10.96573
G1 X92.979 Y108.232 E10.99575
G1 X93.293 Y107.385 E11.02579
G1 X93.681 Y106.57 E11.05582
G1 X94.139 Y105.791 E11.08587
G1 X94.664 Y105.057 E11.11589
G1 X95.252 Y104.371 E11.14594
G1 X95.899 Y103.741 E11.17597
G1 F2700 E6.17597
;MESH:scincepro1+others.3mf(2)
G0 F6000 X101.927 Y113.106
G0 X102.792 Y113.105
;TYPE:WALL-OUTER
G1 F2700 E11.17597
G1 F1200 X102.969 Y112.714 E11.19025
G1 X103.149 Y112.398 E11.20235
G1 X103.431 Y111.982 E11.21906
G1 X103.787 Y111.577 E11.237
G1 X104.076 Y111.303 E11.25024
G1 X104.338 Y111.094 E11.26139
G1 X103.521 Y111.246 E11.28903
G1 X103.064 Y111.311 E11.30438
G1 X102.847 Y111.508 E11.31413
G1 X102.792 Y111.737 E11.32196
G1 X102.792 Y113.105 E11.36746
G0 F6000 X102.996 Y112.257
G0 X103.235 Y111.684
;TYPE:WALL-INNER
G1 F1363.6 X103.169 Y111.722 E11.36969
G1 X103.147 Y111.684 E11.37098
G1 X103.212 Y111.646 E11.37318
G1 F2700 E6.37318
G0 F6000 X103.646 Y111.431
G0 X104.401 Y112.189
G0 X110.845 Y113.455
G0 X111.636 Y113.103
;TYPE:WALL-OUTER
G1 F2700 E11.37318
G1 F1200 X111.636 Y111.778 E11.41725
G1 X111.582 Y111.51 E11.42634
G1 X111.36 Y111.307 E11.43635
G1 X110.699 Y111.212 E11.45856
G1 X110.118 Y111.1 E11.47824
G1 X110.588 Y111.517 E11.49914
G1 X110.997 Y111.979 E11.51966
G1 X111.28 Y112.397 E11.53645
G1 X111.466 Y112.725 E11.54899
G1 X111.636 Y113.103 E11.56278
G0 F6000 X111.432 Y112.257
G0 X111.281 Y111.684
;TYPE:WALL-INNER
G1 F1363.6 X111.215 Y111.722 E11.565
G1 X111.193 Y111.684 E11.56629
G1 X111.258 Y111.646 E11.56849
G1 F2700 E6.56849
G0 F6000 X111.432 Y112.257
G0 X110.689 Y113.111
G0 X110.989 Y115.919
G0 X111.657 Y116.372
;TYPE:WALL-OUTER
G1 F2700 E11.56849
G1 F1714.3 X111.605 Y116.402 E11.56989
G1 X111.665 Y116.432 E11.57145
G1 X111.577 Y116.685 E11.57769
G1 F2700 E6.57769
G0 F6000 X111.203 Y117.921
G0 X110.524 Y124.928
;TYPE:WALL-INNER
G1 F2700 E11.57769
G1 F1200 X110.988 Y118.446 E11.79383
G1 X110.912 Y118.535 E11.79773
G1 X110.307 Y119.063 E11.82443
G1 X109.702 Y119.45 E11.84832
G1 X109.059 Y119.745 E11.87185
G1 X108.492 Y119.92 E11.89159
G1 X108.077 Y120.007 E11.90569
G1 X107.467 Y120.081 E11.92613
G1 X106.71 Y120.06 E11.95131
G1 X106.121 Y119.963 E11.97117
G1 X105.713 Y119.856 E11.9852
G1 X105.263 Y119.697 E12.00107
G1 X104.831 Y119.5 E12.01686
G1 X104.374 Y119.231 E12.0345
G1 X104.028 Y118.985 E12.04862
G1 X103.443 Y118.48 E12.07433
G1 X103.905 Y124.929 E12.28937
G1 X110.524 Y124.928 E12.50952
G0 F6000 X110.896 Y125.328
;TYPE:WALL-OUTER
G1 F1200 X111.462 Y117.428 E12.77295
G1 F1243.5 X111.507 Y116.996 E12.78689
G1 F1472.4 X111.575 Y116.691 E12.79536
G1 X111.493 Y116.993 E12.80384
G1 F1243.5 X111.29 Y117.395 E12.8183
G1 F1200 X111.022 Y117.798 E12.83439
G1 X110.61 Y118.271 E12.85526
G1 X110.088 Y118.727 E12.87831
G1 X109.532 Y119.088 E12.90036
G1 X108.964 Y119.354 E12.92122
G1 X108.41 Y119.528 E12.94053
G1 X107.977 Y119.618 E12.95524
G1 X107.462 Y119.679 E12.97249
G1 X106.773 Y119.665 E12.99541
G1 X106.223 Y119.576 E13.01394
G1 X105.797 Y119.464 E13.02859
G1 X105.398 Y119.321 E13.04269
G1 X104.98 Y119.127 E13.05802
G1 X104.606 Y118.905 E13.07248
G1 X104.26 Y118.659 E13.0866
G1 X103.824 Y118.277 E13.10588
G1 X103.468 Y117.868 E13.12392
G1 X103.214 Y117.513 E13.13844
G1 X103.059 Y117.26 E13.1483
G1 X102.937 Y117.024 E13.15714
G1 X103.533 Y125.329 E13.43408
G1 X110.896 Y125.328 E13.67897
G0 F6000 X110.643 Y125.056
G0 X110.446 Y124.587
G0 X110.187 Y124.567
;TYPE:SKIN
G1 F1200 X110.562 Y119.327 E13.8537
G1 X109.924 Y119.744 E13.87905
G1 X109.244 Y120.062 E13.90402
G1 X108.64 Y120.254 E13.9251
G1 X108.138 Y120.363 E13.94218
G1 X107.503 Y120.44 E13.96346
G1 X106.69 Y120.424 E13.9905
G1 X106.042 Y120.315 E14.01236
G1 X105.537 Y120.179 E14.02975
G1 X105.075 Y120.011 E14.0461
G1 X104.574 Y119.774 E14.06454
G1 X104.176 Y119.532 E14.08003
G1 X103.864 Y119.31 E14.09277
G1 X104.241 Y124.568 E14.2681
G1 X110.187 Y124.567 E14.46586
G0 F6000 X110.446 Y124.587
G0 X110.769 Y118.911
G0 X109.941 Y119.422
G0 X110.191 Y119.808
G1 F1200 X110.319 Y119.936 E14.47188
G0 F6000 X109.827 Y120.009
G1 F1200 X110.281 Y120.464 E14.49326
G0 F6000 X110.244 Y120.992
G1 F1200 X109.441 Y120.189 E14.53103
G0 F6000 X109.026 Y120.34
G1 F1200 X110.206 Y121.519 E14.58651
G0 F6000 X110.167 Y122.047
G1 F1200 X108.588 Y120.468 E14.66078
G0 F6000 X108.121 Y120.566
G1 F1200 X110.13 Y122.575 E14.75528
G0 F6000 X110.092 Y123.103
G1 F1200 X107.616 Y120.627 E14.87174
G0 F6000 X107.052 Y120.628
G1 F1200 X110.054 Y123.63 E15.01295
G0 F6000 X110.016 Y124.158
G1 F1200 X106.442 Y120.584 E15.18106
G0 F6000 X105.729 Y120.437
G1 F1200 X109.658 Y124.366 E15.36587
G0 F6000 X109.093 Y124.366
G1 F1200 X104.851 Y120.124 E15.5654
G0 F6000 X104.109 Y119.948
G1 F1200 X108.527 Y124.366 E15.77321
G0 F6000 X107.961 Y124.366
G1 F1200 X104.153 Y120.558 E15.95232
G0 F6000 X104.197 Y121.167
G1 F1200 X107.396 Y124.366 E16.10279
G0 F6000 X106.83 Y124.366
G1 F1200 X104.24 Y121.777 E16.2246
G0 F6000 X104.284 Y122.386
G1 F1200 X106.264 Y124.366 E16.31773
G0 F6000 X105.699 Y124.366
G1 F1200 X104.327 Y122.995 E16.38224
G0 F6000 X104.371 Y123.605
G1 F1200 X105.133 Y124.366 E16.41806
G0 F6000 X104.567 Y124.366
G1 F1200 X104.415 Y124.214 E16.42521
G1 F2700 E11.42521
;MESH:NONMESH
G0 F300 X104.415 Y124.214 Z0.4
G0 F6000 X103.956 Y124.246
G0 X103.2 Y117.846
G0 X103.934 Y117.034
G0 X103.877 Y112.867
G0 X102.758 Y112.286
;TIME_ELAPSED:34.918334
;LAYER:1
M106 S85
;TYPE:WALL-INNER
;MESH:scincepro1+others.3mf(2)
G1 F2700 E16.42521
G1 F1381.1 X102.89 Y112.061 E16.43369
G1 F1374 X103.197 Y111.648 E16.45051
G1 F1367.1 X103.472 Y111.332 E16.46427
G1 X103.613 Y111.196 E16.4707
G1 X103.101 Y111.267 E16.48768
G1 X102.922 Y111.365 E16.49438
G1 F1374 X102.803 Y111.529 E16.501
G1 F1381.1 X102.757 Y111.687 E16.50635
G1 X102.758 Y112.286 E16.52583
G1 F2700 E11.52583
G0 F7500 X102.565 Y113.129
G0 X102.443 Y114.013
;TYPE:WALL-OUTER
G1 F2700 E16.52583
G1 F1032.5 X102.406 Y114.601 E16.55145
G1 F1127.3 X102.399 Y115.041 E16.56897
G1 F1122.7 X102.454 Y115.68 E16.59463
G1 F1026.6 X102.525 Y116.167 E16.61615
G1 F2700 E11.61615
G0 F7500 X102.443 Y114.013
G1 F2700 E16.61615
G1 F1125 X102.629 Y113.576 E16.63511
G1 F1350 X102.726 Y113.279 E16.6455
G1 X102.841 Y112.986 E16.65597
G1 X102.967 Y112.719 E16.66579
G1 X103.193 Y112.319 E16.68107
G1 X103.514 Y111.888 E16.69894
G1 X103.771 Y111.594 E16.71193
G1 X104.062 Y111.315 E16.72534
G1 X104.356 Y111.078 E16.7379
G1 X104.667 Y110.863 E16.75047
G1 X105.013 Y110.664 E16.76375
G1 X105.396 Y110.488 E16.77777
G1 F1252.9 X105.393 Y110.456 E16.77892
G1 X105.378 Y110.432 E16.77993
G1 F1350 X104.317 Y110.659 E16.81602
G1 X103.794 Y110.763 E16.83376
G1 X103.452 Y110.82 E16.84529
G1 X102.979 Y110.88 E16.86115
G1 X102.621 Y111.078 E16.87475
G1 X102.439 Y111.365 E16.88606
G1 X102.362 Y111.632 E16.8953
G1 X102.363 Y113.545 E16.95893
G1 F1125 X102.443 Y114.013 E16.97788
G1 F2700 E11.97788
G0 F7500 X103.464 Y113.802
G0 X105.425 Y111.427
G0 X105.393 Y110.456
G1 F2700 E16.97788
G1 F1244.2 X105.731 Y110.36 E16.99056
G1 F1399 X106.095 Y110.279 E17.00252
G1 F1542.9 X106.545 Y110.209 E17.01578
G1 F1651.4 X106.933 Y110.178 E17.02636
