;FLAVOR:Marlin
;TIME:946
;Filament used: 0.425204m
;Layer height: 0.2
;MINX:101.371
;MINY:105.294
;MINZ:0.2
;MAXX:132.759
;MAXY:136.837
;MAXZ:13.6
;Generated with Cura_SteamEngine 5.2.1
M140 S50
M105
M190 S50
M104 S200
M105
M109 S200
M82 ;absolute extrusion mode
; Ender 3 Custom Start G-code
G92 E0 ; Reset Extruder
G28 ; Home all axes
G1 Z2.0 F3000 ; Move Z Axis up little to prevent scratching of Heat Bed
G1 X0.1 Y20 Z0.3 F5000.0 ; Move to start position
G1 X0.1 Y200.0 Z0.3 F1500.0 E15 ; Draw the first line
G1 X0.4 Y200.0 Z0.3 F5000.0 ; Move to side a little
G1 X0.4 Y20 Z0.3 F1500.0 E30 ; Draw the second line
G92 E0 ; Reset Extruder
G1 Z2.0 F3000 ; Move Z Axis up little to prevent scratching of Heat Bed
G1 X5 Y20 Z0.3 F5000.0 ; Move over to prevent blob squish
G92 E0
G92 E0
G1 F2700 E-5
;LAYER_COUNT:68
;LAYER:0
M107
G0 F6000 X104.703 Y109.098 Z0.2
;TYPE:SKIRT
G1 F2700 E0
G1 F1200 X105.387 Y108.457 E0.03118
G1 X105.977 Y107.984 E0.05633
G1 X106.178 Y107.834 E0.06467
G1 X106.953 Y107.306 E0.09586
G1 X107.77 Y106.845 E0.12706
G1 X108.623 Y106.456 E0.15824
G1 X109.507 Y106.141 E0.18946
G1 X110.5 Y105.884 E0.22357
G1 X112.208 Y105.526 E0.28162
G1 X113.134 Y105.373 E0.31283
G1 X114.069 Y105.299 E0.34403
G1 X114.686 Y105.294 E0.36455
G1 X115.256 Y105.305 E0.38351
G1 X117.871 Y105.32 E0.47049
G1 X119.508 Y105.294 E0.52494
G1 X120.445 Y105.319 E0.55612
G1 X121.377 Y105.424 E0.58731
G1 X121.947 Y105.528 E0.60658
G1 X123.631 Y105.882 E0.66382
G1 X124.54 Y106.114 E0.69502
G1 X125.425 Y106.423 E0.7262
G1 X126.282 Y106.805 E0.75741
G1 X127.102 Y107.26 E0.7886
G1 X127.912 Y107.805 E0.82107
G1 X128.189 Y108.01 E0.83253
G1 X128.918 Y108.6 E0.86372
G1 X129.595 Y109.249 E0.89491
G1 X130.213 Y109.954 E0.9261
G1 X130.77 Y110.709 E0.9573
G1 X131.26 Y111.509 E0.9885
G1 X131.68 Y112.347 E1.01968
G1 X131.993 Y113.121 E1.04745
G1 X132.099 Y113.415 E1.05784
G1 X132.379 Y114.31 E1.08903
G1 X132.582 Y115.226 E1.12024
G1 X132.706 Y116.155 E1.15141
G1 X132.743 Y116.737 E1.17081
G1 X132.759 Y117.366 E1.19174
G1 X132.755 Y119.622 E1.26677
G1 X132.735 Y120.403 E1.29276
G1 X132.702 Y121.162 E1.31802
G1 X132.645 Y122.138 E1.35054
G1 X132.41 Y125.584 E1.46542
G1 X132.343 Y126.406 E1.49285
G1 X132.226 Y127.337 E1.52406
G1 X131.931 Y128.635 E1.56833
G1 X131.596 Y129.635 E1.60341
G1 X131.224 Y130.496 E1.63461
G1 X130.779 Y131.322 E1.66581
G1 X130.266 Y132.107 E1.697
G1 X129.688 Y132.846 E1.72821
G1 X129.212 Y133.37 E1.75175
G1 X128.541 Y134.025 E1.78294
G1 X127.815 Y134.619 E1.81414
G1 X127.042 Y135.15 E1.84533
G1 X126.227 Y135.613 E1.87651
G1 X125.375 Y136.005 E1.9077
G1 X124.492 Y136.323 E1.93892
G1 X123.586 Y136.565 E1.97011
G1 X122.663 Y136.728 E2.00128
G1 X121.548 Y136.82 E2.03849
G1 X120.855 Y136.836 E2.06155
G1 X113.574 Y136.837 E2.30371
G1 X112.74 Y136.825 E2.33146
G1 X111.803 Y136.771 E2.36267
G1 X110.875 Y136.638 E2.39385
G1 X109.961 Y136.427 E2.42505
G1 X109.069 Y136.138 E2.45624
G1 X108.204 Y135.774 E2.48745
G1 X107.374 Y135.338 E2.51863
G1 X106.584 Y134.833 E2.54982
G1 X105.84 Y134.263 E2.58099
G1 X105.147 Y133.631 E2.61219
G1 X104.51 Y132.942 E2.6434
G1 X103.934 Y132.202 E2.67459
G1 X103.462 Y131.479 E2.70331
G1 X103.326 Y131.252 E2.71211
G1 X102.879 Y130.428 E2.74329
G1 X102.503 Y129.569 E2.77447
G1 X102.202 Y128.68 E2.80569
G1 X101.978 Y127.77 E2.83686
G1 X101.799 Y126.505 E2.87935
G1 X101.736 Y125.743 E2.90478
G1 X101.479 Y121.994 E3.02977
G1 X101.428 Y121.098 E3.05962
G1 X101.391 Y120.175 E3.09034
G1 X101.373 Y119.289 E3.11982
G1 X101.371 Y117.642 E3.1746
G1 X101.382 Y116.892 E3.19954
G1 X101.436 Y115.955 E3.23076
G1 X101.569 Y115.027 E3.26194
G1 X101.781 Y114.113 E3.29315
G1 X102.07 Y113.221 E3.32433
G1 X102.434 Y112.357 E3.35552
G1 X102.87 Y111.526 E3.38673
G1 X103.334 Y110.795 E3.41553
G1 X103.509 Y110.542 E3.42576
G1 X104.075 Y109.795 E3.45693
G1 X104.703 Y109.098 E3.48814
G0 F6000 X105.012 Y109.354
G1 F1200 X105.687 Y108.727 E3.51878
G1 X106.216 Y108.305 E3.54128
G1 X106.417 Y108.155 E3.54963
G1 X107.178 Y107.637 E3.58024
G1 X107.982 Y107.187 E3.61089
G1 X108.821 Y106.808 E3.64151
G1 X109.69 Y106.504 E3.67213
G1 X110.582 Y106.275 E3.70276
G1 X112.29 Y105.917 E3.7608
G1 X113.199 Y105.768 E3.79144
G1 X114.117 Y105.698 E3.82206
G1 X114.678 Y105.694 E3.84072
G1 X115.246 Y105.705 E3.85962
G1 X117.875 Y105.72 E3.94706
G1 X119.514 Y105.694 E4.00158
G1 X120.434 Y105.72 E4.03219
G1 X121.349 Y105.825 E4.06282
G1 X121.865 Y105.92 E4.08027
G1 X123.549 Y106.274 E4.13751
G1 X124.44 Y106.502 E4.1681
G1 X125.309 Y106.807 E4.19873
G1 X126.148 Y107.186 E4.22935
G1 X126.951 Y107.637 E4.25998
G1 X127.674 Y108.127 E4.28903
G1 X127.951 Y108.332 E4.30049
G1 X128.666 Y108.911 E4.33109
G1 X129.329 Y109.55 E4.36172
G1 X129.933 Y110.244 E4.39232
G1 X130.476 Y110.988 E4.42295
G1 X130.951 Y111.777 E4.45359
G1 X131.356 Y112.604 E4.48421
G1 X131.617 Y113.257 E4.5076
G1 X131.723 Y113.551 E4.518
G1 X131.997 Y114.43 E4.54862
G1 X132.194 Y115.329 E4.57923
G1 X132.312 Y116.242 E4.60985
G1 X132.344 Y116.752 E4.62685
G1 X132.359 Y117.366 E4.64727
G1 X132.358 Y119.377 E4.71416
G1 X132.336 Y120.386 E4.74773
G1 X132.303 Y121.139 E4.7728
G1 X132.245 Y122.111 E4.80518
G1 X131.999 Y125.705 E4.925
G1 X131.944 Y126.374 E4.94732
G1 X131.829 Y127.287 E4.97793
G1 X131.546 Y128.525 E5.02017
G1 X131.216 Y129.508 E5.05466
G1 X130.849 Y130.352 E5.08527
G1 X130.41 Y131.161 E5.11588
G1 X129.902 Y131.929 E5.14651
G1 X128.993 Y133.026 E5.19389
G1 X128.261 Y133.738 E5.22786
G1 X127.548 Y134.32 E5.25847
G1 X126.787 Y134.838 E5.28909
G1 X125.984 Y135.288 E5.3197
G1 X125.145 Y135.667 E5.35032
G1 X124.276 Y135.971 E5.38094
G1 X123.384 Y136.199 E5.41157
G1 X122.476 Y136.349 E5.44217
G1 X121.535 Y136.42 E5.47356
G1 X120.855 Y136.436 E5.49618
G1 X113.579 Y136.437 E5.73819
G1 X112.745 Y136.425 E5.76593
G1 X111.826 Y136.372 E5.79654
G1 X110.915 Y136.239 E5.82717
G1 X110.019 Y136.028 E5.85778
G1 X109.145 Y135.739 E5.8884
G1 X108.299 Y135.376 E5.91902
G1 X107.488 Y134.941 E5.94963
G1 X106.717 Y134.437 E5.98026
G1 X105.993 Y133.869 E6.01087
G1 X105.321 Y133.239 E6.04151
G1 X104.707 Y132.554 E6.0721
G1 X104.154 Y131.817 E6.10275
G1 X103.805 Y131.274 E6.12422
G1 X103.669 Y131.047 E6.13302
G1 X103.231 Y130.237 E6.16365
G1 X102.864 Y129.393 E6.19426
G1 X102.572 Y128.519 E6.22491
G1 X102.357 Y127.624 E6.25552
G1 X102.198 Y126.472 E6.2942
G1 X102.135 Y125.71 E6.31963
G1 X101.878 Y121.97 E6.44432
G1 X101.827 Y121.081 E6.47393
G1 X101.797 Y120.371 E6.49757
G1 X101.773 Y119.288 E6.5336
G1 X101.771 Y117.648 E6.58815
G1 X101.782 Y116.898 E6.61309
G1 X101.836 Y115.978 E6.64374
G1 X101.969 Y115.067 E6.67437
G1 X102.18 Y114.171 E6.70498
G1 X102.469 Y113.297 E6.7356
G1 X102.832 Y112.451 E6.76622
G1 X103.267 Y111.64 E6.79683
G1 X103.663 Y111.023 E6.82121
G1 X103.838 Y110.77 E6.83144
G1 X104.394 Y110.036 E6.86207
G1 X105.012 Y109.354 E6.89268
G0 F6000 X105.321 Y109.61
G1 F1200 X105.985 Y108.998 E6.92272
G1 X106.456 Y108.625 E6.9427
G1 X106.657 Y108.475 E6.95104
G1 X107.404 Y107.968 E6.98107
G1 X108.192 Y107.528 E7.01109
G1 X109.017 Y107.16 E7.04113
G1 X109.871 Y106.867 E7.07116
G1 X110.665 Y106.667 E7.09839
G1 X112.373 Y106.309 E7.15644
G1 X113.264 Y106.163 E7.18647
G1 X114.164 Y106.096 E7.21648
G1 X114.67 Y106.094 E7.23331
G1 X115.235 Y106.105 E7.25211
G1 X117.879 Y106.12 E7.34005
G1 X119.52 Y106.094 E7.39464
G1 X120.423 Y106.12 E7.42468
G1 X121.32 Y106.225 E7.45472
G1 X121.782 Y106.311 E7.47035
G1 X123.466 Y106.665 E7.52759
G1 X124.341 Y106.89 E7.55764
G1 X125.192 Y107.191 E7.58766
G1 X126.014 Y107.566 E7.61771
G1 X126.799 Y108.013 E7.64775
G1 X127.436 Y108.448 E7.67341
G1 X127.713 Y108.653 E7.68487
G1 X128.414 Y109.222 E7.7149
G1 X129.063 Y109.851 E7.74496
G1 X129.653 Y110.534 E7.77498
G1 X130.18 Y111.267 E7.80501
G1 X130.641 Y112.044 E7.83506
G1 X131.031 Y112.859 E7.86511
G1 X131.24 Y113.392 E7.88415
G1 X131.346 Y113.686 E7.89454
G1 X131.615 Y114.549 E7.92461
G1 X131.806 Y115.431 E7.95462
G1 X131.944 Y116.767 E7.9993
G1 X131.959 Y117.366 E8.01923
G1 X131.958 Y119.377 E8.08611
G1 X131.936 Y120.369 E8.11911
G1 X131.904 Y121.115 E8.14395
G1 X131.853 Y121.986 E8.17297
G1 X131.601 Y125.672 E8.29585
G1 X131.546 Y126.341 E8.31818
G1 X131.432 Y127.237 E8.34822
G1 X131.161 Y128.417 E8.38849
G1 X130.837 Y129.381 E8.42231
G1 X130.474 Y130.208 E8.45235
G1 X130.04 Y131 E8.48239
G1 X129.537 Y131.75 E8.51242
G1 X128.7 Y132.753 E8.55587
G1 X127.982 Y133.451 E8.58918
G1 X127.281 Y134.02 E8.61921
G1 X126.533 Y134.525 E8.64923
G1 X125.742 Y134.962 E8.67928
G1 X124.916 Y135.327 E8.70932
G1 X124.061 Y135.618 E8.73936
G1 X123.184 Y135.832 E8.76938
G1 X122.291 Y135.967 E8.79942
G1 X121.523 Y136.02 E8.82503
G1 X120.855 Y136.036 E8.84725
G1 X113.735 Y136.038 E9.08406
G1 X112.751 Y136.025 E9.11679
G1 X111.85 Y135.972 E9.14681
G1 X110.956 Y135.839 E9.17688
G1 X110.078 Y135.629 E9.2069
G1 X109.222 Y135.341 E9.23694
G1 X108.395 Y134.978 E9.26698
G1 X107.603 Y134.544 E9.29702
G1 X106.853 Y134.042 E9.32703
G1 X106.15 Y133.475 E9.35707
G1 X105.5 Y132.848 E9.38711
G1 X104.908 Y132.166 E9.41715
G1 X104.148 Y131.068 E9.46156
G1 X104.012 Y130.841 E9.47036
G1 X103.583 Y130.047 E9.50038
G1 X103.225 Y129.217 E9.53045
G1 X102.943 Y128.36 E9.56045
G1 X102.737 Y127.48 E9.59051
G1 X102.597 Y126.439 E9.62545
G1 X102.523 Y125.534 E9.65565
G1 X102.278 Y121.947 E9.77523
G1 X102.227 Y121.065 E9.80462
G1 X102.197 Y120.355 E9.82825
G1 X102.173 Y119.287 E9.86378
G1 X102.171 Y117.653 E9.91813
G1 X102.182 Y116.903 E9.94308
G1 X102.235 Y116.002 E9.9731
G1 X102.368 Y115.109 E10.00313
G1 X102.579 Y114.231 E10.03316
G1 X102.867 Y113.375 E10.0632
G1 X103.23 Y112.548 E10.09324
G1 X103.664 Y111.756 E10.12328
G1 X103.992 Y111.251 E10.1433
G1 X104.167 Y110.998 E10.15354
G1 X104.713 Y110.278 E10.18359
G1 X105.321 Y109.61 E10.21363
G1 F2700 E5.21363
;MESH:scincepro1+others.3mf
G0 F6000 X112.189 Y116.233
G0 X112.62 Y118.136
;TYPE:WALL-OUTER
G1 F2700 E10.21363
G1 F961.9 X112.928 Y117.553 E10.24099
G1 X113.199 Y117.156 E10.26093
G1 X113.39 Y116.917 E10.27363
G1 X113.542 Y116.755 E10.28285
G1 X112.859 Y116.875 E10.31162
G1 X112.716 Y116.982 E10.31903
G1 X112.62 Y117.169 E10.32775
G1 X112.62 Y118.136 E10.36787
G1 F2700 E5.36787
G0 F6000 X112.794 Y117.432
G0 X113.525 Y118.383
G0 X113.774 Y122.164
G0 X113.329 Y125.238
;TYPE:WALL-INNER
G1 F2700 E10.36787
G1 F1200 X115.292 Y125.238 E10.43316
G1 F1118.9 X116.043 Y125.185 E10.46002
G1 X115.258 Y124.899 E10.48982
G1 F1200 X114.637 Y124.623 E10.51243
G1 X114.116 Y124.295 E10.5329
G1 X113.72 Y123.992 E10.54949
G1 X113.366 Y123.665 E10.56551
G1 X113.21 Y123.49 E10.57331
G1 X113.329 Y125.238 E10.63159
G0 F6000 X113.411 Y124.975
G0 X117.964 Y125.192
G1 F1078.7 X118.494 Y125.238 E10.65127
G1 F1200 X120.805 Y125.236 E10.72813
G1 X120.925 Y123.487 E10.78644
G1 X120.728 Y123.703 E10.79617
G1 X120.273 Y124.114 E10.81656
G1 X119.835 Y124.416 E10.83425
G1 X119.419 Y124.654 E10.8502
G1 X118.981 Y124.852 E10.86618
G1 F1078.7 X117.964 Y125.192 E10.90586
G1 F2700 E5.90586
G0 F6000 X113.489 Y125.067
G1 F2700 E10.90586
G0 F6000 X112.99 Y125.611
;TYPE:WALL-OUTER
G1 F1200 X113.06 Y125.638 E10.90836
G1 X121.091 Y125.637 E11.17547
G1 X121.182 Y125.591 E11.17886
G1 X121.426 Y122.02 E11.29791
G1 X121.082 Y122.639 E11.32146
G1 X120.766 Y123.064 E11.33908
G1 X120.457 Y123.408 E11.35446
G1 X120.045 Y123.784 E11.37301
G1 X119.592 Y124.097 E11.39132
G1 X119.223 Y124.305 E11.40541
G1 X118.801 Y124.493 E11.42078
G1 X118.395 Y124.631 E11.43504
G1 X117.849 Y124.762 E11.45371
G1 X117.302 Y124.814 E11.47199
G1 X116.726 Y124.813 E11.49115
G1 X116.087 Y124.724 E11.51261
G1 X115.42 Y124.533 E11.53568
G1 X114.813 Y124.261 E11.55781
G1 X114.343 Y123.966 E11.57626
G1 X114.004 Y123.708 E11.59043
G1 X113.664 Y123.397 E11.60576
G1 X113.379 Y123.081 E11.61991
G1 X113.053 Y122.642 E11.6381
G1 X112.792 Y122.176 E11.65586
G1 X112.705 Y121.976 E11.66312
G1 X112.949 Y125.539 E11.7819
G1 X112.99 Y125.611 E11.78465
G0 F6000 X113.411 Y124.975
G0 X116.024 Y125.178
;TYPE:WALL-INNER
G1 F1019.1 X116.754 Y125.226 E11.81331
G1 F1129.4 X117.34 Y125.225 E11.83401
G1 F1048 X117.964 Y125.192 E11.85781
G1 F2700 E6.85781
G0 F6000 X119.312 Y124.505
G0 X118.823 Y123.537
G0 X120.463 Y118.107
G0 X121.516 Y118.189
;TYPE:WALL-OUTER
G1 F2700 E11.85781
G1 F969.7 X121.514 Y117.169 E11.89979
G1 F967.7 X121.417 Y116.982 E11.90848
G1 F963.9 X121.274 Y116.876 E11.91585
G1 X120.611 Y116.758 E11.94374
G1 X121.003 Y117.248 E11.96972
G1 F967.7 X121.255 Y117.656 E11.9895
G1 F969.7 X121.429 Y117.991 E12.00504
G1 X121.516 Y118.189 E12.01394
G1 F2700 E7.01394
G0 F6000 X121.335 Y117.443
G0 X120.463 Y118.107
G0 X119.513 Y123.099
G0 X119.684 Y124.895
;TYPE:SKIN
G1 F2700 E12.01394
G1 F1333.3 X120.487 Y124.896 E12.03798
G1 X120.523 Y124.355 E12.05421
G1 X119.954 Y124.743 E12.07482
G1 X119.684 Y124.895 E12.0841
G0 F6000 X119.566 Y124.685
G0 X117.884 Y124.999
G0 X116.723 Y125.053
G0 X113.489 Y125.067
G0 X113.647 Y124.899
G1 F1337 X114.435 Y124.898 E12.10762
G1 X113.918 Y124.573 E12.12585
G1 X113.608 Y124.333 E12.13755
G1 X113.647 Y124.899 E12.15449
G1 F2700 E7.15449
;MESH:NONMESH
G0 F300 X113.647 Y124.899 Z0.4
G0 F6000 X113.406 Y124.916
G0 X112.97 Y122.876
G0 X113.774 Y122.164
G0 X113.706 Y118.036
G0 X112.739 Y117.008
;TIME_ELAPSED:27.904675
;LAYER:1
M106 S85
;TYPE:WALL-INNER
;MESH:scincepro1+others.3mf
G1 F2700 E12.15449
G1 F393.9 X112.734 Y117.014 E12.15489
G1 X112.739 Y117.008 E12.15529
G1 F2700 E7.15529
G0 F7500 X112.341 Y118.491
G0 X112.232 Y119.435
;TYPE:WALL-OUTER
G1 F2700 E12.15529
G1 F438 X112.227 Y120.09 E12.18546
G1 F451 X112.264 Y120.746 E12.21485
G1 F411.3 X112.348 Y121.353 E12.24492
G1 F2700 E7.24492
G0 F7500 X112.499 Y122.07
G0 X112.232 Y119.435
G1 F2700 E12.24492
G1 F484.3 X112.374 Y119.108 E12.25977
G1 F590.4 X112.489 Y118.682 E12.27485
G1 F606.6 X112.626 Y118.284 E12.28885
G1 X112.749 Y118.001 E12.29911
G1 X112.908 Y117.696 E12.31055
G1 X113.169 Y117.276 E12.327
G1 X113.447 Y116.926 E12.34186
G1 X113.731 Y116.626 E12.3556
G1 X113.964 Y116.411 E12.36615
G1 X114.206 Y116.219 E12.37642
G1 X114.464 Y116.045 E12.38677
G1 X113.726 Y116.23 E12.41208
G1 X112.798 Y116.402 E12.44347
G1 X112.594 Y116.477 E12.4507
G1 X112.351 Y116.669 E12.461
G1 X112.216 Y116.883 E12.46942
G1 X112.14 Y117.152 E12.47871
G1 F599.1 X112.138 Y119.037 E12.54219
G1 F490.2 X112.232 Y119.435 E12.55902
G1 F2700 E7.55902
G0 F7500 X113.178 Y119.571
G0 X115.991 Y116.284
G0 X115.932 Y115.576
;TYPE:WALL-INNER
G1 F2700 E12.55902
G1 F393.9 X115.893 Y115.642 E12.56295
G1 X115.817 Y115.642 E12.56684
G1 X115.778 Y115.576 E12.57077
G1 X115.817 Y115.51 E12.5747
G1 X115.893 Y115.51 E12.57859
G0 F7500 X116.631 Y115.395
G1 F393.9 X116.555 Y115.395 E12.58248
G1 X116.516 Y115.461 E12.58641
G1 X116.555 Y115.527 E12.59034
G1 X116.631 Y115.527 E12.59423
G1 X116.67 Y115.461 E12.59815
G1 F2700 E7.59815
G0 F7500 X119.104 Y115.815
;TYPE:WALL-OUTER
G1 F2700 E12.59815
G1 F817 X119.577 Y116.003 E12.61072
G1 F2700 E7.61072
G0 F7500 X120.524 Y116.459
G0 X121.881 Y119.197
G1 F2700 E12.61072
G1 F443.6 X121.959 Y118.926 E12.62355
G1 F557.8 X121.994 Y118.662 E12.63318
G1 F606.6 X121.994 Y117.222 E12.68108
G1 X121.993 Y117.155 E12.68331
G1 X121.916 Y116.883 E12.69271
G1 X121.735 Y116.598 E12.70394
G1 X121.388 Y116.405 E12.71714
G1 X120.95 Y116.337 E12.73189
G1 X120.351 Y116.216 E12.75221
G1 F615.9 X119.837 Y116.081 E12.76962
G1 F645.3 X119.577 Y116.003 E12.77811
G1 F643.6 X119.825 Y116.15 E12.78715
G1 F614.3 X120.156 Y116.403 E12.80083
G1 F606.6 X120.36 Y116.582 E12.80986
G1 X120.659 Y116.896 E12.82428
G1 X120.96 Y117.269 E12.84022
G1 X121.229 Y117.704 E12.85723
G1 X121.386 Y118.009 E12.86864
G1 X121.502 Y118.273 E12.87823
G1 X121.651 Y118.705 E12.89343
G1 F557.8 X121.751 Y118.952 E12.90307
G1 F443.6 X121.881 Y119.197 E12.91568
G1 F407.1 X121.904 Y119.599 E12.93564
G1 F441.2 X121.908 Y119.976 E12.95288
G1 F457.8 X121.887 Y120.534 E12.97749
G1 F438 X121.832 Y121.02 E13.00002
G1 F390.7 X121.757 Y121.511 E13.02567
G0 F7500 X121.638 Y122.042
G0 X121.292 Y122.756
G0 X120.633 Y123.57
G0 X119.827 Y124.238
G0 X118.898 Y124.706
G0 X116.224 Y125.407
G0 X112.928 Y125.661
;TYPE:WALL-INNER
G1 F606.6 X115.492 Y125.662 E13.11095
G1 F563 X116.125 Y125.632 E13.13366
