;FLAVOR:Marlin
;TIME:2538
;Filament used: 1.36554m
;Layer height: 0.2
;MINX:83.743
;MINY:92.62
;MINZ:0.2
;MAXX:148.35
;MAXY:144.638
;MAXZ:15
;POSTPROCESSED
;Generated with Cura_SteamEngine 5.2.1
M140 S70
M105
M190 S70
M104 S200
M105
M109 S200
M82 ;absolute extrusion mode
; Ender 3 Custom Start G-code
G92 E0 ; Reset Extruder
G28 ; Home all axes
G1 Z2.0 F3000 ; Move Z Axis up little to prevent scratching of Heat Bed
G1 X0.1 Y20 Z0.3 F5000.0 ; Move to start position
G1 X0.1 Y200.0 Z0.3 F1500.0 E15 ; Draw the first line
G1 X0.4 Y200.0 Z0.3 F5000.0 ; Move to side a little
G1 X0.4 Y20 Z0.3 F1500.0 E30 ; Draw the second line
G92 E0 ; Reset Extruder
G1 Z2.0 F3000 ; Move Z Axis up little to prevent scratching of Heat Bed
G1 X5 Y20 Z0.3 F5000.0 ; Move over to prevent blob squish
G92 E0
G92 E0
G1 F2700 E-5
;LAYER_COUNT:75
;LAYER:0
M117 Layer 0 of 74 CE3E3V2_Jake
M107
G0 F6000 X96.366 Y97.076 Z0.2
;TYPE:SKIRT
G1 F2700 E0
G1 F1200 X97.064 Y96.45 E0.03118
G1 X97.813 Y95.885 E0.06239
G1 X98.412 Y95.5 E0.08607
G1 X100.431 Y94.294 E0.16429
G1 X101.256 Y93.848 E0.19549
G1 X102.116 Y93.474 E0.22668
G1 X103.005 Y93.174 E0.25788
G1 X104.322 Y92.878 E0.30278
G1 X105.17 Y92.75 E0.3313
G1 X105.64 Y92.693 E0.34705
G1 X106.575 Y92.62 E0.37824
G1 X107.513 Y92.627 E0.40944
G1 X108.446 Y92.713 E0.44061
G1 X108.999 Y92.803 E0.45924
G1 X110.065 Y93.004 E0.49532
G1 X112.628 Y93.45 E0.58185
G1 X115.126 Y93.813 E0.6658
G1 X117.632 Y94.104 E0.74971
G1 X120.14 Y94.325 E0.83345
G1 X122.645 Y94.473 E0.91691
G1 X125.174 Y94.551 E1.00107
G1 X127.695 Y94.558 E1.08492
G1 X128.502 Y94.541 E1.11177
G1 X129.078 Y94.539 E1.13092
G1 X130.015 Y94.579 E1.16212
G1 X130.945 Y94.699 E1.19331
G1 X131.862 Y94.897 E1.22451
G1 X132.758 Y95.173 E1.25569
G1 X133.628 Y95.524 E1.28689
G1 X134.464 Y95.948 E1.31807
G1 X135.262 Y96.442 E1.34929
G1 X136.014 Y97.002 E1.38047
G1 X136.716 Y97.623 E1.41164
G1 X137.363 Y98.303 E1.44286
G1 X137.949 Y99.035 E1.47405
G1 X138.471 Y99.814 E1.50524
G1 X138.924 Y100.635 E1.53643
G1 X139.306 Y101.492 E1.56763
G1 X139.614 Y102.378 E1.59883
G1 X139.753 Y102.887 E1.61638
G1 X140.057 Y104.109 E1.65826
G1 X140.713 Y106.593 E1.74371
G1 X141.438 Y109.052 E1.82898
G1 X142.211 Y111.427 E1.91205
G1 X143.051 Y113.78 E1.99515
G1 X143.978 Y116.16 E2.0801
G1 X144.95 Y118.459 E2.16312
G1 X145.998 Y120.756 E2.2471
G1 X146.729 Y122.265 E2.30286
G1 X147.213 Y123.244 E2.33919
G1 X147.592 Y124.102 E2.37039
G1 X147.897 Y124.989 E2.40158
G1 X148.125 Y125.898 E2.43275
G1 X148.276 Y126.824 E2.46396
G1 X148.346 Y127.759 E2.49514
G1 X148.35 Y128.336 E2.51434
G1 X148.331 Y129.299 E2.54637
G1 X148.297 Y130.132 E2.5741
G1 X148.215 Y131.067 E2.60532
G1 X148.054 Y131.991 E2.63651
G1 X147.815 Y132.897 E2.66768
G1 X147.499 Y133.781 E2.6989
G1 X147.109 Y134.634 E2.7301
G1 X146.648 Y135.45 E2.76127
G1 X146.119 Y136.225 E2.79248
G1 X145.346 Y137.149 E2.83255
G1 X144.31 Y138.258 E2.88302
G1 X143.641 Y138.916 E2.91423
G1 X142.919 Y139.514 E2.94541
G1 X142.148 Y140.048 E2.97661
G1 X141.335 Y140.515 E3.00779
G1 X140.484 Y140.91 E3.039
G1 X139.869 Y141.146 E3.06091
G1 X138.974 Y141.428 E3.09212
G1 X138.059 Y141.633 E3.1233
G1 X137.13 Y141.759 E3.15449
G1 X135.845 Y141.803 E3.19725
G1 X133.221 Y141.739 E3.28455
G1 X130.724 Y141.746 E3.3676
G1 X128.166 Y141.827 E3.45272
G1 X125.707 Y141.974 E3.53466
G1 X123.167 Y142.198 E3.61946
G1 X120.676 Y142.489 E3.70288
G1 X117.482 Y142.962 E3.81027
G1 X116.549 Y143.06 E3.84147
G1 X115.785 Y143.081 E3.86689
G1 X114.942 Y143.075 E3.89493
G1 X112.339 Y143.091 E3.98151
G1 X109.841 Y143.179 E4.06465
G1 X107.331 Y143.337 E4.14829
G1 X104.82 Y143.567 E4.23216
G1 X102.33 Y143.867 E4.31558
G1 X99.798 Y144.244 E4.40072
G1 X98.431 Y144.479 E4.44685
G1 X97.501 Y144.598 E4.47804
G1 X96.564 Y144.638 E4.50923
G1 X95.627 Y144.598 E4.54042
G1 X94.696 Y144.478 E4.57164
G1 X93.761 Y144.274 E4.60347
G1 X93.181 Y144.121 E4.62342
G1 X91.921 Y143.706 E4.66755
G1 X91.549 Y143.558 E4.68086
G1 X90.693 Y143.174 E4.71207
G1 X89.873 Y142.719 E4.74326
G1 X88.875 Y142.03 E4.78359
G1 X88.648 Y141.854 E4.79315
G1 X87.932 Y141.248 E4.82435
G1 X87.065 Y140.354 E4.86577
G1 X86.874 Y140.133 E4.87548
G1 X86.412 Y139.56 E4.89996
G1 X86.097 Y139.142 E4.91737
G1 X85.361 Y138.03 E4.96172
G1 X85.221 Y137.788 E4.97102
G1 X84.786 Y136.957 E5.00222
G1 X84.424 Y136.092 E5.03341
G1 X84.136 Y135.199 E5.06462
G1 X83.926 Y134.285 E5.09581
G1 X83.795 Y133.357 E5.12698
G1 X83.743 Y132.42 E5.15819
G1 X83.771 Y131.483 E5.18937
G1 X83.879 Y130.551 E5.22058
G1 X84.065 Y129.632 E5.25176
G1 X84.33 Y128.732 E5.28297
G1 X84.67 Y127.858 E5.31416
G1 X84.874 Y127.419 E5.33026
G1 X86.139 Y124.852 E5.42544
G1 X87.198 Y122.533 E5.51023
G1 X88.16 Y120.261 E5.5923
G1 X89.098 Y117.86 E5.67803
G1 X89.936 Y115.52 E5.7607
G1 X90.716 Y113.127 E5.84441
G1 X91.423 Y110.736 E5.92734
G1 X92.078 Y108.266 E6.01233
G1 X92.644 Y105.859 E6.09457
G1 X93.272 Y102.759 E6.19977
G1 X93.498 Y101.848 E6.23099
G1 X93.8 Y100.96 E6.26219
G1 X94.176 Y100.101 E6.29338
G1 X94.625 Y99.278 E6.32456
G1 X95.142 Y98.495 E6.35577
G1 X95.723 Y97.76 E6.38693
G1 X96.366 Y97.076 E6.41815
G0 F6000 X96.73 Y97.28
G1 F1200 X97.423 Y96.673 E6.44879
G1 X98.166 Y96.129 E6.47942
G1 X98.617 Y95.844 E6.49717
G1 X100.636 Y94.638 E6.57539
G1 X101.446 Y94.201 E6.606
G1 X102.291 Y93.835 E6.63662
G1 X103.165 Y93.544 E6.66726
G1 X104.386 Y93.273 E6.70886
G1 X105.218 Y93.147 E6.73685
G1 X105.688 Y93.09 E6.7526
G1 X106.606 Y93.019 E6.78322
G1 X107.526 Y93.028 E6.81382
G1 X108.443 Y93.117 E6.84446
G1 X108.925 Y93.196 E6.86071
G1 X110 Y93.398 E6.89709
G1 X112.567 Y93.845 E6.98375
G1 X115.097 Y94.213 E7.06879
G1 X117.583 Y94.502 E7.15203
G1 X120.082 Y94.722 E7.23547
G1 X122.643 Y94.873 E7.32079
G1 X125.161 Y94.951 E7.40458
G1 X127.702 Y94.958 E7.4891
G1 X128.51 Y94.941 E7.51598
G1 X129.078 Y94.939 E7.53487
G1 X129.998 Y94.979 E7.5655
G1 X130.911 Y95.099 E7.59613
G1 X131.81 Y95.297 E7.62674
G1 X132.688 Y95.573 E7.65735
G1 X133.539 Y95.924 E7.68797
G1 X134.357 Y96.347 E7.7186
G1 X135.134 Y96.84 E7.74921
G1 X135.866 Y97.398 E7.77982
G1 X136.547 Y98.018 E7.81045
G1 X137.172 Y98.694 E7.84107
G1 X137.735 Y99.422 E7.87168
G1 X138.233 Y100.197 E7.90232
G1 X138.662 Y101.011 E7.93293
G1 X139.019 Y101.86 E7.96356
G1 X139.365 Y102.983 E8.00264
G1 X139.662 Y104.179 E8.04363
G1 X140.338 Y106.736 E8.1316
G1 X141.05 Y109.152 E8.21537
G1 X141.827 Y111.537 E8.2988
G1 X142.69 Y113.954 E8.38416
G1 X143.601 Y116.295 E8.46771
G1 X144.589 Y118.632 E8.5521
G1 X145.639 Y120.935 E8.63628
G1 X146.854 Y123.421 E8.72831
G1 X147.226 Y124.264 E8.75896
G1 X147.523 Y125.135 E8.78957
G1 X147.744 Y126.029 E8.8202
G1 X147.886 Y126.938 E8.8508
G1 X147.949 Y127.857 E8.88144
G1 X147.95 Y128.328 E8.8971
G1 X147.931 Y129.291 E8.92914
G1 X147.897 Y130.114 E8.95653
G1 X147.816 Y131.032 E8.98719
G1 X147.656 Y131.938 E9.01779
G1 X147.417 Y132.827 E9.0484
G1 X147.103 Y133.693 E9.07904
G1 X146.714 Y134.527 E9.10965
G1 X146.255 Y135.325 E9.14027
G1 X145.728 Y136.08 E9.17089
G1 X145.054 Y136.876 E9.20558
G1 X144.018 Y137.985 E9.25606
G1 X143.361 Y138.63 E9.28668
G1 X142.65 Y139.215 E9.31731
G1 X141.892 Y139.737 E9.34792
G1 X141.09 Y140.191 E9.37857
G1 X139.825 Y140.741 E9.42445
G1 X138.854 Y141.046 E9.4583
G1 X137.955 Y141.245 E9.48892
G1 X137.043 Y141.365 E9.51952
G1 X135.855 Y141.403 E9.55905
G1 X133.23 Y141.338 E9.64639
G1 X130.711 Y141.347 E9.73017
G1 X128.164 Y141.427 E9.81492
G1 X125.649 Y141.577 E9.89872
G1 X123.118 Y141.8 E9.98323
G1 X120.636 Y142.09 E10.06634
G1 X117.423 Y142.566 E10.17437
G1 X116.507 Y142.662 E10.20501
G1 X115.788 Y142.681 E10.22893
G1 X114.942 Y142.675 E10.25707
G1 X112.357 Y142.691 E10.34305
G1 X109.803 Y142.78 E10.42805
G1 X107.302 Y142.938 E10.5114
G1 X104.772 Y143.17 E10.5959
G1 X102.265 Y143.472 E10.67988
G1 X99.753 Y143.846 E10.76435
G1 X98.363 Y144.085 E10.81126
G1 X97.45 Y144.201 E10.84187
G1 X96.53 Y144.238 E10.8725
G1 X95.61 Y144.195 E10.90313
G1 X94.698 Y144.072 E10.93374
G1 X93.863 Y143.887 E10.96218
G1 X93.283 Y143.734 E10.98213
G1 X92.069 Y143.334 E11.02465
G1 X91.697 Y143.186 E11.03796
G1 X90.857 Y142.809 E11.06859
G1 X90.053 Y142.36 E11.09922
G1 X89.12 Y141.714 E11.13696
G1 X88.893 Y141.538 E11.14651
G1 X88.191 Y140.943 E11.17712
G1 X87.368 Y140.092 E11.2165
G1 X87.177 Y139.871 E11.22621
G1 X86.732 Y139.319 E11.24979
G1 X86.417 Y138.901 E11.2672
G1 X85.707 Y137.83 E11.30994
G1 X85.567 Y137.588 E11.31924
G1 X85.141 Y136.772 E11.34986
G1 X84.787 Y135.922 E11.38048
G1 X84.509 Y135.044 E11.41111
G1 X84.308 Y134.146 E11.44172
G1 X84.185 Y133.233 E11.47236
G1 X84.142 Y132.314 E11.50296
G1 X84.179 Y131.394 E11.53358
G1 X84.296 Y130.481 E11.5642
G1 X84.491 Y129.581 E11.59483
G1 X84.764 Y128.702 E11.62544
G1 X85.233 Y127.596 E11.6654
G1 X86.504 Y125.017 E11.76102
G1 X87.554 Y122.719 E11.84506
G1 X88.542 Y120.383 E11.92942
G1 X89.471 Y118.004 E12.01436
G1 X90.306 Y115.673 E12.09671
G1 X91.093 Y113.26 E12.18113
G1 X91.819 Y110.806 E12.26625
G1 X92.457 Y108.397 E12.34914
G1 X93.037 Y105.932 E12.43336
G1 X93.664 Y102.838 E12.53836
G1 X93.886 Y101.945 E12.56896
G1 X94.185 Y101.074 E12.59959
G1 X94.558 Y100.232 E12.63022
G1 X95.003 Y99.426 E12.66085
G1 X95.515 Y98.661 E12.69146
G1 X96.093 Y97.944 E12.72209
G1 X96.73 Y97.28 E12.7527
G0 F6000 X97.094 Y97.486
G1 F1200 X97.781 Y96.9 E12.78273
G1 X98.822 Y96.187 E12.8247
G1 X100.841 Y94.981 E12.90292
G1 X101.636 Y94.553 E12.93295
G1 X102.466 Y94.197 E12.96299
G1 X103.324 Y93.915 E12.99302
G1 X104.449 Y93.668 E13.03133
G1 X105.266 Y93.544 E13.05882
G1 X105.736 Y93.487 E13.07457
G1 X106.636 Y93.418 E13.10459
G1 X107.539 Y93.429 E13.13462
G1 X108.851 Y93.589 E13.17858
G1 X109.935 Y93.793 E13.21527
G1 X112.512 Y94.242 E13.30227
G1 X115.026 Y94.607 E13.38677
G1 X117.538 Y94.899 E13.47088
G1 X120.094 Y95.124 E13.55622
G1 X122.607 Y95.272 E13.63995
G1 X125.147 Y95.351 E13.72447
G1 X127.71 Y95.358 E13.80971
G1 X128.519 Y95.341 E13.83663
G1 X129.078 Y95.339 E13.85522
G1 X129.98 Y95.379 E13.88525
G1 X130.875 Y95.499 E13.91529
G1 X131.756 Y95.697 E13.94532
G1 X132.616 Y95.972 E13.97535
G1 X133.449 Y96.323 E14.00541
G1 X134.247 Y96.746 E14.03545
G1 X135.004 Y97.237 E14.06546
G1 X135.715 Y97.794 E14.0955
G1 X136.375 Y98.412 E14.12558
G1 X136.976 Y99.085 E14.15559
G1 X137.516 Y99.809 E14.18563
G1 X137.99 Y100.578 E14.21567
G1 X138.394 Y101.385 E14.24569
G1 X138.725 Y102.226 E14.27575
G1 X138.977 Y103.079 E14.30533
G1 X139.283 Y104.312 E14.34759
G1 X139.953 Y106.843 E14.43467
G1 X140.662 Y109.251 E14.51816
G1 X141.456 Y111.691 E14.6035
G1 X142.312 Y114.086 E14.68809
G1 X143.219 Y116.417 E14.77129
G1 X144.234 Y118.818 E14.85799
G1 X145.273 Y121.097 E14.94129
G1 X146.496 Y123.599 E15.03392
G1 X146.86 Y124.425 E15.06394
G1 X147.149 Y125.281 E15.09399
G1 X147.362 Y126.158 E15.12401
G1 X147.496 Y127.051 E15.15404
G1 X147.55 Y128.32 E15.19629
G1 X147.523 Y129.539 E15.23684
G1 X147.498 Y130.097 E15.25542
G1 X147.417 Y130.996 E15.28544
G1 X147.258 Y131.885 E15.31548
G1 X147.02 Y132.756 E15.34551
G1 X146.707 Y133.603 E15.37554
G1 X146.319 Y134.419 E15.40559
G1 X145.861 Y135.197 E15.43562
G1 X145.336 Y135.932 E15.46566
G1 X144.762 Y136.603 E15.49503
G1 X143.726 Y137.712 E15.54551
G1 X143.081 Y138.344 E15.57554
G1 X142.382 Y138.916 E15.60558
G1 X141.636 Y139.425 E15.63562
G1 X140.847 Y139.865 E15.66567
G1 X139.687 Y140.366 E15.7077
G1 X138.734 Y140.664 E15.74091
G1 X137.852 Y140.857 E15.77094
G1 X136.956 Y140.971 E15.80098
G1 X135.864 Y141.003 E15.83731
G1 X133.238 Y140.938 E15.92468
G1 X130.697 Y140.947 E16.0092
G1 X128.163 Y141.026 E16.09352
G1 X125.626 Y141.178 E16.17805
G1 X123.073 Y141.403 E16.26329
G1 X120.593 Y141.693 E16.34634
G1 X117.364 Y142.171 E16.45491
G1 X116.466 Y142.264 E16.48493
G1 X115.791 Y142.281 E16.50739
G1 X114.943 Y142.274 E16.5356
G1 X112.34 Y142.291 E16.62217
G1 X109.8 Y142.38 E16.70671
G1 X107.242 Y142.541 E16.79196
G1 X104.755 Y142.769 E16.87502
G1 X102.229 Y143.073 E16.95964
G1 X99.67 Y143.455 E17.0457
G1 X98.295 Y143.691 E17.0921
G1 X97.399 Y143.804 E17.12214
G1 X96.497 Y143.838 E17.15216
G1 X95.595 Y143.792 E17.1822
G1 X94.701 Y143.666 E17.21223
G1 X93.965 Y143.501 E17.23731
G1 X93.385 Y143.348 E17.25726
G1 X92.216 Y142.962 E17.29821
G1 X91.844 Y142.814 E17.31153
G1 X91.021 Y142.444 E17.34154
G1 X90.233 Y142.002 E17.37159
G1 X89.365 Y141.398 E17.40676
G1 X89.138 Y141.222 E17.41631
G1 X88.45 Y140.638 E17.44633
G1 X87.671 Y139.831 E17.48363
G1 X87.48 Y139.61 E17.49335
G1 X87.051 Y139.079 E17.51605
G1 X86.736 Y138.661 E17.53346
G1 X86.053 Y137.63 E17.5746
G1 X85.913 Y137.388 E17.5839
G1 X85.496 Y136.587 E17.61393
G1 X85.151 Y135.752 E17.64398
G1 X84.882 Y134.89 E17.67401
G1 X84.689 Y134.008 E17.70404
G1 X84.576 Y133.112 E17.73408
G1 X84.542 Y132.209 E17.76414
G1 X84.588 Y131.307 E17.79418
G1 X84.714 Y130.413 E17.8242
G1 X84.919 Y129.533 E17.85426
G1 X85.2 Y128.675 E17.88428
G1 X85.592 Y127.772 E17.91703
G1 X86.869 Y125.181 E18.0131
G1 X87.928 Y122.863 E18.09786
G1 X88.907 Y120.548 E18.18146
G1 X89.837 Y118.167 E18.26648
G1 X90.687 Y115.795 E18.35029
G1 X91.481 Y113.359 E18.4355
G1 X92.204 Y110.916 E18.52024
G1 X92.85 Y108.477 E18.60416
G1 X93.424 Y106.038 E18.6875
G1 X94.056 Y102.918 E18.79338
G1 X94.275 Y102.041 E18.82344
G1 X94.57 Y101.188 E18.85346
G1 X94.939 Y100.364 E18.88349
G1 X95.38 Y99.576 E18.91353
G1 X95.889 Y98.829 E18.94359
G1 X96.462 Y98.131 E18.97363
G1 X97.094 Y97.486 E19.00366
G1 F2700 E14.00366
;MESH:Jake.stl(2)
G0 F6000 X106.019 Y103.064
G0 X106.228 Y103.836
;TYPE:WALL-OUTER
G1 F2700 E19.00366
G1 F2243 X106.19 Y103.858 E19.00444
G1 X106.242 Y103.858 E19.00537
G0 F6000 X106.242 Y105.235
G1 F1708.2 X105.968 Y105.218 E19.01178
G0 F6000 X105.513 Y106.102
G1 F1514.2 X105.198 Y105.986 E19.02063
G1 F1315.1 X104.935 Y105.811 E19.03022
G0 F6000 X104.813 Y105.711
G1 F1233.9 X104.935 Y105.811 E19.03532
G1 X104.861 Y105.684 E19.04007
G1 F1221.4 X104.898 Y105.536 E19.04506
G1 F1212.1 X105 Y105.467 E19.04911
G1 X105.33 Y105.407 E19.06016
G1 X105.335 Y105.346 E19.06217
G1 X105.484 Y105.226 E19.06847
G1 X105.198 Y105.197 E19.07794
G1 X104.982 Y105.187 E19.08506
G1 X104.733 Y105.16 E19.09331
G1 X104.391 Y105.136 E19.1046
G1 X104.61 Y105.434 E19.11677
G1 F1221.4 X104.813 Y105.711 E19.12799
G1 F2700 E14.12799
;MESH:Jake.stl(5)
G0 F6000 X104.56 Y106.614
G0 X105.231 Y106.867
G0 X105.75 Y107.024
G0 X125.825 Y107.564
G0 X126.628 Y107.234
;TYPE:WALL-OUTER
G1 F2700 E19.12799
G1 F1212.1 X126.785 Y107.464 E19.13716
G1 F1230.8 X126.879 Y107.555 E19.14141
G1 X126.819 Y107.448 E19.14539
G1 F1212.1 X126.873 Y107.268 E19.15157
G1 F1197 X126.966 Y107.218 E19.15509
G1 X127.213 Y107.179 E19.16343
G1 X127.291 Y107.192 E19.16607
G1 X127.306 Y107.113 E19.16875
G1 X127.463 Y107.008 E19.17505
G1 X127.183 Y106.954 E19.18456
G1 X126.751 Y106.872 E19.19922
G1 X126.687 Y106.872 E19.20135
G1 X126.387 Y106.819 E19.21151
G1 X126.586 Y107.149 E19.22436
G1 X126.628 Y107.234 E19.22752
G0 F6000 X126.879 Y107.555
G1 F1315.1 X127.11 Y107.738 E19.23646
G1 F1514.2 X127.416 Y107.884 E19.2454
G0 F6000 X127.882 Y107.041
G1 F1708.2 X127.947 Y107.044 E19.24692
G1 F1696.1 X128.222 Y107.087 E19.25347
G0 F6000 X127.882 Y107.041
G1 F1573.8 X127.743 Y107.024 E19.25702
G1 X127.882 Y107.041 E19.26057
G0 F6000 X128.347 Y105.713
G1 F2264.2 X128.295 Y105.713 E19.26149
G1 X128.333 Y105.691 E19.26226
G1 F2700 E14.26226
;MESH:Jake.stl(1)
G0 F6000 X129.027 Y106.258
G0 X129.893 Y106.551
G0 X136.449 Y127.533
G0 X136.618 Y128.314
;TYPE:WALL-OUTER
G1 F2700 E19.26226
G1 F2264.2 X136.58 Y128.336 E19.26304
G1 X136.632 Y128.336 E19.26395
G0 F6000 X136.569 Y129.712
G1 F1708.2 X136.323 Y129.684 E19.26974
G1 F1459 X135.817 Y129.661 E19.2836
G1 F950.5 X135.54 Y129.741 E19.2957
G1 F725.1 X135.28 Y129.754 E19.31003
G1 F638.3 X135.126 Y129.775 E19.31975
G0 F6000 X135.249 Y130.24
G1 F1318.7 X135.491 Y130.413 E19.32875
G1 F1514.2 X135.8 Y130.544 E19.3376
G1 F2700 E14.3376
;MESH:Jake.stl(3)
G0 F6000 X135.409 Y131.252
G0 X117.14 Y130.153
G0 X116.448 Y129.623
;TYPE:WALL-OUTER
G1 F2700 E19.3376
G1 F2264.2 X116.396 Y129.623 E19.33852
G1 X116.434 Y129.601 E19.33929
G0 F6000 X116.354 Y130.998
G1 F1702.1 X116.078 Y130.962 E19.34582
G1 F1454.5 X115.603 Y130.93 E19.35888
