; generated by PrusaSlicer 2.5.2+win64 on 2023-04-27 at 22:15:38 UTC

; 

; external perimeters extrusion width = 0.42mm
; perimeters extrusion width = 0.44mm
; infill extrusion width = 0.44mm
; solid infill extrusion width = 0.44mm
; top infill extrusion width = 0.40mm
; first layer extrusion width = 0.42mm

M201 X500 Y500 Z100 E5000 ; sets maximum accelerations, mm/sec^2
M203 X500 Y500 Z10 E60 ; sets maximum feedrates, mm / sec
M204 P500 R1000 T500 ; sets acceleration (P, T) and retract acceleration (R), mm/sec^2
M205 X8.00 Y8.00 Z0.40 E5.00 ; sets the jerk limits, mm/sec
M205 S0 T0 ; sets the minimum extruding and travel feed rate, mm/sec
M107
;TYPE:Custom
G90 ; use absolute coordinates
M83 ; extruder relative mode
M104 S150 ; set temporary nozzle temp to prevent oozing during homing
M140 S70 ; set final bed temp
G4 S30 ; allow partial nozzle warmup
G28 ; home all axis
G1 Z50 F240
G1 X2.0 Y10 F3000
M104 S210 ; set final nozzle temp
M190 S70 ; wait for bed temp to stabilize
M109 S210 ; wait for nozzle temp to stabilize
G1 Z0.28 F240
G92 E0
G1 X2.0 Y140 E10 F1500 ; prime the nozzle
G1 X2.3 Y140 F5000
G92 E0
G1 X2.3 Y10 E10 F1200 ; prime the nozzle
G92 E0
G21 ; set units to millimeters
G90 ; use absolute coordinates
M83 ; use relative distances for extrusion
; Filament gcode
M107
;LAYER_CHANGE
;Z:0.2
;HEIGHT:0.2
;BEFORE_LAYER_CHANGE
G92 E0
;0.2


G1 E-10 F3600
G1 Z.2 F9000
;AFTER_LAYER_CHANGE
;0.2
G1 X75.898 Y88.865
G1 E10 F2400
M204 S500
;TYPE:Skirt/Brim
;WIDTH:0.42
G1 F1200
G1 X76.737 Y88.29 E.0319
G1 X77.918 Y87.712 E.04121
G1 X78.916 Y87.388 E.03291
G1 X79.821 Y87.208 E.02893
G1 X81 Y87.123 E.03707
G1 X144 Y87.123 E1.97532
G1 X145.583 Y87.517 E.05115
G1 X146.797 Y88.607 E.05115
G1 X147.377 Y90.5 E.06207
G1 X147.359 Y125.025 E1.0825
G1 X147.251 Y125.941 E.02893
G1 X147.006 Y126.962 E.03291
G1 X146.686 Y127.827 E.02893
G1 X146.071 Y128.989 E.04121
G1 X145.454 Y129.838 E.03291
G1 X144.828 Y130.515 E.02892
G1 X144.03 Y131.197 E.03292
G1 X143.263 Y131.71 E.02892
G1 X142.082 Y132.288 E.04121
G1 X141.084 Y132.612 E.03291
G1 X140.179 Y132.792 E.02893
G1 X139 Y132.877 E.03707
G1 X76 Y132.877 E1.97532
G1 X74.417 Y132.483 E.05115
G1 X73.203 Y131.393 E.05115
G1 X72.623 Y129.5 E.06207
G1 X72.662 Y94.711 E1.09079
G1 X72.826 Y93.674 E.03291
G1 X73.076 Y92.786 E.02892
G1 X73.478 Y91.816 E.03292
G1 X73.929 Y91.011 E.02893
G1 X74.546 Y90.162 E.03291
G1 X75.172 Y89.485 E.02892
G1 X75.852 Y88.904 E.02804
; printing object 3d-printer-mini-test-by-humebeam-1.0.stl id:0 copy 0
G1 E-7 F3600
;WIPE_START
G1 F7200
G1 X76.737 Y88.29 E-.51156
G1 X77.918 Y87.712 E-.62428
G1 X78.916 Y87.388 E-.49864
G1 X79.821 Y87.208 E-.4382
G1 X81 Y87.123 E-.56152
G1 X81.454 Y87.123 E-.21581
;WIPE_END
G1 E-.15 F3600
G1 X78.688 Y92.318 F9000
G1 E10 F2400
;TYPE:Perimeter
;WIDTH:0.419999
G1 F1200
G1 X79.215 Y91.996 E.01935
G1 X79.785 Y91.76 E.01935
G1 X80.385 Y91.616 E.01935
G1 X81.039 Y91.564 E.02059
G1 X142.936 Y91.564 E1.94072
G1 X142.936 Y124.461 E1.03145
G1 X142.884 Y125.115 E.02059
G1 X142.74 Y125.715 E.01935
G1 X142.504 Y126.285 E.01935
G1 X142.182 Y126.812 E.01935
G1 X141.781 Y127.281 E.01935
G1 X141.312 Y127.682 E.01935
G1 X140.785 Y128.004 E.01935
G1 X140.215 Y128.24 E.01935
G1 X139.615 Y128.384 E.01935
G1 X138.961 Y128.436 E.02059
G1 X77.064 Y128.436 E1.94072
G1 X77.064 Y95.539 E1.03145
G1 X77.116 Y94.885 E.02059
G1 X77.26 Y94.285 E.01935
G1 X77.496 Y93.715 E.01935
G1 X77.818 Y93.188 E.01935
G1 X78.219 Y92.719 E.01935
G1 X78.643 Y92.357 E.01747
G1 X78.466 Y92.012 F9000
G1 F1200
G1 X79.043 Y91.659 E.02121
G1 X79.668 Y91.4 E.02121
G1 X80.326 Y91.242 E.02121
G1 X81.025 Y91.187 E.02198
G1 X143.313 Y91.187 E1.95301
G1 X143.313 Y124.475 E1.04373
G1 X143.258 Y125.174 E.02198
G1 X143.1 Y125.832 E.02121
G1 X142.841 Y126.457 E.02121
G1 X142.488 Y127.034 E.02121
G1 X142.048 Y127.548 E.02121
G1 X141.534 Y127.988 E.02121
G1 X140.957 Y128.341 E.02121
G1 X140.332 Y128.6 E.02121
G1 X139.674 Y128.758 E.02121
G1 X138.975 Y128.813 E.02198
G1 X76.687 Y128.813 E1.95301
G1 X76.687 Y95.525 E1.04373
G1 X76.742 Y94.826 E.02198
G1 X76.9 Y94.168 E.02121
G1 X77.159 Y93.543 E.02121
G1 X77.512 Y92.966 E.02121
G1 X77.952 Y92.452 E.02121
G1 X78.42 Y92.051 E.01933
G1 X78.244 Y91.706 F9000
;TYPE:External perimeter
G1 F1200
G1 X78.871 Y91.322 E.02307
G1 X79.551 Y91.04 E.02307
G1 X80.266 Y90.868 E.02307
G1 X81.01 Y90.81 E.02338
G1 X143.69 Y90.81 E1.96529
G1 X143.69 Y124.49 E1.05602
G1 X143.632 Y125.234 E.02338
G1 X143.46 Y125.949 E.02307
G1 X143.178 Y126.629 E.02307
G1 X142.794 Y127.256 E.02307
G1 X142.316 Y127.816 E.02307
G1 X141.756 Y128.294 E.02307
G1 X141.129 Y128.678 E.02307
G1 X140.449 Y128.96 E.02307
G1 X139.734 Y129.132 E.02307
G1 X138.99 Y129.19 E.02338
G1 X76.31 Y129.19 E1.96529
G1 X76.31 Y95.51 E1.05602
G1 X76.368 Y94.766 E.02338
G1 X76.54 Y94.051 E.02307
G1 X76.822 Y93.371 E.02307
G1 X77.206 Y92.744 E.02307
G1 X77.684 Y92.184 E.02307
G1 X78.198 Y91.745 E.02119
G1 X78.609 Y91.869 F9000
G1 E-7 F3600
;WIPE_START
G1 F7200
G1 X78.871 Y91.322 E-.37769
G1 X79.551 Y91.04 E-.34952
G1 X80.266 Y90.868 E-.34954
G1 X81.01 Y90.81 E-.35416
G1 X83.997 Y90.81 E-1.41909
;WIPE_END
G1 E-.15 F3600
G1 X142.049 Y91.685 F9000
G1 E10 F2400
;TYPE:Solid infill
;WIDTH:0.421781
G1 F1200
G1 X142.646 Y92.281 E.02657
G1 X142.646 Y92.817 E.01688
G1 X141.683 Y91.854 E.04288
G1 X141.147 Y91.854 E.01688
G1 X142.646 Y93.353 E.06675
G1 X142.646 Y93.889 E.01688
G1 X140.611 Y91.854 E.09062
G1 X140.076 Y91.854 E.01688
G1 X142.646 Y94.424 E.11449
G1 X142.646 Y94.96 E.01688
G1 X139.54 Y91.854 E.13836
G1 X139.004 Y91.854 E.01688
G1 X142.646 Y95.496 E.16223
G1 X142.646 Y96.032 E.01688
G1 X138.468 Y91.854 E.1861
G1 X137.933 Y91.854 E.01688
G1 X142.646 Y96.567 E.20997
G1 X142.646 Y97.103 E.01688
G1 X137.397 Y91.854 E.23384
G1 X136.861 Y91.854 E.01688
G1 X142.646 Y97.639 E.25771
G1 X142.646 Y98.175 E.01688
G1 X136.325 Y91.854 E.28158
G1 X135.789 Y91.854 E.01688
G1 X142.646 Y98.711 E.30545
G1 X142.646 Y99.246 E.01688
G1 X135.254 Y91.854 E.32932
G1 X134.718 Y91.854 E.01688
G1 X142.646 Y99.782 E.35319
G1 X142.646 Y100.318 E.01688
G1 X134.182 Y91.854 E.37706
G1 X133.646 Y91.854 E.01688
G1 X142.646 Y100.854 E.40093
G1 X142.646 Y101.39 E.01688
G1 X133.11 Y91.854 E.4248
G1 X132.575 Y91.854 E.01688
G1 X142.646 Y101.925 E.44867
G1 X142.646 Y102.461 E.01688
G1 X132.039 Y91.854 E.47254
G1 X131.503 Y91.854 E.01688
G1 X142.646 Y102.997 E.49641
G1 X142.646 Y103.533 E.01688
G1 X130.967 Y91.854 E.52028
G1 X130.431 Y91.854 E.01688
G1 X142.646 Y104.069 E.54415
G1 X142.646 Y104.604 E.01688
G1 X129.896 Y91.854 E.56802
G1 X129.36 Y91.854 E.01688
G1 X142.646 Y105.14 E.59189
G1 X142.646 Y105.676 E.01688
G1 X128.824 Y91.854 E.61576
G1 X128.288 Y91.854 E.01688
G1 X142.646 Y106.212 E.63963
G1 X142.646 Y106.748 E.01688
G1 X127.752 Y91.854 E.6635
G1 X127.217 Y91.854 E.01688
G1 X142.646 Y107.283 E.68737
G1 X142.646 Y107.819 E.01688
G1 X126.681 Y91.854 E.71124
G1 X126.145 Y91.854 E.01688
G1 X142.646 Y108.355 E.73511
G1 X142.646 Y108.891 E.01688
G1 X125.609 Y91.854 E.75898
G1 X125.074 Y91.854 E.01688
G1 X142.646 Y109.426 E.78285
G1 X142.646 Y109.962 E.01688
G1 X124.538 Y91.854 E.80672
G1 X124.002 Y91.854 E.01688
G1 X142.646 Y110.498 E.83059
G1 X142.646 Y111.034 E.01688
G1 X123.466 Y91.854 E.85446
G1 X122.93 Y91.854 E.01688
G1 X142.646 Y111.57 E.87833
G1 X142.646 Y112.105 E.01688
G1 X122.395 Y91.854 E.9022
G1 X121.859 Y91.854 E.01688
G1 X142.646 Y112.641 E.92607
G1 X142.646 Y113.177 E.01688
G1 X121.323 Y91.854 E.94994
G1 X120.787 Y91.854 E.01688
G1 X142.646 Y113.713 E.97381
G1 X142.646 Y114.249 E.01688
G1 X120.251 Y91.854 E.99768
G1 X119.716 Y91.854 E.01688
G1 X142.646 Y114.784 E1.02155
G1 X142.646 Y115.32 E.01688
G1 X119.18 Y91.854 E1.04542
G1 X118.644 Y91.854 E.01688
G1 X142.646 Y115.856 E1.06929
G1 X142.646 Y116.392 E.01688
G1 X118.108 Y91.854 E1.09316
G1 X117.572 Y91.854 E.01688
G1 X142.646 Y116.928 E1.11703
G1 X142.646 Y117.463 E.01688
G1 X117.037 Y91.854 E1.1409
G1 X116.501 Y91.854 E.01688
G1 X142.646 Y117.999 E1.16477
G1 X142.646 Y118.535 E.01688
G1 X115.965 Y91.854 E1.18864
G1 X115.429 Y91.854 E.01688
G1 X142.646 Y119.071 E1.21251
G1 X142.646 Y119.606 E.01688
G1 X114.894 Y91.854 E1.23638
G1 X114.358 Y91.854 E.01688
G1 X142.646 Y120.142 E1.26025
G1 X142.646 Y120.678 E.01688
G1 X113.822 Y91.854 E1.28412
G1 X113.286 Y91.854 E.01688
G1 X142.646 Y121.214 E1.30799
G1 X142.646 Y121.75 E.01688
G1 X112.75 Y91.854 E1.33186
G1 X112.215 Y91.854 E.01688
G1 X142.646 Y122.285 E1.35573
G1 X142.646 Y122.821 E.01688
G1 X111.679 Y91.854 E1.3796
G1 X111.143 Y91.854 E.01688
G1 X142.646 Y123.357 E1.40347
G1 X142.646 Y123.893 E.01688
G1 X110.607 Y91.854 E1.42734
G1 X110.071 Y91.854 E.01688
G1 X142.646 Y124.429 E1.45121
G1 X142.608 Y124.927 E.01574
G1 X109.536 Y91.854 E1.47341
G1 X109 Y91.854 E.01688
G1 X142.523 Y125.378 E1.49349
G1 X142.463 Y125.625 E.00803
G1 X142.396 Y125.787 E.00551
G1 X108.464 Y91.854 E1.51173
G1 X107.928 Y91.854 E.01688
G1 X142.238 Y126.164 E1.52854
G1 X142.034 Y126.496 E.01227
G1 X107.392 Y91.854 E1.54334
G1 X106.857 Y91.854 E.01688
G1 X141.806 Y126.804 E1.55705
G1 X141.557 Y127.09 E.01196
G1 X106.321 Y91.854 E1.5698
G1 X105.785 Y91.854 E.01688
G1 X141.268 Y127.337 E1.5808
G1 X141.14 Y127.446 E.00528
G1 X140.955 Y127.56 E.00686
G1 X105.249 Y91.854 E1.59072
G1 X104.714 Y91.854 E.01688
G1 X140.618 Y127.759 E1.5996
G1 X140.239 Y127.916 E.01292
G1 X104.178 Y91.854 E1.60659
G1 X103.642 Y91.854 E.01688
G1 X139.823 Y128.036 E1.61192
G1 X139.57 Y128.097 E.00822
G1 X139.365 Y128.113 E.00648
G1 X103.106 Y91.854 E1.61535
G1 X102.57 Y91.854 E.01688
G1 X138.861 Y128.146 E1.61681
G1 X138.326 Y128.146 E.01688
G1 X102.035 Y91.854 E1.61681
G1 X101.499 Y91.854 E.01688
G1 X137.79 Y128.146 E1.61681
G1 X137.254 Y128.146 E.01688
G1 X100.963 Y91.854 E1.61681
G1 X100.427 Y91.854 E.01688
G1 X136.718 Y128.146 E1.61681
G1 X136.182 Y128.146 E.01688
G1 X99.891 Y91.854 E1.61681
G1 X99.356 Y91.854 E.01688
G1 X135.647 Y128.146 E1.61681
G1 X135.111 Y128.146 E.01688
G1 X98.82 Y91.854 E1.61681
G1 X98.284 Y91.854 E.01688
G1 X134.575 Y128.146 E1.61681
G1 X134.039 Y128.146 E.01688
G1 X97.748 Y91.854 E1.61681
G1 X97.212 Y91.854 E.01688
G1 X133.503 Y128.146 E1.61681
G1 X132.968 Y128.146 E.01688
G1 X96.677 Y91.854 E1.61681
G1 X96.141 Y91.854 E.01688
G1 X132.432 Y128.146 E1.61681
G1 X131.896 Y128.146 E.01688
G1 X95.605 Y91.854 E1.61681
G1 X95.069 Y91.854 E.01688
G1 X131.36 Y128.146 E1.61681
G1 X130.824 Y128.146 E.01688
G1 X94.533 Y91.854 E1.61681
G1 X93.998 Y91.854 E.01688
G1 X130.289 Y128.146 E1.61681
G1 X129.753 Y128.146 E.01688
G1 X93.462 Y91.854 E1.61681
G1 X92.926 Y91.854 E.01688
G1 X129.217 Y128.146 E1.61681
G1 X128.681 Y128.146 E.01688
G1 X92.39 Y91.854 E1.61681
G1 X91.855 Y91.854 E.01688
G1 X128.146 Y128.146 E1.61681
G1 X127.61 Y128.146 E.01688
G1 X91.319 Y91.854 E1.61681
G1 X90.783 Y91.854 E.01688
G1 X127.074 Y128.146 E1.61681
G1 X126.538 Y128.146 E.01688
G1 X90.247 Y91.854 E1.61681
G1 X89.711 Y91.854 E.01688
G1 X126.002 Y128.146 E1.61681
G1 X125.467 Y128.146 E.01688
G1 X89.176 Y91.854 E1.61681
G1 X88.64 Y91.854 E.01688
G1 X124.931 Y128.146 E1.61681
G1 X124.395 Y128.146 E.01688
G1 X88.104 Y91.854 E1.61681
G1 X87.568 Y91.854 E.01688
G1 X123.859 Y128.146 E1.61681
G1 X123.323 Y128.146 E.01688
G1 X87.032 Y91.854 E1.61681
G1 X86.497 Y91.854 E.01688
G1 X122.788 Y128.146 E1.61681
G1 X122.252 Y128.146 E.01688
G1 X85.961 Y91.854 E1.61681
G1 X85.425 Y91.854 E.01688
G1 X121.716 Y128.146 E1.61681
G1 X121.18 Y128.146 E.01688
G1 X84.889 Y91.854 E1.61681
G1 X84.353 Y91.854 E.01688
G1 X120.644 Y128.146 E1.61681
G1 X120.109 Y128.146 E.01688
G1 X83.818 Y91.854 E1.61681
G1 X83.282 Y91.854 E.01688
G1 X119.573 Y128.146 E1.61681
G1 X119.037 Y128.146 E.01688
G1 X82.746 Y91.854 E1.61681
G1 X82.21 Y91.854 E.01688
G1 X118.501 Y128.146 E1.61681
G1 X117.966 Y128.146 E.01688
G1 X81.675 Y91.854 E1.61681
G1 X81.139 Y91.854 E.01688
G1 X117.43 Y128.146 E1.61681
G1 X116.894 Y128.146 E.01688
G1 X80.636 Y91.887 E1.61535
G1 X80.43 Y91.903 E.00649
G1 X80.177 Y91.964 E.00821
G1 X116.358 Y128.146 E1.61192
G1 X115.822 Y128.146 E.01688
G1 X79.761 Y92.084 E1.60659
G1 X79.382 Y92.241 E.01292
G1 X115.287 Y128.146 E1.5996
G1 X114.751 Y128.146 E.01688
G1 X79.045 Y92.44 E1.59072
G1 X78.86 Y92.554 E.00686
G1 X78.732 Y92.663 E.00528
G1 X114.215 Y128.146 E1.5808
G1 X113.679 Y128.146 E.01688
G1 X78.443 Y92.909 E1.56981
G1 X78.194 Y93.196 E.01196
G1 X113.143 Y128.146 E1.55705
G1 X112.608 Y128.146 E.01688
G1 X77.966 Y93.504 E1.54334
G1 X77.762 Y93.836 E.01227
G1 X112.072 Y128.146 E1.52854
G1 X111.536 Y128.146 E.01688
G1 X77.604 Y94.213 E1.51173
G1 X77.537 Y94.375 E.00551
G1 X77.477 Y94.622 E.00803
G1 X111 Y128.146 E1.49349
G1 X110.464 Y128.146 E.01688
G1 X77.392 Y95.073 E1.47341
G1 X77.355 Y95.571 E.01574
G1 X109.929 Y128.146 E1.45122
G1 X109.393 Y128.146 E.01688
G1 X77.355 Y96.107 E1.42735
G1 X77.355 Y96.643 E.01688
G1 X108.857 Y128.146 E1.40348
G1 X108.321 Y128.146 E.01688
G1 X77.355 Y97.179 E1.37961
G1 X77.355 Y97.714 E.01688
G1 X107.786 Y128.146 E1.35574
G1 X107.25 Y128.146 E.01688
G1 X77.355 Y98.25 E1.33187
G1 X77.355 Y98.786 E.01688
G1 X106.714 Y128.146 E1.308
G1 X106.178 Y128.146 E.01688
G1 X77.355 Y99.322 E1.28413
G1 X77.355 Y99.858 E.01688
G1 X105.642 Y128.146 E1.26026
G1 X105.107 Y128.146 E.01688
G1 X77.355 Y100.393 E1.23639
G1 X77.355 Y100.929 E.01688
G1 X104.571 Y128.146 E1.21252
G1 X104.035 Y128.146 E.01688
G1 X77.355 Y101.465 E1.18865
G1 X77.355 Y102.001 E.01688
G1 X103.499 Y128.146 E1.16478
G1 X102.963 Y128.146 E.01688
G1 X77.355 Y102.537 E1.14091
G1 X77.355 Y103.072 E.01688
G1 X102.428 Y128.146 E1.11704
G1 X101.892 Y128.146 E.01688
G1 X77.355 Y103.608 E1.09317
G1 X77.355 Y104.144 E.01688
G1 X101.356 Y128.146 E1.0693
G1 X100.82 Y128.146 E.01688
G1 X77.355 Y104.68 E1.04543
G1 X77.355 Y105.216 E.01688
G1 X100.284 Y128.146 E1.02156
G1 X99.749 Y128.146 E.01688
G1 X77.355 Y105.751 E.99769
G1 X77.355 Y106.287 E.01688
G1 X99.213 Y128.146 E.97382
G1 X98.677 Y128.146 E.01688
G1 X77.355 Y106.823 E.94995
G1 X77.355 Y107.359 E.01688
G1 X98.141 Y128.146 E.92607
G1 X97.605 Y128.146 E.01688
G1 X77.355 Y107.895 E.9022
G1 X77.355 Y108.43 E.01688
G1 X97.07 Y128.146 E.87833
G1 X96.534 Y128.146 E.01688
G1 X77.355 Y108.966 E.85446
G1 X77.355 Y109.502 E.01688
G1 X95.998 Y128.146 E.83059
G1 X95.462 Y128.146 E.01688
G1 X77.355 Y110.038 E.80672
G1 X77.355 Y110.573 E.01688
G1 X94.927 Y128.146 E.78285
G1 X94.391 Y128.146 E.01688
G1 X77.355 Y111.109 E.75898
G1 X77.355 Y111.645 E.01688
G1 X93.855 Y128.146 E.73511
G1 X93.319 Y128.146 E.01688
G1 X77.355 Y112.181 E.71124
G1 X77.355 Y112.717 E.01688
G1 X92.783 Y128.146 E.68737
G1 X92.248 Y128.146 E.01688
G1 X77.355 Y113.252 E.6635
G1 X77.355 Y113.788 E.01688
G1 X91.712 Y128.146 E.63963
G1 X91.176 Y128.146 E.01688
G1 X77.355 Y114.324 E.61576
G1 X77.355 Y114.86 E.01688
G1 X90.64 Y128.146 E.59189
G1 X90.104 Y128.146 E.01688
G1 X77.355 Y115.396 E.56802
G1 X77.355 Y115.931 E.01688
G1 X89.569 Y128.146 E.54415
G1 X89.033 Y128.146 E.01688
G1 X77.355 Y116.467 E.52028
G1 X77.355 Y117.003 E.01688
G1 X88.497 Y128.146 E.49641
G1 X87.961 Y128.146 E.01688
G1 X77.355 Y117.539 E.47254
G1 X77.355 Y118.075 E.01688
G1 X87.425 Y128.146 E.44867
G1 X86.89 Y128.146 E.01688
G1 X77.355 Y118.61 E.4248
G1 X77.355 Y119.146 E.01688
G1 X86.354 Y128.146 E.40093
G1 X85.818 Y128.146 E.01688
G1 X77.355 Y119.682 E.37706
G1 X77.355 Y120.218 E.01688
G1 X85.282 Y128.146 E.35319
G1 X84.747 Y128.146 E.01688
G1 X77.355 Y120.753 E.32932
G1 X77.355 Y121.289 E.01688
G1 X84.211 Y128.146 E.30545
G1 X83.675 Y128.146 E.01688
G1 X77.355 Y121.825 E.28158
G1 X77.355 Y122.361 E.01688
G1 X83.139 Y128.146 E.25771
G1 X82.603 Y128.146 E.01688
G1 X77.355 Y122.897 E.23384
G1 X77.355 Y123.432 E.01688
G1 X82.068 Y128.146 E.20997
G1 X81.532 Y128.146 E.01688
G1 X77.355 Y123.968 E.1861
G1 X77.354 Y124.504 E.01688
G1 X80.996 Y128.146 E.16223
G1 X80.46 Y128.146 E.01688
G1 X77.354 Y125.04 E.13836
G1 X77.354 Y125.576 E.01688
G1 X79.924 Y128.146 E.11449
G1 X79.389 Y128.146 E.01688
G1 X77.354 Y126.111 E.09062
G1 X77.354 Y126.647 E.01688
G1 X78.853 Y128.146 E.06675
G1 X78.317 Y128.146 E.01688
G1 X77.354 Y127.183 E.04288
