; generated by PrusaSlicer 2.5.0+win64 on 2023-04-22 at 19:15:32 UTC

; 

; external perimeters extrusion width = 0.42mm
; perimeters extrusion width = 0.44mm
; infill extrusion width = 0.44mm
; solid infill extrusion width = 0.44mm
; top infill extrusion width = 0.40mm
; first layer extrusion width = 0.42mm

M201 X500 Y500 Z100 E5000 ; sets maximum accelerations, mm/sec^2
M203 X500 Y500 Z10 E60 ; sets maximum feedrates, mm / sec
M204 P500 R1000 T500 ; sets acceleration (P, T) and retract acceleration (R), mm/sec^2
M205 X8.00 Y8.00 Z0.40 E5.00 ; sets the jerk limits, mm/sec
M205 S0 T0 ; sets the minimum extruding and travel feed rate, mm/sec
M107
;TYPE:Custom
G90 ; use absolute coordinates
M83 ; extruder relative mode
M104 S150 ; set temporary nozzle temp to prevent oozing during homing
M140 S70 ; set final bed temp
G4 S30 ; allow partial nozzle warmup
G28 ; home all axis
G1 Z50 F240
G1 X2.0 Y10 F3000
M104 S210 ; set final nozzle temp
M190 S70 ; wait for bed temp to stabilize
M109 S210 ; wait for nozzle temp to stabilize
G1 Z0.28 F240
G92 E0
G1 X2.0 Y140 E10 F1500 ; prime the nozzle
G1 X2.3 Y140 F5000
G92 E0
G1 X2.3 Y10 E10 F1200 ; prime the nozzle
G92 E0
G21 ; set units to millimeters
G90 ; use absolute coordinates
M83 ; use relative distances for extrusion
; Filament gcode
M107
;LAYER_CHANGE
;Z:0.2
;HEIGHT:0.2
;BEFORE_LAYER_CHANGE
G92 E0
;0.2


G1 E-10 F3600
G1 Z.2 F9000
;AFTER_LAYER_CHANGE
;0.2
G1 Z2.2
G1 X96.118 Y97.194
G1 Z.2
G1 E10 F2400
M204 S500
;TYPE:Skirt/Brim
;WIDTH:0.42
G1 F1200
G1 X96.706 Y96.654 E.02505
G1 X97.283 Y96.279 E.02158
G1 X97.91 Y95.997 E.02155
G1 X110.586 Y91.513 E.42156
G1 X111.504 Y91.308 E.02949
G1 X112.176 Y91.297 E.02109
G1 X114.204 Y91.602 E.06429
G1 X114.865 Y91.817 E.02179
G1 X115.484 Y92.131 E.02179
G1 X116.076 Y92.562 E.02294
G1 X126.509 Y101.395 E.42864
G1 X126.935 Y101.888 E.0204
G1 X127.275 Y102.442 E.0204
G1 X128.005 Y104.235 E.06067
G1 X128.238 Y105.418 E.03782
G1 X128.19 Y106.392 E.03056
G1 X125.761 Y119.987 E.43301
G1 X125.543 Y120.619 E.02097
G1 X125.216 Y121.221 E.0215
G1 X123.913 Y122.874 E.06597
G1 X123.106 Y123.554 E.03309
G1 X122.111 Y124.05 E.03485
G1 X109.486 Y128.57 E.42046
G1 X108.621 Y128.776 E.02787
G1 X107.489 Y128.767 E.0355
G1 X105.917 Y128.525 E.04988
G1 X105.323 Y128.363 E.0193
G1 X104.165 Y127.767 E.04084
G1 X93.424 Y118.56 E.44356
G1 X92.993 Y118.053 E.02088
G1 X92.649 Y117.483 E.02087
G1 X92.015 Y115.902 E.05339
G1 X91.75 Y114.886 E.03294
G1 X91.724 Y113.818 E.03347
G1 X94.354 Y99.915 E.44365
G1 X94.573 Y99.306 E.02031
G1 X94.887 Y98.74 E.0203
G1 X96.08 Y97.241 E.06006
G1 X96.374 Y97.475 F9000
G1 F1200
G1 X96.939 Y96.95 E.02417
G1 X98.043 Y96.35 E.03939
G1 X110.712 Y91.869 E.42134
G1 X111.54 Y91.683 E.02663
G1 X112.152 Y91.673 E.01918
G1 X114.12 Y91.97 E.06241
G1 X114.725 Y92.167 E.01995
G1 X115.722 Y92.759 E.03636
G1 X126.244 Y101.663 E.43217
G1 X126.938 Y102.611 E.03684
G1 X127.646 Y104.352 E.05894
G1 X127.862 Y105.439 E.03474
G1 X127.819 Y106.329 E.02794
G1 X125.396 Y119.891 E.43195
G1 X124.911 Y120.999 E.03792
G1 X123.674 Y122.577 E.06287
G1 X122.9 Y123.238 E.03189
G1 X121.984 Y123.695 E.03211
G1 X109.359 Y128.215 E.42046
G1 X108.571 Y128.402 E.02541
G1 X107.545 Y128.394 E.03217
G1 X105.45 Y128.008 E.06677
G1 X104.38 Y127.457 E.03774
G1 X93.692 Y118.295 E.44141
G1 X92.988 Y117.317 E.03776
G1 X92.367 Y115.765 E.05243
G1 X92.124 Y114.835 E.03015
G1 X92.1 Y113.851 E.03085
G1 X94.717 Y100.015 E.44151
G1 X95.2 Y98.951 E.03665
G1 X96.337 Y97.522 E.05725
; printing object Magazinrad2_V1.stl id:0 copy 0
G1 E-7 F3600
;WIPE_START
G1 F7200
G1 X96.939 Y96.95 E-.39439
G1 X98.043 Y96.35 E-.59672
G1 X101.732 Y95.045 E-1.85889
;WIPE_END
G1 E-.15 F3600
G1 Z2.2 F9000
G1 X105.041 Y115.983
G1 Z.2
G1 E10 F2400
;TYPE:Perimeter
;WIDTH:0.419999
G1 F1200
G1 X115.146 Y115.983 E.31684
;WIDTH:0.462166
G1 X115.304 Y116.004 E.00557
;WIDTH:0.504332
G1 X115.463 Y116.025 E.00613
;WIDTH:0.546498
G1 X115.621 Y116.047 E.00669
G1 X115.48 Y116.108 E.00647
;WIDTH:0.504332
G1 X115.338 Y116.17 E.00592
;WIDTH:0.462166
G1 X115.197 Y116.232 E.00538
;WIDTH:0.419999
G1 X111.82 Y117.669 E.11507
G1 X111.347 Y118.003 E.01814
G1 X110.473 Y118.872 E.03864
G1 X110.31 Y119.058 E.00775
G1 X110.039 Y119.487 E.01592
G1 X108.229 Y123.678 E.14314
G1 X107.941 Y123.837 E.01032
G1 X107.201 Y123.732 E.02342
G1 X107.868 Y119.339 E.1393
G1 X107.871 Y118.819 E.01632
G1 X107.718 Y118.317 E.01644
G1 X107.573 Y118.044 E.00969
G1 X107.258 Y117.685 E.01497
G1 X105.088 Y116.02 E.08576
G1 E-7 F3600
;WIPE_START
G1 F7200
G1 X111.088 Y115.998 E-2.85
;WIPE_END
G1 E-.15 F3600
G1 Z2.2 F9000
G1 X116.377 Y116.068
G1 Z.2
G1 E10 F2400
;WIDTH:0.589958
G1 F1200
G1 X116.467 Y116.049 E.00422
;WIDTH:0.550905
G1 X116.558 Y116.029 E.00391
;WIDTH:0.511852
G1 X116.648 Y116.01 E.00361
;WIDTH:0.472799
G1 X116.739 Y115.99 E.00331
;WIDTH:0.433746
G1 X117.118 Y115.983 E.01231
;WIDTH:0.419999
G1 X119.188 Y115.983 E.0649
G1 X120.953 Y118.363 E.0929
G1 X120.953 Y118.518 E.00486
G1 X120.953 Y118.681 E.00512
G1 X120.509 Y119.24 E.02239
G1 X116.965 Y116.42 E.14198
;WIDTH:0.462489
G1 X116.818 Y116.332 E.00598
;WIDTH:0.504979
G1 X116.671 Y116.244 E.00659
;WIDTH:0.547469
G1 X116.524 Y116.156 E.00719
;WIDTH:0.589958
G1 X116.428 Y116.099 E.00507
G1 X115.72 Y116.49 F9000
;WIDTH:0.419999
G1 F1200
G1 X115.344 Y116.579 E.01212
G1 X111.967 Y118.016 E.11507
G1 X111.613 Y118.271 E.01368
G1 X110.684 Y119.194 E.04108
G1 X110.385 Y119.636 E.01673
G1 X108.524 Y123.947 E.1472
G1 X108.012 Y124.228 E.01832
G1 X106.883 Y124.067 E.03575
G1 X106.78 Y123.991 E.00401
G1 X107.495 Y119.283 E.14932
G1 X107.476 Y118.781 E.01573
G1 X107.274 Y118.273 E.01715
G1 X107.028 Y117.984 E.01187
G1 X104.112 Y115.746 E.11528
G1 X103.849 Y115.603 E.00939
G1 X119.377 Y115.606 E.48689
G1 X121.331 Y118.238 E.10276
G1 X121.33 Y118.813 E.01802
G1 X120.596 Y119.736 E.03699
G1 X120.504 Y119.718 E.00293
G1 X116.73 Y116.715 E.15121
G1 X116.224 Y116.504 E.01721
G1 X115.779 Y116.476 E.01398
G1 X115.795 Y116.849 F9000
;TYPE:External perimeter
G1 F1200
G1 X115.492 Y116.926 E.00982
G1 X112.115 Y118.363 E.11507
G1 X111.879 Y118.538 E.00922
G1 X111.005 Y119.407 E.03864
G1 X110.731 Y119.786 E.01465
G1 X108.816 Y124.217 E.15134
G1 X108.083 Y124.619 E.02621
G1 X106.655 Y124.393 E.04533
G1 X106.473 Y124.237 E.00755
G1 X106.399 Y123.994 E.00796
G1 X107.122 Y119.226 E.1512
G1 X107.127 Y119.012 E.00672
G1 X107.003 Y118.557 E.0148
G1 X106.799 Y118.283 E.01069
G1 X103.882 Y116.045 E.11528
G1 X103.512 Y115.862 E.01294
;WIDTH:0.437415
G1 X102.48 Y115.599 E.03492
G1 X101.87 Y115.545 E.02011
;WIDTH:0.445913
G1 X100.415 Y115.635 E.04883
;WIDTH:0.456551
G1 X100.144 Y115.659 E.00937
;WIDTH:0.49387
G1 X99.457 Y115.715 E.02585
;WIDTH:0.531189
G1 X98.77 Y115.771 E.02799
;WIDTH:0.568507
G1 X98.083 Y115.827 E.03013
G1 X97.953 Y115.866 E.00592
;WIDTH:0.519005
G1 X97.823 Y115.905 E.00536
;WIDTH:0.469502
G1 X97.694 Y115.944 E.0048
;WIDTH:0.419999
G1 X97.075 Y116.011 E.01952
G1 X96.389 Y115.596 E.02515
G1 X96.243 Y115.229 E.01238
G1 X97.655 Y115.229 E.04428
;WIDTH:0.469502
G1 X97.788 Y115.253 E.0048
;WIDTH:0.519005
G1 X97.921 Y115.278 E.00536
;WIDTH:0.568507
G1 X98.054 Y115.303 E.00592
G1 X98.743 Y115.284 E.03013
;WIDTH:0.531189
G1 X99.432 Y115.265 E.02799
;WIDTH:0.49387
G1 X100.121 Y115.246 E.02585
;WIDTH:0.456551
G1 X100.395 Y115.232 E.0094
;WIDTH:0.445913
G1 X101.85 Y115.171 E.04883
;WIDTH:0.421145
G1 X102.229 Y115.179 E.01192
;WIDTH:0.451415
G1 X102.734 Y115.22 E.0172
G1 X104.019 Y115.229 E.04366
;WIDTH:0.419999
G1 X119.567 Y115.229 E.48749
G1 X121.708 Y118.114 E.11262
G1 X121.707 Y118.518 E.01269
G1 X121.707 Y118.944 E.01336
G1 X120.804 Y120.054 E.04485
G1 X120.54 Y120.131 E.00862
G1 X120.293 Y120.032 E.00836
G1 X116.496 Y117.01 E.15214
G1 X116.099 Y116.86 E.01331
G1 X115.855 Y116.851 E.00764
G1 X115.615 Y116.593 F9000
G1 X115.621 Y116.047
;TYPE:Perimeter
;WIDTH:0.589958
G1 F1200
G1 X116.377 Y116.068 E.03438
G1 E-7 F3600
;WIPE_START
G1 F7200
G1 X115.621 Y116.047 E-.35901
;WIPE_END
G1 E-2.64099 F3600
G1 Z2.2 F9000
G1 X97.163 Y115.614
G1 Z.2
G1 E10 F2400
;WIDTH:0.436476
G1 F1200
G1 X97.409 Y115.601 E.00806
;WIDTH:0.409835
G1 X97.655 Y115.587 E.00752
G1 E-7 F3600
;WIPE_START
G1 F7200
G1 X97.409 Y115.601 E-.11701
G1 X97.163 Y115.614 E-.11701
;WIPE_END
G1 E-2.76597 F3600
G1 Z2.2 F9000
G1 X113.667 Y116.104
G1 Z.2
G1 E10 F2400
;TYPE:Solid infill
;WIDTH:0.428122
G1 F1200
G1 X113.992 Y116.429 E.01473
G1 X113.61 Y116.592 E.0133
G1 X113.292 Y116.274 E.01441
G1 X112.747 Y116.274 E.01745
G1 X113.228 Y116.754 E.02178
G1 X112.846 Y116.917 E.0133
G1 X112.202 Y116.274 E.02914
G1 X111.658 Y116.274 E.01745
G1 X112.464 Y117.08 E.03651
G1 X112.081 Y117.242 E.0133
G1 X111.113 Y116.274 E.04387
G1 X110.568 Y116.274 E.01745
G1 X111.699 Y117.405 E.05124
G1 X111.366 Y117.616 E.01264
G1 X110.023 Y116.274 E.06082
G1 X109.479 Y116.274 E.01745
G1 X111.072 Y117.867 E.07219
G1 X110.799 Y118.139 E.01234
G1 X108.934 Y116.274 E.08449
G1 X108.389 Y116.274 E.01745
G1 X110.526 Y118.41 E.09679
G1 X110.253 Y118.682 E.01234
G1 X107.844 Y116.274 E.10909
G1 X107.3 Y116.274 E.01745
G1 X110.012 Y118.986 E.12286
G1 X109.8 Y119.319 E.01264
G1 X106.755 Y116.274 E.13793
G1 X106.21 Y116.274 E.01745
G1 X109.633 Y119.696 E.15503
G1 X109.468 Y120.077 E.01327
G1 X108.156 Y118.764 E.05944
G1 X108.172 Y118.977 E.00683
G1 X108.158 Y119.311 E.01072
G1 X109.304 Y120.457 E.0519
G1 X109.14 Y120.838 E.01327
G1 X108.093 Y119.791 E.04742
G1 X108.021 Y120.264 E.01532
G1 X108.975 Y121.218 E.04323
G1 X108.811 Y121.598 E.01327
G1 X107.949 Y120.737 E.03904
G1 X107.878 Y121.21 E.01532
G1 X108.647 Y121.979 E.03485
G1 X108.483 Y122.359 E.01327
G1 X107.806 Y121.683 E.03066
G1 X107.734 Y122.156 E.01532
G1 X108.318 Y122.74 E.02647
G1 X108.154 Y123.12 E.01327
G1 X107.662 Y122.629 E.02228
G1 X107.59 Y123.102 E.01532
G1 X108.1 Y123.612 E.0231
G1 E-7 F3600
;WIPE_START
G1 F7200
G1 X107.59 Y123.102 E-.34259
G1 X107.662 Y122.629 E-.22724
G1 X108.154 Y123.12 E-.33037
G1 X108.318 Y122.74 E-.19685
G1 X107.734 Y122.156 E-.39252
G1 X107.806 Y121.683 E-.22724
G1 X108.483 Y122.359 E-.45467
G1 X108.647 Y121.979 E-.19685
G1 X107.93 Y121.262 E-.48165
;WIPE_END
G1 E-.15 F3600
G1 Z2.2 F9000
G1 X119.895 Y117.139
G1 Z.2
G1 E10 F2400
;WIDTH:0.460157
G1 F1200
G1 X119.03 Y116.274 E.04244
G1 X118.44 Y116.274 E.02047
G1 X120.663 Y118.497 E.10908
G1 X120.663 Y118.579 E.00287
G1 X120.462 Y118.832 E.01119
G1 X120.197 Y118.621 E.01175
G1 X117.85 Y116.274 E.11517
G1 X117.272 Y116.274 E.02006
G1 X118.37 Y117.384 E.05419
; stop printing object Magazinrad2_V1.stl id:0 copy 0
M106 S255
;LAYER_CHANGE
;Z:0.4
;HEIGHT:0.2
;BEFORE_LAYER_CHANGE
G92 E0
;0.4


G1 E-7 F3600
;WIPE_START
G1 F7200
G1 X117.272 Y116.274 E-.74197
G1 X117.85 Y116.274 E-.27465
G1 X120.197 Y118.621 E-1.57685
G1 X120.462 Y118.832 E-.1609
G1 X120.587 Y118.674 E-.09564
;WIPE_END
G1 E-.15 F3600
G1 Z2.2 F9000
;AFTER_LAYER_CHANGE
;0.4
G1 X124.68 Y121.901
G1 Z.4
G1 E10 F2400
;TYPE:Skirt/Brim
;WIDTH:0.42
G1 X123.913 Y122.874 E.03883
G1 X123.106 Y123.554 E.03309
G1 X122.111 Y124.05 E.03485
G1 X109.486 Y128.57 E.42046
G1 X108.621 Y128.776 E.02787
G1 X107.489 Y128.767 E.0355
G1 X105.917 Y128.525 E.04988
G1 X105.323 Y128.363 E.0193
G1 X104.165 Y127.767 E.04084
G1 X93.424 Y118.56 E.44356
G1 X92.993 Y118.053 E.02088
G1 X92.649 Y117.483 E.02087
G1 X92.015 Y115.902 E.05339
G1 X91.75 Y114.886 E.03294
G1 X91.724 Y113.818 E.03347
G1 X94.354 Y99.915 E.44365
G1 X94.573 Y99.306 E.02031
G1 X94.887 Y98.74 E.0203
G1 X96.118 Y97.194 E.06194
G1 X96.706 Y96.654 E.02505
G1 X97.283 Y96.279 E.02158
G1 X97.91 Y95.997 E.02155
G1 X110.586 Y91.513 E.42156
G1 X111.504 Y91.308 E.02949
G1 X112.176 Y91.297 E.02109
G1 X114.204 Y91.602 E.06429
G1 X114.865 Y91.817 E.02179
G1 X115.484 Y92.131 E.02179
G1 X116.076 Y92.562 E.02294
G1 X126.509 Y101.395 E.42864
G1 X126.935 Y101.888 E.0204
G1 X127.275 Y102.442 E.0204
G1 X128.005 Y104.235 E.06067
G1 X128.238 Y105.418 E.03782
G1 X128.19 Y106.392 E.03056
G1 X125.761 Y119.987 E.43301
G1 X125.543 Y120.619 E.02097
G1 X125.216 Y121.221 E.0215
G1 X124.717 Y121.854 E.02526
G1 X124.422 Y121.623 F9000
G1 F2400
G1 X123.674 Y122.577 E.03802
G1 X122.9 Y123.238 E.03189
G1 X121.984 Y123.695 E.03211
G1 X109.359 Y128.215 E.42046
G1 X108.571 Y128.402 E.02541
G1 X107.545 Y128.394 E.03217
G1 X105.45 Y128.008 E.06677
G1 X104.38 Y127.457 E.03774
G1 X93.692 Y118.295 E.44141
G1 X92.988 Y117.317 E.03776
G1 X92.367 Y115.765 E.05243
G1 X92.124 Y114.835 E.03015
G1 X92.1 Y113.851 E.03085
G1 X94.717 Y100.015 E.44151
G1 X95.2 Y98.951 E.03665
G1 X96.393 Y97.452 E.06007
G1 X96.939 Y96.95 E.02324
G1 X98.043 Y96.35 E.03939
G1 X110.712 Y91.869 E.42134
G1 X111.54 Y91.683 E.02663
G1 X112.152 Y91.673 E.01918
G1 X114.12 Y91.97 E.06241
G1 X114.725 Y92.167 E.01995
G1 X115.722 Y92.759 E.03636
G1 X126.244 Y101.663 E.43217
G1 X126.938 Y102.611 E.03684
G1 X127.646 Y104.352 E.05894
G1 X127.862 Y105.439 E.03474
G1 X127.819 Y106.329 E.02794
G1 X125.396 Y119.891 E.43195
G1 X124.911 Y120.999 E.03792
G1 X124.459 Y121.575 E.02298
; printing object Magazinrad2_V1.stl id:0 copy 0
G1 E-7 F3600
;WIPE_START
G1 F7200
G1 X123.674 Y122.577 E-.60441
G1 X122.9 Y123.238 E-.48315
G1 X121.984 Y123.695 E-.48639
G1 X119.455 Y124.601 E-1.27605
;WIPE_END
G1 E-.15 F3600
G1 Z2.4 F9000
G1 X112.298 Y112.366
G1 Z.4
G1 E10 F2400
M204 S250
;TYPE:Overhang perimeter
;WIDTH:0.389872
;HEIGHT:0.389872
G1 F1500
G1 X111.654 Y112.839 E.03966
G1 X111.176 Y113.067 E.02629
G1 X110.467 Y113.24 E.03624
G1 X109.944 Y113.275 E.02601
G1 X109.607 Y113.256 E.01673
G1 X109.08 Y113.149 E.02669
G1 X108.527 Y112.938 E.02937
G1 X107.98 Y112.598 E.03198
G1 X107.501 Y112.158 E.0323
G1 X107.124 Y111.634 E.03205
G1 X106.886 Y111.153 E.02662
G1 X106.691 Y110.38 E.03955
G1 X106.68 Y109.592 E.03914
G1 X106.688 Y109.487 E.00523
G1 X106.811 Y108.946 E.02755
G1 X107.002 Y108.463 E.02576
G1 X107.38 Y107.883 E.03434
G1 X107.579 Y107.635 E.01579
G1 X108.012 Y107.253 E.02866
G1 X108.511 Y106.95 E.02901
G1 X109.071 Y106.729 E.02985
G1 X109.691 Y106.613 E.03131
G1 X110.252 Y106.606 E.02787
G1 X110.878 Y106.729 E.03164
G1 X111.191 Y106.816 E.01613
G1 X111.689 Y107.059 E.02751
G1 X112.182 Y107.412 E.03012
G1 X112.609 Y107.851 E.03039
G1 X112.896 Y108.277 E.02549
G1 X113.137 Y108.786 E.02794
G1 X113.318 Y109.564 E.03966
G1 X113.334 Y110.174 E.03025
G1 X113.197 Y110.902 E.03679
G1 X112.978 Y111.454 E.02946
G1 X112.683 Y111.919 E.02733
G1 X112.337 Y112.32 E.0263
M204 S500
G1 X111.921 Y112.169 F9000
M204 S250
G1 F1500
G1 X111.427 Y112.513 E.02989
G1 X110.918 Y112.736 E.0276
G1 X110.383 Y112.852 E.02716
G1 X109.8 Y112.878 E.02897
G1 X109.159 Y112.76 E.03235
G1 X108.68 Y112.572 E.02552
G1 X108.198 Y112.267 E.02832
G1 X107.813 Y111.912 E.02599
G1 X107.446 Y111.402 E.03117
G1 X107.221 Y110.915 E.02664
G1 X107.078 Y110.292 E.03171
G1 X107.077 Y109.601 E.03431
G1 X107.197 Y109.037 E.02863
G1 X107.392 Y108.567 E.02525
G1 X107.849 Y107.926 E.03908
G1 X108.226 Y107.587 E.02515
G1 X108.717 Y107.289 E.0285
G1 X109.204 Y107.103 E.02588
G1 X109.753 Y107.005 E.02769
G1 X110.271 Y107.01 E.02569
G1 X110.912 Y107.141 E.03246
G1 X111.458 Y107.382 E.02962
G1 X111.951 Y107.735 E.03012
G1 X112.315 Y108.117 E.02618
G1 X112.591 Y108.538 E.02496
G1 X112.797 Y109.013 E.02572
G1 X112.929 Y109.644 E.03201
G1 X112.937 Y110.17 E.02607
G1 X112.809 Y110.819 E.03284
G1 X112.614 Y111.296 E.02558
G1 X112.303 Y111.773 E.02825
G1 X111.963 Y112.126 E.02433
M204 S500
G1 X111.7 Y111.851 F9000
M204 S250
G1 F1500
G1 X111.206 Y112.196 E.02989
G1 X110.828 Y112.36 E.02043
G1 X110.241 Y112.486 E.02985
G1 X109.763 Y112.487 E.02373
G1 X109.236 Y112.38 E.02669
G1 X108.798 Y112.198 E.0235
G1 X108.387 Y111.924 E.02454
G1 X108.112 Y111.666 E.01873
G1 X107.761 Y111.176 E.02989
G1 X107.59 Y110.796 E.02073
G1 X107.456 Y110.207 E.02998
G1 X107.465 Y109.59 E.03062
G1 X107.584 Y109.095 E.02524
G1 X107.741 Y108.738 E.01934
G1 X108.087 Y108.24 E.03012
G1 X108.44 Y107.911 E.02396
G1 X108.918 Y107.62 E.02777
G1 X109.368 Y107.459 E.02373
G1 X109.864 Y107.385 E.02489
G1 X110.246 Y107.4 E.01899
G1 X110.834 Y107.52 E.02977
G1 X111.233 Y107.697 E.02163
G1 X111.726 Y108.05 E.03012
G1 X112.047 Y108.402 E.02368
