; generated by PrusaSlicer 2.5.0+win64 on 2023-04-21 at 12:32:38 UTC

; 

; external perimeters extrusion width = 0.42mm
; perimeters extrusion width = 0.44mm
; infill extrusion width = 0.44mm
; solid infill extrusion width = 0.44mm
; top infill extrusion width = 0.40mm
; first layer extrusion width = 0.42mm

M201 X500 Y500 Z100 E5000 ; sets maximum accelerations, mm/sec^2
M203 X500 Y500 Z10 E60 ; sets maximum feedrates, mm / sec
M204 P500 R1000 T500 ; sets acceleration (P, T) and retract acceleration (R), mm/sec^2
M205 X8.00 Y8.00 Z0.40 E5.00 ; sets the jerk limits, mm/sec
M205 S0 T0 ; sets the minimum extruding and travel feed rate, mm/sec
M107
;TYPE:Custom
G90 ; use absolute coordinates
M83 ; extruder relative mode
M104 S150 ; set temporary nozzle temp to prevent oozing during homing
M140 S70 ; set final bed temp
G4 S30 ; allow partial nozzle warmup
G28 ; home all axis
G1 Z50 F240
G1 X2.0 Y10 F3000
M104 S210 ; set final nozzle temp
M190 S70 ; wait for bed temp to stabilize
M109 S210 ; wait for nozzle temp to stabilize
G1 Z0.28 F240
G92 E0
G1 X2.0 Y140 E10 F1500 ; prime the nozzle
G1 X2.3 Y140 F5000
G92 E0
G1 X2.3 Y10 E10 F1200 ; prime the nozzle
G92 E0
G21 ; set units to millimeters
G90 ; use absolute coordinates
M83 ; use relative distances for extrusion
; Filament gcode
M107
;LAYER_CHANGE
;Z:0.2
;HEIGHT:0.2
;BEFORE_LAYER_CHANGE
G92 E0
;0.2


G1 E-10 F3600
G1 Z.2 F9000
;AFTER_LAYER_CHANGE
;0.2
G1 X38.131 Y32.566
G1 E10 F2400
M204 S500
;TYPE:Skirt/Brim
;WIDTH:0.42
G1 F1200
G1 X46.744 Y22.482 E.41582
G1 X47.876 Y21.561 E.04575
G1 X49.104 Y20.935 E.04324
G1 X49.9 Y20.684 E.02617
G1 X50.824 Y20.517 E.02943
G1 X52.154 Y20.506 E.04171
G1 X53.408 Y20.738 E.03998
G1 X54.291 Y21.056 E.02943
G1 X55.032 Y21.441 E.02617
G1 X55.883 Y22.044 E.03271
G1 X186.409 Y133.521 E5.38201
G1 X187.673 Y134.906 E.05878
G1 X188.122 Y135.61 E.02616
G1 X188.7 Y136.808 E.04171
G1 X188.951 Y137.603 E.02617
G1 X189.208 Y139.015 E.04498
G1 X189.836 Y146.996 E.25101
G1 X191.908 Y181.871 E1.09542
G1 X190.535 Y195.656 E.43434
G1 X189.744 Y197.503 E.06303
G1 X186.268 Y201.573 E.16782
G1 X184.332 Y202.697 E.07017
G1 X182.263 Y203.092 E.06606
G1 X181.068 Y203.105 E.03746
G1 X150.197 Y197.89 E.98165
G1 X149.296 Y197.627 E.02944
G1 X148.145 Y197.078 E.03997
G1 X147.294 Y196.476 E.03271
G1 X145.695 Y195.102 E.06607
G1 X106.737 Y151.833 E1.82557
G1 X28.314 Y53.769 E3.93701
G1 X27.865 Y53.065 E.02617
G1 X27.156 Y51.496 E.05398
G1 X26.851 Y50.202 E.04171
G1 X26.751 Y48.931 E.03997
G1 X26.85 Y47.604 E.04171
G1 X27.305 Y45.944 E.05398
G1 X27.638 Y45.179 E.02617
G1 X28.414 Y43.943 E.04575
G1 X38.092 Y32.612 E.46723
G1 E-7 F3600
;WIPE_START
G1 F7200
G1 X41.989 Y28.049 E-2.85
;WIPE_END
G1 E-.15 F3600
G1 X41.065 Y35.149 F9000
G1 E10 F2400
G1 F1200
G1 X41.593 Y34.53 E.02551
G1 X42.055 Y34.08 E.02021
G1 X42.681 Y33.643 E.02395
G1 X43.415 Y33.307 E.02531
G1 X48.895 Y31.47 E.18121
G1 X48.205 Y30.869 E.0287
G1 X47.848 Y30.443 E.01739
G1 X47.503 Y29.749 E.02432
G1 X47.353 Y28.922 E.02635
G1 X47.417 Y28.235 E.02163
G1 X47.608 Y27.656 E.01913
G1 X47.926 Y27.123 E.01945
G1 X49.493 Y25.287 E.07569
G1 X49.975 Y24.883 E.01969
G1 X50.646 Y24.554 E.02344
G1 X51.242 Y24.424 E.01915
G1 X51.863 Y24.423 E.01946
G1 X52.635 Y24.621 E.02497
G1 X53.34 Y25.035 E.02565
G1 X183.839 Y136.489 E5.38088
G1 X184.435 Y137.133 E.02751
G1 X185.004 Y138.146 E.03646
G1 X185.296 Y139.34 E.03851
G1 X185.916 Y147.224 E.24797
G1 X185.808 Y148.483 E.03962
G1 X185.506 Y149.346 E.02868
G1 X185.024 Y150.13 E.02885
G1 X182.48 Y153.109 E.12284
G1 X181.913 Y153.555 E.02261
G1 X181.225 Y153.849 E.02346
G1 X180.489 Y153.955 E.02332
G1 X179.761 Y153.869 E.02298
G1 X179.185 Y153.655 E.01929
G1 X178.658 Y153.317 E.01963
G1 X175.207 Y150.37 E.14228
G1 X174.837 Y149.882 E.01918
G1 X174.594 Y149.31 E.01949
G1 X174.506 Y148.742 E.01804
G1 X174.698 Y144.561 E.13123
G1 X174.753 Y144.263 E.00949
G1 X175.134 Y143.467 E.02766
G1 X176.037 Y142.411 E.04358
G1 X104.781 Y81.554 E2.93811
G1 X102.122 Y84.667 E.12837
G1 X100.826 Y95.522 E.34278
G1 X127.28 Y118.116 E1.09081
G1 X127.757 Y118.913 E.02912
G1 X127.832 Y119.243 E.01061
G1 X127.878 Y120.016 E.02429
G1 X127.808 Y120.408 E.01249
G1 X127.647 Y120.833 E.01426
G1 X126.022 Y122.798 E.07993
G1 X131.495 Y133.87 E.38724
G1 X131.613 Y134.397 E.01693
G1 X131.591 Y134.943 E.01713
G1 X131.384 Y135.553 E.02018
G1 X130.86 Y136.328 E.02936
G1 X130.439 Y136.692 E.01742
G1 X129.891 Y136.95 E.01901
G1 X129.379 Y137.033 E.01626
G1 X126.576 Y136.855 E.08806
G1 X122.747 Y140.481 E.16536
G1 X122.783 Y144.49 E.1257
G1 X124.914 Y149.17 E.16122
G1 X135.874 Y163.103 E.55585
G1 X138.195 Y165.074 E.09547
G1 X145.996 Y168.656 E.26913
G1 X146.618 Y169.196 E.02584
G1 X147.672 Y170.668 E.05676
G1 X154.806 Y172.891 E.23428
G1 X155.929 Y173.433 E.0391
G1 X165.789 Y173.75 E.30932
G1 X165.958 Y173.118 E.02051
G1 X166.255 Y172.574 E.01942
G1 X166.735 Y172.077 E.02166
G1 X167.27 Y171.759 E.01954
G1 X174.105 Y169.567 E.22505
G1 X174.876 Y169.525 E.02419
G1 X175.487 Y169.668 E.01968
G1 X176.031 Y169.954 E.01928
G1 X187.234 Y179.521 E.46192
G1 X187.803 Y180.471 E.03472
G1 X187.891 Y180.863 E.01259
G1 X187.954 Y181.856 E.0312
G1 X187.813 Y182.527 E.02149
G1 X187.621 Y182.958 E.01478
G1 X185.107 Y185.945 E.12242
G1 X184.589 Y186.338 E.02038
G1 X183.951 Y186.598 E.02161
G1 X182.362 Y186.718 E.04995
G1 X181.902 Y186.621 E.01475
G1 X181.277 Y186.341 E.02147
G1 X176.445 Y182.234 E.19884
G1 X175.298 Y183.577 E.05536
G1 X185.923 Y192.651 E.4381
G1 X186.231 Y193.05 E.0158
G1 X186.49 Y193.699 E.02193
G1 X186.556 Y194.441 E.02336
G1 X186.495 Y194.925 E.01527
G1 X186.321 Y195.398 E.01581
G1 X183.724 Y198.49 E.12662
G1 X183.538 Y198.652 E.0077
G1 X182.914 Y198.964 E.0219
G1 X182.245 Y199.099 E.02139
G1 X181.242 Y198.949 E.0318
G1 X158.909 Y187.124 E.79233
G1 X153.745 Y193.171 E.24931
G1 X153.161 Y193.663 E.02395
G1 X152.539 Y193.962 E.02163
G1 X151.829 Y194.105 E.02273
G1 X151.185 Y194.078 E.02021
G1 X150.525 Y193.891 E.02151
G1 X149.829 Y193.478 E.02536
G1 X148.373 Y192.234 E.06006
G1 X147.905 Y191.664 E.02312
G1 X147.603 Y191.036 E.02185
G1 X147.464 Y190.296 E.0236
G1 X147.523 Y189.549 E.02351
G1 X148.812 Y185.668 E.12821
G1 X148.935 Y184.986 E.02173
G1 X146.931 Y180.964 E.14091
G1 X146.494 Y180.711 E.01583
G1 X143.843 Y178.45 E.10924
G1 X133.075 Y171.603 E.40012
G1 X130.227 Y169.166 E.11753
G1 X109.904 Y149.488 E.88698
G1 X109.6 Y149.126 E.01481
G1 X109.286 Y148.551 E.02052
G1 X109.102 Y147.857 E.02252
G1 X109.107 Y147.073 E.02459
G1 X109.26 Y146.471 E.01947
G1 X109.447 Y146.074 E.01377
G1 X109.985 Y145.392 E.02723
G1 X109.317 Y137.002 E.26389
G1 X109.032 Y136.845 E.01021
G1 X108.543 Y136.432 E.02008
G1 X108.049 Y135.721 E.02712
G1 X105.077 Y128.735 E.23805
G1 X80.096 Y98.096 E1.23952
G1 X66.636 Y84.305 E.60421
G1 X66.293 Y83.859 E.01766
G1 X65.962 Y83.047 E.02748
G1 X65.868 Y82.369 E.02146
G1 X66.023 Y81.436 E.02968
G1 X66.367 Y80.753 E.02396
G1 X69.276 Y77.32 E.1411
G1 X49.477 Y60.41 E.81641
G1 X47.99 Y62.144 E.07163
G1 X47.436 Y62.601 E.02251
G1 X46.838 Y62.888 E.02081
G1 X46.064 Y63.038 E.02471
G1 X45.323 Y62.981 E.0233
G1 X44.634 Y62.74 E.02288
G1 X44.118 Y62.408 E.01925
G1 X32.149 Y52.186 E.49353
G1 X31.548 Y51.538 E.02771
G1 X30.913 Y50.339 E.04252
G1 X30.675 Y49.036 E.04154
G1 X30.788 Y47.926 E.03497
G1 X31.104 Y47.033 E.02972
G1 X31.603 Y46.236 E.02947
G1 X41.026 Y35.194 E.45514
G1 X41.312 Y35.439 F9000
G1 F1200
G1 X41.874 Y34.781 E.02711
G1 X42.306 Y34.362 E.01888
G1 X42.882 Y33.963 E.02197
G1 X43.544 Y33.661 E.02282
G1 X49.644 Y31.616 E.20172
G1 X48.484 Y30.614 E.04806
G1 X48.151 Y30.218 E.01622
G1 X47.868 Y29.652 E.01985
G1 X47.731 Y28.929 E.02306
G1 X47.79 Y28.291 E.02009
G1 X47.944 Y27.83 E.01525
G1 X48.223 Y27.355 E.01729
G1 X49.769 Y25.544 E.07465
G1 X50.198 Y25.188 E.01748
G1 X50.749 Y24.918 E.01922
G1 X51.302 Y24.797 E.01776
G1 X51.836 Y24.8 E.01674
G1 X52.512 Y24.978 E.02193
G1 X53.107 Y25.332 E.02171
G1 X183.585 Y136.768 E5.38003
G1 X184.142 Y137.371 E.02575
G1 X184.662 Y138.306 E.03354
G1 X184.921 Y139.384 E.03474
G1 X185.539 Y147.238 E.24704
G1 X185.444 Y148.381 E.03595
G1 X185.157 Y149.201 E.02726
G1 X184.712 Y149.919 E.02647
G1 X182.23 Y152.826 E.11986
G1 X181.738 Y153.22 E.01976
G1 X181.143 Y153.481 E.02036
G1 X180.505 Y153.577 E.02025
G1 X179.87 Y153.507 E.02001
G1 X179.336 Y153.309 E.01788
G1 X178.893 Y153.022 E.01652
G1 X175.468 Y150.097 E.14122
G1 X175.154 Y149.677 E.01646
G1 X174.951 Y149.188 E.01659
G1 X174.884 Y148.741 E.01417
G1 X175.074 Y144.592 E.13022
G1 X175.119 Y144.358 E.00746
G1 X175.437 Y143.694 E.02311
G1 X176.568 Y142.369 E.05463
G1 X104.739 Y81.022 E2.96176
G1 X101.761 Y84.509 E.14377
G1 X100.427 Y95.678 E.35269
G1 X127.012 Y118.383 E1.09617
G1 X127.397 Y119.027 E.02355
G1 X127.456 Y119.282 E.00819
G1 X127.5 Y120.015 E.02304
G1 X127.45 Y120.29 E.00876
G1 X127.305 Y120.67 E.01274
G1 X125.575 Y122.745 E.08471
G1 X131.146 Y134.016 E.39419
G1 X131.239 Y134.45 E.01392
G1 X131.216 Y134.897 E.01403
G1 X131.058 Y135.362 E.01542
G1 X130.563 Y136.095 E.02772
G1 X130.218 Y136.386 E.01416
G1 X129.759 Y136.596 E.01582
G1 X129.383 Y136.655 E.01194
G1 X126.436 Y136.468 E.09257
G1 X122.368 Y140.32 E.17566
G1 X122.406 Y144.574 E.13336
G1 X124.589 Y149.367 E.16515
G1 X135.601 Y163.366 E.55846
G1 X137.991 Y165.395 E.09828
G1 X145.813 Y168.987 E.2699
G1 X146.324 Y169.433 E.02126
G1 X147.439 Y170.99 E.06005
G1 X154.68 Y173.247 E.2378
G1 X155.836 Y173.808 E.0403
G1 X165.912 Y174.131 E.31609
G1 X166.155 Y173.847 E.01172
G1 X166.303 Y173.273 E.01857
G1 X166.547 Y172.814 E.01632
G1 X166.953 Y172.386 E.01849
G1 X167.407 Y172.111 E.01666
G1 X174.198 Y169.933 E.22359
G1 X174.819 Y169.899 E.01952
G1 X175.337 Y170.015 E.01664
G1 X175.804 Y170.255 E.01645
G1 X186.966 Y179.788 E.46025
G1 X187.443 Y180.584 E.02911
G1 X187.516 Y180.905 E.01032
G1 X187.58 Y181.805 E.02827
G1 X187.448 Y182.428 E.01997
G1 X187.289 Y182.777 E.01202
G1 X184.834 Y185.685 E.11934
G1 X184.385 Y186.02 E.01756
G1 X183.839 Y186.237 E.01841
G1 X182.411 Y186.344 E.0449
G1 X182.036 Y186.268 E.01199
G1 X181.456 Y186.008 E.01995
G1 X176.403 Y181.702 E.20814
G1 X174.766 Y183.618 E.079
G1 X185.664 Y192.926 E.44935
G1 X185.891 Y193.215 E.01152
G1 X186.129 Y193.812 E.02014
G1 X186.179 Y194.449 E.02005
G1 X186.125 Y194.851 E.01273
G1 X185.98 Y195.233 E.0128
G1 X183.446 Y198.235 E.12317
G1 X183.311 Y198.35 E.00557
G1 X182.815 Y198.6 E.01741
G1 X182.203 Y198.723 E.01956
G1 X181.39 Y198.6 E.02577
G1 X158.819 Y186.65 E.8008
G1 X153.469 Y192.914 E.25828
G1 X152.939 Y193.357 E.02168
G1 X152.4 Y193.611 E.01866
G1 X151.822 Y193.727 E.0185
G1 X151.224 Y193.703 E.01876
G1 X150.655 Y193.537 E.01859
G1 X150.063 Y193.181 E.02164
G1 X148.631 Y191.959 E.05903
G1 X148.213 Y191.445 E.02078
G1 X147.955 Y190.898 E.01897
G1 X147.842 Y190.298 E.01912
G1 X147.889 Y189.645 E.02054
G1 X149.178 Y185.762 E.12829
G1 X149.328 Y184.93 E.02649
G1 X147.217 Y180.692 E.14845
G1 X146.725 Y180.412 E.01777
G1 X144.068 Y178.146 E.10949
G1 X133.31 Y171.307 E.39969
G1 X130.485 Y168.891 E.11656
G1 X110.172 Y149.223 E.88652
G1 X109.92 Y148.925 E.01223
G1 X109.643 Y148.428 E.01785
G1 X109.479 Y147.833 E.01935
G1 X109.484 Y147.1 E.02297
G1 X109.62 Y146.584 E.01674
G1 X109.757 Y146.29 E.01017
G1 X110.373 Y145.51 E.03116
G1 X109.677 Y136.764 E.27508
G1 X109.259 Y136.542 E.01483
G1 X108.805 Y136.16 E.0186
G1 X108.389 Y135.556 E.02299
G1 X105.403 Y128.538 E.23913
G1 X80.377 Y97.845 E1.24172
G1 X66.914 Y84.05 E.60438
G1 X66.608 Y83.651 E.01577
G1 X66.321 Y82.931 E.0243
G1 X66.245 Y82.349 E.0184
G1 X66.374 Y81.577 E.02454
G1 X66.67 Y80.979 E.02093
G1 X69.807 Y77.277 E.15214
G1 X49.435 Y59.878 E.84001
G1 X47.736 Y61.866 E.08199
G1 X47.251 Y62.271 E.01981
G1 X46.696 Y62.538 E.0193
G1 X46.065 Y62.661 E.02017
G1 X45.421 Y62.616 E.02025
G1 X44.817 Y62.409 E.01999
G1 X44.353 Y62.113 E.01729
G1 X32.402 Y51.906 E.49275
G1 X31.842 Y51.3 E.0259
G1 X31.278 Y50.241 E.03761
G1 X31.053 Y49.045 E.03815
G1 X31.151 Y48.029 E.03201
G1 X31.436 Y47.214 E.02705
G1 X31.899 Y46.47 E.02747
G1 X41.273 Y35.485 E.45281
G1 X41.56 Y35.729 F9000
G1 F1200
G1 X42.155 Y35.033 E.02871
G1 X42.557 Y34.644 E.01755
G1 X43.054 Y34.299 E.01897
G1 X43.674 Y34.016 E.02136
G1 X50.393 Y31.763 E.22222
G1 X48.76 Y30.358 E.06755
G1 X48.478 Y30.028 E.01361
G1 X48.217 Y29.506 E.01828
G1 X48.109 Y28.938 E.01815
G1 X48.163 Y28.35 E.01852
G1 X48.293 Y27.971 E.01254
G1 X48.521 Y27.587 E.014
G1 X50.045 Y25.802 E.07361
G1 X50.42 Y25.493 E.01524
G1 X50.854 Y25.28 E.01515
G1 X51.322 Y25.174 E.01504
G1 X51.81 Y25.177 E.0153
G1 X52.344 Y25.317 E.0173
G1 X52.875 Y25.629 E.01934
G1 X183.332 Y137.048 E5.37914
G1 X183.849 Y137.61 E.02396
G1 X184.319 Y138.465 E.03059
G1 X184.546 Y139.427 E.03101
G1 X185.162 Y147.253 E.24614
G1 X185.08 Y148.281 E.03234
G1 X184.825 Y149.021 E.02452
G1 X184.399 Y149.708 E.02535
G1 X181.978 Y152.546 E.11696
G1 X181.559 Y152.887 E.01694
G1 X181.057 Y153.113 E.01726
G1 X180.517 Y153.199 E.01716
G1 X179.975 Y153.144 E.01706
G1 X179.521 Y152.979 E.01516
G1 X179.128 Y152.727 E.01464
G1 X175.73 Y149.825 E.1401
G1 X175.473 Y149.474 E.01365
G1 X175.309 Y149.069 E.0137
G1 X175.261 Y148.741 E.01041
G1 X175.45 Y144.624 E.1292
G1 X175.484 Y144.456 E.0054
G1 X175.74 Y143.92 E.01862
G1 X177.1 Y142.327 E.06567
G1 X104.697 Y80.49 E2.98541
G1 X101.4 Y84.351 E.15918
G1 X100.029 Y95.833 E.36259
G1 X126.743 Y118.649 E1.10152
G1 X127.038 Y119.144 E.01806
G1 X127.081 Y119.324 E.0058
G1 X127.124 Y119.975 E.02046
G1 X127.09 Y120.174 E.00633
G1 X126.964 Y120.506 E.01113
G1 X125.128 Y122.69 E.08948
G1 X130.796 Y134.159 E.40113
G1 X130.864 Y134.497 E.0108
G1 X130.841 Y134.847 E.01099
G1 X130.731 Y135.172 E.01077
G1 X130.265 Y135.862 E.0261
G1 X130.037 Y136.054 E.00933
G1 X129.627 Y136.242 E.01417
G1 X129.387 Y136.278 E.00758
G1 X126.296 Y136.081 E.09711
G1 X121.99 Y140.16 E.18596
G1 X122.03 Y144.657 E.14102
G1 X124.265 Y149.565 E.16908
G1 X135.328 Y163.629 E.56107
G1 X137.786 Y165.716 E.1011
G1 X145.631 Y169.318 E.27066
G1 X146.03 Y169.67 E.01667
G1 X147.206 Y171.313 E.06335
G1 X154.554 Y173.602 E.24131
G1 X155.743 Y174.182 E.04148
G1 X166.081 Y174.514 E.32431
G1 X166.5 Y174.024 E.02022
G1 X166.649 Y173.425 E.01934
G1 X166.842 Y173.05 E.01323
G1 X167.174 Y172.692 E.01531
G1 X167.545 Y172.463 E.01368
G1 X174.29 Y170.299 E.22209
G1 X174.766 Y170.273 E.01495
G1 X175.191 Y170.363 E.01363
G1 X175.577 Y170.557 E.01353
G1 X186.697 Y180.055 E.45854
G1 X187.083 Y180.699 E.02354
G1 X187.142 Y180.95 E.00808
G1 X187.205 Y181.754 E.02528
G1 X187.084 Y182.328 E.01838
G1 X186.959 Y182.593 E.00919
G1 X184.56 Y185.425 E.1164
G1 X184.222 Y185.679 E.01324
G1 X183.727 Y185.875 E.0167
G1 X182.457 Y185.969 E.03994
G1 X182.169 Y185.914 E.00917
G1 X181.634 Y185.675 E.01838
G1 X176.361 Y181.171 E.21744
G1 X174.235 Y183.66 E.10266
G1 X185.406 Y193.202 E.46065
G1 X185.554 Y193.386 E.0074
G1 X185.755 Y193.872 E.0165
G1 X185.802 Y194.459 E.01846
G1 X185.765 Y194.738 E.00882
G1 X185.639 Y195.069 E.01109
G1 X183.17 Y197.977 E.11962
G1 X183.088 Y198.045 E.00333
G1 X182.673 Y198.249 E.01451
G1 X182.165 Y198.346 E.01622
G1 X181.539 Y198.252 E.01986
G1 X158.728 Y186.175 E.80927
G1 X153.192 Y192.657 E.26729
G1 X152.752 Y193.029 E.01803
G1 X152.299 Y193.247 E.01579
G1 X151.809 Y193.35 E.01568
G1 X151.306 Y193.334 E.0158
G1 X150.785 Y193.182 E.01703
G1 X150.296 Y192.885 E.01791
G1 X148.89 Y191.684 E.05801
G1 X148.522 Y191.227 E.01839
G1 X148.308 Y190.763 E.01602
G1 X148.218 Y190.258 E.0161
G1 X148.263 Y189.699 E.01758
G1 X149.544 Y185.855 E.12703
G1 X149.722 Y184.874 E.03127
G1 X147.503 Y180.419 E.15604
G1 X146.955 Y180.112 E.01968
G1 X144.293 Y177.842 E.10972
G1 X133.545 Y171.012 E.39927
G1 X130.743 Y168.616 E.1156
G1 X110.441 Y148.959 E.88603
G1 X110.221 Y148.697 E.01073
G1 X109.985 Y148.268 E.01535
G1 X109.85 Y147.762 E.0164
G1 X109.86 Y147.132 E.01977
G1 X109.979 Y146.702 E.01399
G1 X110.088 Y146.472 E.00797
G1 X110.76 Y145.629 E.03381
G1 X110.032 Y136.482 E.28771
G1 X109.829 Y136.417 E.0067
G1 X109.485 Y136.24 E.01213
G1 X109.068 Y135.888 E.01709
G1 X108.728 Y135.392 E.01886
G1 X105.729 Y128.341 E.24024
G1 X80.659 Y97.593 E1.24393
G1 X67.192 Y83.795 E.60454
