; generated by PrusaSlicer 2.5.0+win64 on 2023-04-22 at 19:41:03 UTC

; 

; external perimeters extrusion width = 0.42mm
; perimeters extrusion width = 0.44mm
; infill extrusion width = 0.44mm
; solid infill extrusion width = 0.44mm
; top infill extrusion width = 0.40mm
; first layer extrusion width = 0.42mm

M201 X500 Y500 Z100 E5000 ; sets maximum accelerations, mm/sec^2
M203 X500 Y500 Z10 E60 ; sets maximum feedrates, mm / sec
M204 P500 R1000 T500 ; sets acceleration (P, T) and retract acceleration (R), mm/sec^2
M205 X8.00 Y8.00 Z0.40 E5.00 ; sets the jerk limits, mm/sec
M205 S0 T0 ; sets the minimum extruding and travel feed rate, mm/sec
M107
;TYPE:Custom
G90 ; use absolute coordinates
M83 ; extruder relative mode
M104 S150 ; set temporary nozzle temp to prevent oozing during homing
M140 S70 ; set final bed temp
G4 S30 ; allow partial nozzle warmup
G28 ; home all axis
G1 Z50 F240
G1 X2.0 Y10 F3000
M104 S210 ; set final nozzle temp
M190 S70 ; wait for bed temp to stabilize
M109 S210 ; wait for nozzle temp to stabilize
G1 Z0.28 F240
G92 E0
G1 X2.0 Y140 E10 F1500 ; prime the nozzle
G1 X2.3 Y140 F5000
G92 E0
G1 X2.3 Y10 E10 F1200 ; prime the nozzle
G92 E0
G21 ; set units to millimeters
G90 ; use absolute coordinates
M83 ; use relative distances for extrusion
; Filament gcode
M107
;LAYER_CHANGE
;Z:0.2
;HEIGHT:0.2
;BEFORE_LAYER_CHANGE
G92 E0
;0.2


G1 E-10 F3600
G1 Z.2 F9000
;AFTER_LAYER_CHANGE
;0.2
G1 X79.678 Y110.404
G1 E10 F2400
M204 S500
;TYPE:Skirt/Brim
;WIDTH:0.42
G1 F1200
G1 X80.341 Y109.931 E.02555
G1 X80.893 Y109.678 E.01905
G1 X123.814 Y95.315 E1.41909
G1 X124.884 Y95.16 E.03392
G1 X133.531 Y95.171 E.2711
G1 X134.482 Y95.362 E.03043
G1 X135.328 Y95.77 E.02944
G1 X139.88 Y99.17 E.17814
G1 X140.715 Y99.992 E.03673
G1 X141.21 Y100.808 E.02992
G1 X141.427 Y101.437 E.02088
G1 X141.531 Y102.14 E.02226
G1 X141.46 Y103.064 E.02906
G1 X141.167 Y103.917 E.02828
G1 X140.736 Y104.595 E.02521
G1 X140.22 Y105.121 E.02308
G1 X118.794 Y122.654 E.86809
G1 X117.904 Y123.202 E.03274
G1 X116.954 Y123.486 E.03109
G1 X111.356 Y124.446 E.17809
G1 X110.436 Y124.516 E.02893
G1 X87.37 Y124.797 E.72328
G1 X86.302 Y124.479 E.03492
G1 X85.911 Y124.268 E.01393
G1 X85.236 Y123.736 E.02696
G1 X79.014 Y116.301 E.30397
G1 X78.574 Y115.649 E.02468
G1 X78.347 Y115.14 E.01746
G1 X78.13 Y114.106 E.03314
G1 X78.138 Y113.498 E.01905
G1 X78.294 Y112.721 E.02484
G1 X78.74 Y111.674 E.0357
G1 X79.163 Y110.963 E.02592
G1 X79.637 Y110.449 E.02195
; printing object Magazin_Seite_R_V1.stl id:0 copy 0
G1 E-7 F3600
;WIPE_START
G1 F7200
G1 X80.341 Y109.931 E-.41499
G1 X80.893 Y109.678 E-.28861
G1 X85.179 Y108.244 E-2.14641
;WIPE_END
G1 E-.15 F3600
G1 X83.021 Y113.991 F9000
G1 E10 F2400
;TYPE:Perimeter
;WIDTH:0.419999
G1 F1200
G1 X104.467 Y113.719 E.67249
G1 X104.943 Y113.624 E.01522
G1 X105.255 Y113.479 E.01078
G1 X105.566 Y113.205 E.013
G1 X106.04 Y112.583 E.02449
G1 X106.445 Y112.148 E.01864
G1 X106.892 Y111.762 E.01853
G1 X107.317 Y111.466 E.01625
G1 X107.899 Y111.142 E.02086
G1 X108.441 Y110.919 E.01838
G1 X108.93 Y110.777 E.01597
G1 X109.464 Y110.678 E.01704
G1 X109.969 Y110.625 E.0159
G1 X110.598 Y110.628 E.01975
G1 X111.127 Y110.691 E.01668
G1 X111.656 Y110.8 E.01693
G1 X112.808 Y111.18 E.03806
G1 X113.352 Y111.177 E.01705
G1 X113.672 Y111.086 E.01042
G1 X114.137 Y110.774 E.01756
G1 X125.203 Y99.717 E.49049
G1 X133.02 Y99.721 E.24507
G1 X135.357 Y101.474 E.09159
G1 X132.043 Y101.478 E.10389
G1 X131.707 Y101.54 E.0107
G1 X131.306 Y101.719 E.01377
G1 X130.309 Y102.383 E.03755
G1 X130.067 Y102.618 E.01059
G1 X129.832 Y102.983 E.01362
G1 X126.955 Y109.694 E.22894
G1 X115.279 Y116.705 E.42703
G1 X114.85 Y116.984 E.01603
G1 X114.509 Y117.411 E.01713
G1 X114.355 Y117.876 E.01536
G1 X114.373 Y118.527 E.02044
G1 X114.494 Y118.942 E.01353
G1 X114.636 Y119.173 E.00853
G1 X112.37 Y119.452 E.0716
G1 X111.286 Y119.817 E.03586
G1 X110.779 Y119.923 E.01625
G1 X110.216 Y119.965 E.0177
G1 X88.252 Y120.268 E.68873
G1 X83.059 Y114.037 E.25429
G1 X82.456 Y113.621 F9000
G1 F1200
G1 X104.524 Y113.338 E.69198
G1 X104.986 Y113.203 E.0151
G1 X105.266 Y112.976 E.01132
G1 X105.751 Y112.34 E.02508
G1 X106.183 Y111.876 E.01986
G1 X106.66 Y111.463 E.01979
G1 X107.118 Y111.145 E.01747
G1 X107.735 Y110.802 E.02215
G1 X108.316 Y110.563 E.0197
G1 X108.92 Y110.388 E.0197
G1 X109.616 Y110.271 E.02214
G1 X110.172 Y110.234 E.01747
G1 X110.801 Y110.259 E.01973
G1 X111.498 Y110.368 E.02212
G1 X112.038 Y110.511 E.01751
G1 X112.733 Y110.769 E.02326
G1 X112.963 Y110.815 E.00735
G1 X113.456 Y110.768 E.01554
G1 X113.87 Y110.507 E.01535
G1 X125.047 Y99.34 E.49538
G1 X133.145 Y99.344 E.25391
G1 X136.486 Y101.85 E.13093
G1 X131.947 Y101.863 E.14233
G1 X131.515 Y102.032 E.01453
G1 X130.519 Y102.697 E.03755
G1 X130.373 Y102.837 E.00635
G1 X130.178 Y103.132 E.01106
G1 X127.243 Y109.961 E.23308
G1 X115.196 Y117.194 E.44058
G1 X114.878 Y117.527 E.01442
G1 X114.729 Y117.926 E.01335
G1 X114.75 Y118.508 E.01826
G1 X114.822 Y118.756 E.00812
G1 X114.926 Y118.94 E.00662
G1 X115.157 Y119.185 E.01057
G1 X115.611 Y119.434 E.01622
G1 X112.416 Y119.826 E.10094
G1 X111.39 Y120.179 E.03402
G1 X110.774 Y120.306 E.0197
G1 X110.229 Y120.342 E.01714
G1 X88.077 Y120.647 E.69462
G1 X82.377 Y113.807 E.27916
G1 X82.432 Y113.676 E.00446
G1 X82.173 Y113.321 F9000
;TYPE:External perimeter
G1 F1200
G1 X82.297 Y113.246 E.00455
G1 X104.458 Y112.965 E.69491
G1 X104.754 Y112.894 E.00954
G1 X104.966 Y112.747 E.0081
G1 X105.462 Y112.097 E.02566
G1 X105.921 Y111.605 E.02108
G1 X106.429 Y111.165 E.02106
G1 X106.918 Y110.825 E.01869
G1 X107.571 Y110.462 E.02343
G1 X108.192 Y110.207 E.02103
G1 X108.835 Y110.019 E.02102
G1 X109.572 Y109.896 E.02343
G1 X110.167 Y109.856 E.01869
G1 X110.837 Y109.883 E.02104
G1 X111.576 Y109.998 E.02342
G1 X112.152 Y110.151 E.0187
G1 X112.864 Y110.416 E.02383
G1 X113.277 Y110.426 E.01295
G1 X113.604 Y110.24 E.01178
G1 X124.811 Y99.043 E.49674
G1 X124.965 Y98.963 E.00543
G1 X133.173 Y98.967 E.25735
G1 X133.321 Y99.005 E.0048
G1 X137.294 Y101.985 E.15572
G1 X137.482 Y102.181 E.00852
G1 X137.226 Y102.226 E.00816
G1 X132.044 Y102.232 E.16247
G1 X131.724 Y102.346 E.01064
G1 X130.728 Y103.01 E.03755
G1 X130.525 Y103.28 E.01058
G1 X127.61 Y110.081 E.23199
G1 X127.488 Y110.254 E.00664
G1 X115.39 Y117.518 E.44244
G1 X115.205 Y117.719 E.00856
G1 X115.103 Y117.975 E.00867
G1 X115.126 Y118.488 E.01609
G1 X115.254 Y118.755 E.00928
G1 X115.446 Y118.929 E.00811
G1 X116.058 Y119.243 E.02158
G1 X116.276 Y119.674 E.01513
G1 X116.213 Y119.739 E.00286
G1 X112.417 Y120.212 E.11994
G1 X111.775 Y120.461 E.02158
G1 X111.277 Y120.604 E.01625
G1 X110.768 Y120.69 E.01618
G1 X110.242 Y120.719 E.01652
G1 X87.952 Y121.026 E.69894
G1 X87.848 Y120.962 E.00382
G1 X82.02 Y113.967 E.28547
G1 X81.958 Y113.832 E.00466
G1 X82.149 Y113.377 E.0155
G1 X82.314 Y113.355 F9000
G1 E-7 F3600
;WIPE_START
G1 F7200
G1 X82.297 Y113.246 E-.09355
G1 X88.099 Y113.172 E-2.75645
;WIPE_END
G1 E-.15 F3600
G1 X107.462 Y115.515 F9000
G1 E10 F2400
;TYPE:Perimeter
G1 F1200
G1 X107.479 Y115.412 E.00325
G1 X107.683 Y114.85 E.01876
G1 X107.951 Y114.402 E.01637
G1 X108.296 Y114.015 E.01626
G1 X108.74 Y113.676 E.01752
G1 X109.278 Y113.414 E.01876
G1 X109.859 Y113.269 E.01876
G1 X110.457 Y113.249 E.01876
G1 X111.046 Y113.353 E.01876
G1 X111.6 Y113.577 E.01876
G1 X112.096 Y113.912 E.01876
G1 X112.511 Y114.342 E.01876
G1 X112.81 Y114.818 E.01761
G1 X113.032 Y115.412 E.01989
G1 X113.107 Y115.926 E.01628
G1 X113.112 Y116.132 E.00647
G1 X113.06 Y116.687 E.01745
G1 X112.908 Y117.176 E.01608
G1 X112.662 Y117.644 E.01659
G1 X112.242 Y118.162 E.02089
G1 X111.771 Y118.53 E.01876
G1 X111.233 Y118.792 E.01876
G1 X110.652 Y118.937 E.01876
G1 X110.055 Y118.957 E.01876
G1 X109.466 Y118.853 E.01876
G1 X108.911 Y118.629 E.01876
G1 X108.415 Y118.294 E.01876
G1 X108 Y117.864 E.01876
G1 X107.683 Y117.356 E.01876
G1 X107.479 Y116.794 E.01876
G1 X107.401 Y116.25 E.01724
G1 X107.428 Y115.715 E.01678
G1 X107.452 Y115.574 E.00449
G1 X107.83 Y115.596 F9000
G1 F1200
G1 X107.837 Y115.529 E.00211
G1 X108.01 Y115.038 E.0163
G1 X108.28 Y114.595 E.01629
G1 X108.637 Y114.217 E.01629
G1 X109.064 Y113.922 E.01629
G1 X109.544 Y113.722 E.01629
G1 X110.055 Y113.626 E.01629
G1 X110.574 Y113.638 E.01629
G1 X111.08 Y113.758 E.01629
G1 X111.549 Y113.981 E.01629
G1 X111.962 Y114.296 E.01629
G1 X112.301 Y114.69 E.01629
G1 X112.55 Y115.146 E.01629
G1 X112.698 Y115.644 E.01629
G1 X112.736 Y116.101 E.01438
G1 X112.691 Y116.613 E.0161
G1 X112.529 Y117.113 E.01648
G1 X112.273 Y117.559 E.01612
G1 X111.874 Y117.989 E.0184
G1 X111.447 Y118.284 E.01629
G1 X110.967 Y118.484 E.01629
G1 X110.457 Y118.58 E.01629
G1 X109.937 Y118.568 E.01629
G1 X109.432 Y118.448 E.01629
G1 X108.962 Y118.225 E.01629
G1 X108.549 Y117.91 E.01629
G1 X108.211 Y117.516 E.01629
G1 X107.962 Y117.06 E.01629
G1 X107.813 Y116.562 E.01629
G1 X107.783 Y116.005 E.0175
G1 X107.823 Y115.655 E.01103
G1 X108.196 Y115.645 F9000
;TYPE:External perimeter
G1 F1200
G1 X108.382 Y115.147 E.01667
G1 X108.586 Y114.819 E.01213
G1 X108.918 Y114.479 E.0149
G1 X109.314 Y114.223 E.01478
G1 X109.728 Y114.068 E.01387
G1 X110.194 Y114.003 E.01473
G1 X110.496 Y114.007 E.00947
G1 X110.926 Y114.103 E.01383
G1 X111.328 Y114.286 E.01383
G1 X111.682 Y114.548 E.01383
G1 X111.974 Y114.879 E.01383
G1 X112.191 Y115.263 E.01383
G1 X112.323 Y115.684 E.01383
G1 X112.361 Y116.07 E.01218
G1 X112.315 Y116.561 E.01544
G1 X112.175 Y116.979 E.01384
G1 X111.951 Y117.359 E.01383
G1 X111.653 Y117.684 E.01383
G1 X111.293 Y117.94 E.01383
G1 X110.889 Y118.116 E.01383
G1 X110.457 Y118.203 E.01383
G1 X110.015 Y118.199 E.01383
G1 X109.585 Y118.103 E.01383
G1 X109.184 Y117.92 E.01383
G1 X108.829 Y117.658 E.01383
G1 X108.537 Y117.327 E.01383
G1 X108.32 Y116.943 E.01383
G1 X108.183 Y116.475 E.01531
G1 X108.159 Y116.036 E.01379
G1 X108.19 Y115.705 E.01041
G1 X107.908 Y115.368 F9000
G1 E-7 F3600
;WIPE_START
G1 F7200
G1 X108.382 Y115.147 E-.28013
G1 X108.586 Y114.819 E-.18375
G1 X108.918 Y114.479 E-.22574
G1 X109.314 Y114.223 E-.22386
G1 X109.728 Y114.068 E-.2101
G1 X110.194 Y114.003 E-.2232
G1 X110.496 Y114.007 E-.14347
G1 X110.926 Y114.103 E-.20951
G1 X111.328 Y114.286 E-.20951
G1 X111.682 Y114.548 E-.20951
G1 X111.974 Y114.879 E-.20951
G1 X112.191 Y115.263 E-.20951
G1 X112.323 Y115.684 E-.20951
G1 X112.344 Y115.899 E-.1027
;WIPE_END
G1 E-.15 F3600
G1 X132.625 Y99.842 F9000
G1 E10 F2400
;TYPE:Solid infill
;WIDTH:0.42229
G1 F1200
G1 X133.969 Y101.185 E.05994
G1 X133.433 Y101.186 E.0169
G1 X132.258 Y100.011 E.05241
G1 X131.721 Y100.011 E.01693
G1 X132.897 Y101.187 E.05245
G1 X132.361 Y101.187 E.0169
G1 X131.184 Y100.011 E.05249
G1 X130.648 Y100.01 E.01693
G1 X131.842 Y101.205 E.05328
G1 X131.436 Y101.335 E.01345
G1 X130.111 Y100.01 E.05912
G1 X129.574 Y100.01 E.01693
G1 X131.083 Y101.518 E.0673
G1 X130.761 Y101.733 E.0122
G1 X129.037 Y100.01 E.07689
G1 X128.5 Y100.009 E.01693
G1 X130.439 Y101.948 E.08648
G1 X130.121 Y102.166 E.01217
G1 X127.964 Y100.009 E.09622
G1 X127.427 Y100.009 E.01693
G1 X129.848 Y102.43 E.108
G1 X129.631 Y102.75 E.01219
G1 X126.89 Y100.008 E.12229
G1 X126.353 Y100.008 E.01693
G1 X129.459 Y103.114 E.13857
G1 X129.298 Y103.49 E.01289
G1 X125.816 Y100.008 E.15534
G1 X125.323 Y100.008 E.01555
G1 X125.301 Y100.029 E.00098
G1 X129.138 Y103.865 E.17113
G1 X128.977 Y104.241 E.01289
G1 X125.033 Y100.298 E.17592
G1 X124.765 Y100.566 E.01197
G1 X128.816 Y104.617 E.18071
G1 X128.655 Y104.992 E.01289
G1 X124.496 Y100.834 E.18551
G1 X124.228 Y101.102 E.01197
G1 X128.494 Y105.368 E.1903
G1 X128.333 Y105.743 E.01289
G1 X123.96 Y101.37 E.19509
G1 X123.691 Y101.638 E.01197
G1 X128.172 Y106.119 E.19988
G1 X128.011 Y106.494 E.01289
G1 X123.423 Y101.906 E.20468
G1 X123.154 Y102.175 E.01197
G1 X127.85 Y106.87 E.20947
G1 X127.689 Y107.245 E.01289
G1 X122.886 Y102.443 E.21426
G1 X122.618 Y102.711 E.01197
G1 X127.528 Y107.621 E.21905
G1 X127.367 Y107.997 E.01289
G1 X122.349 Y102.979 E.22384
G1 X122.081 Y103.247 E.01197
G1 X127.206 Y108.372 E.22864
G1 X127.045 Y108.748 E.01289
G1 X121.813 Y103.515 E.23343
G1 X121.544 Y103.783 E.01197
G1 X126.884 Y109.123 E.23822
G1 X126.725 Y109.494 E.01271
G1 X121.276 Y104.051 E.24295
G1 X121.007 Y104.32 E.01197
G1 X126.386 Y109.698 E.23993
G1 X126.051 Y109.899 E.01233
G1 X120.739 Y104.588 E.23695
G1 X120.471 Y104.856 E.01197
G1 X125.716 Y110.101 E.23398
G1 X125.38 Y110.302 E.01233
G1 X120.202 Y105.124 E.231
G1 X119.934 Y105.392 E.01197
G1 X125.045 Y110.503 E.22802
G1 X124.71 Y110.705 E.01233
G1 X119.666 Y105.66 E.22504
G1 X119.397 Y105.928 E.01197
G1 X124.375 Y110.906 E.22207
G1 X124.04 Y111.108 E.01233
G1 X119.129 Y106.197 E.21909
G1 X118.86 Y106.465 E.01197
G1 X123.705 Y111.309 E.21611
G1 X123.37 Y111.51 E.01233
G1 X118.592 Y106.733 E.21313
G1 X118.324 Y107.001 E.01197
G1 X123.035 Y111.712 E.21016
G1 X122.7 Y111.913 E.01233
G1 X118.055 Y107.269 E.20718
G1 X117.787 Y107.537 E.01197
G1 X122.364 Y112.115 E.2042
G1 X122.029 Y112.316 E.01233
G1 X117.519 Y107.805 E.20123
G1 X117.25 Y108.073 E.01197
G1 X121.694 Y112.517 E.19825
G1 X121.359 Y112.719 E.01233
G1 X116.982 Y108.342 E.19527
G1 X116.713 Y108.61 E.01197
G1 X121.024 Y112.92 E.19229
G1 X120.689 Y113.122 E.01233
G1 X116.445 Y108.878 E.18932
G1 X116.177 Y109.146 E.01197
G1 X120.354 Y113.323 E.18634
G1 X120.019 Y113.524 E.01233
G1 X115.908 Y109.414 E.18336
G1 X115.64 Y109.682 E.01197
G1 X119.683 Y113.726 E.18038
G1 X119.348 Y113.927 E.01233
G1 X115.372 Y109.95 E.17741
G1 X115.103 Y110.219 E.01197
G1 X119.013 Y114.129 E.17443
G1 X118.678 Y114.33 E.01233
G1 X114.835 Y110.487 E.17145
G1 X114.566 Y110.755 E.01197
G1 X118.343 Y114.531 E.16848
G1 X118.008 Y114.733 E.01233
G1 X114.294 Y111.018 E.1657
G1 X114.125 Y111.152 E.0068
G1 X113.975 Y111.236 E.00541
G1 X117.673 Y114.934 E.16498
G1 X117.338 Y115.136 E.01233
G1 X113.614 Y111.412 E.16611
G1 X113.384 Y111.466 E.00744
G1 X113.141 Y111.476 E.00768
G1 X117.003 Y115.337 E.17226
G1 X116.667 Y115.538 E.01233
G1 X112.537 Y111.408 E.18425
G1 X111.706 Y111.113 E.02783
G1 X116.332 Y115.74 E.20639
G1 X115.997 Y115.941 E.01233
G1 X111.026 Y110.97 E.22179
G1 X110.736 Y110.924 E.00925
G1 X110.432 Y110.912 E.0096
G1 X115.662 Y116.143 E.23332
G1 X115.327 Y116.344 E.01233
G1 X109.904 Y110.921 E.24195
G1 X109.426 Y110.979 E.01518
G1 X114.992 Y116.545 E.24831
G1 X114.747 Y116.693 E.00903
G1 X114.672 Y116.762 E.00321
G1 X113.33 Y115.42 E.0599
G1 X113.362 Y115.569 E.00482
G1 X113.401 Y116.027 E.01449
G1 X114.416 Y117.042 E.04528
G1 X114.324 Y117.154 E.00455
G1 X114.211 Y117.374 E.00782
G1 X113.371 Y116.533 E.03751
G1 X113.277 Y116.977 E.01429
G1 X114.084 Y117.783 E.03598
G1 X114.058 Y118.057 E.00868
G1 X114.071 Y118.307 E.00788
G1 X113.142 Y117.378 E.04144
G1 X112.95 Y117.722 E.01244
G1 X114.166 Y118.939 E.05427
G1 X113.688 Y118.997 E.01518
G1 X112.737 Y118.046 E.04246
G1 X112.483 Y118.329 E.01199
G1 X113.211 Y119.056 E.03245
G1 X112.733 Y119.115 E.01518
G1 X112.197 Y118.579 E.02392
G1 X111.883 Y118.802 E.01214
G1 X112.26 Y119.179 E.01681
G1 X112.151 Y119.2 E.0035
G1 X111.857 Y119.312 E.00993
G1 X111.518 Y118.973 E.01512
G1 X111.136 Y119.127 E.01301
G1 X111.468 Y119.46 E.01483
G1 X111.053 Y119.581 E.01364
G1 X110.687 Y119.215 E.01633
G1 X110.529 Y119.246 E.00508
G1 X110.183 Y119.247 E.01092
G1 X110.589 Y119.653 E.01812
G1 X110.075 Y119.676 E.01621
G1 X109.336 Y118.937 E.03299
G1 E-7 F3600
;WIPE_START
G1 F7200
G1 X110.075 Y119.676 E-.49676
G1 X110.589 Y119.653 E-.24416
G1 X110.183 Y119.247 E-.2728
G1 X110.529 Y119.246 E-.16451
G1 X110.687 Y119.215 E-.07647
G1 X111.053 Y119.581 E-.24595
G1 X111.468 Y119.46 E-.20543
G1 X111.136 Y119.127 E-.22334
G1 X111.518 Y118.973 E-.19584
G1 X111.857 Y119.312 E-.22763
G1 X112.151 Y119.2 E-.14948
G1 X112.26 Y119.179 E-.05269
G1 X111.883 Y118.802 E-.2532
G1 X111.955 Y118.751 E-.04175
;WIPE_END
G1 E-.15 F3600
G1 X111.18 Y113.27 F9000
G1 E10 F2400
G1 F1200
G1 X108.976 Y111.066 E.09829
G1 X108.561 Y111.187 E.01365
G1 X110.339 Y112.965 E.07932
G1 X110.052 Y112.958 E.00905
G1 X109.819 Y112.982 E.00737
G1 X108.178 Y111.341 E.07319
G1 X107.819 Y111.519 E.01263
G1 X109.378 Y113.078 E.06953
G1 X108.994 Y113.23 E.01303
G1 X107.475 Y111.711 E.0678
