; generated by PrusaSlicer 2.5.0+win64 on 2023-04-20 at 22:48:53 UTC

; 

; external perimeters extrusion width = 0.42mm
; perimeters extrusion width = 0.44mm
; infill extrusion width = 0.44mm
; solid infill extrusion width = 0.44mm
; top infill extrusion width = 0.40mm
; first layer extrusion width = 0.42mm

M201 X500 Y500 Z100 E5000 ; sets maximum accelerations, mm/sec^2
M203 X500 Y500 Z10 E60 ; sets maximum feedrates, mm / sec
M204 P500 R1000 T500 ; sets acceleration (P, T) and retract acceleration (R), mm/sec^2
M205 X8.00 Y8.00 Z0.40 E5.00 ; sets the jerk limits, mm/sec
M205 S0 T0 ; sets the minimum extruding and travel feed rate, mm/sec
M107
;TYPE:Custom
G90 ; use absolute coordinates
M83 ; extruder relative mode
M104 S150 ; set temporary nozzle temp to prevent oozing during homing
M140 S70 ; set final bed temp
G4 S30 ; allow partial nozzle warmup
G28 ; home all axis
G1 Z50 F240
G1 X2.0 Y10 F3000
M104 S210 ; set final nozzle temp
M190 S70 ; wait for bed temp to stabilize
M109 S210 ; wait for nozzle temp to stabilize
G1 Z0.28 F240
G92 E0
G1 X2.0 Y140 E10 F1500 ; prime the nozzle
G1 X2.3 Y140 F5000
G92 E0
G1 X2.3 Y10 E10 F1200 ; prime the nozzle
G92 E0
G21 ; set units to millimeters
G90 ; use absolute coordinates
M83 ; use relative distances for extrusion
; Filament gcode
M107
;LAYER_CHANGE
;Z:0.2
;HEIGHT:0.2
;BEFORE_LAYER_CHANGE
G92 E0
;0.2


G1 E-5 F3600
G1 Z.2 F9000
;AFTER_LAYER_CHANGE
;0.2
G1 X48.785 Y38.682
G1 E5 F2400
M204 S500
;TYPE:Skirt/Brim
;WIDTH:0.42
G1 F1200
G1 X59.705 Y24.911 E.55105
G1 X77.33 Y4.779 E.83896
G1 X78.195 Y4.045 E.03555
G1 X78.823 Y3.732 E.02202
G1 X79.4 Y3.559 E.01887
G1 X85.091 Y3.118 E.17898
G1 X85.952 Y3.238 E.02724
G1 X86.425 Y3.395 E.01563
G1 X87.366 Y3.947 E.03422
G1 X87.813 Y4.364 E.01916
G1 X115.952 Y35.364 E1.31272
G1 X116.528 Y36.196 E.03172
G1 X116.807 Y36.906 E.02391
G1 X159.96 Y194.914 E5.13565
G1 X159.991 Y196.11 E.03753
G1 X159.803 Y196.922 E.02614
G1 X158.793 Y199.297 E.0809
G1 X158.273 Y200.082 E.02952
G1 X148.804 Y209.57 E.42029
G1 X148.369 Y209.941 E.01794
G1 X147.485 Y210.432 E.03169
G1 X146.503 Y210.677 E.03172
G1 X145.493 Y210.66 E.0317
G1 X144.52 Y210.382 E.0317
G1 X143.559 Y209.787 E.03544
G1 X44.71 Y128.124 E4.0202
G1 X44.23 Y127.436 E.0263
G1 X22.881 Y88.043 E1.40488
G1 X22.539 Y87.169 E.0294
G1 X20.073 Y76.785 E.33463
G1 X20.053 Y75.9 E.02777
G1 X20.211 Y75.12 E.02495
G1 X20.514 Y74.419 E.02396
G1 X20.832 Y73.937 E.0181
G1 X48.748 Y38.729 E1.40881
; printing object Seite_L_V1.stl id:0 copy 0
G1 E-3.5 F3600
;WIPE_START
G1 F7200
G1 X50.612 Y36.379 E-1.425
;WIPE_END
G1 E-.075 F3600
G1 X50.863 Y124.482 F9000
G1 E5 F2400
;TYPE:Perimeter
;WIDTH:0.419999
G1 F1200
G1 X51.136 Y124.383 E.00912
G1 X51.733 Y123.956 E.023
;WIDTH:0.405609
G1 X51.891 Y123.772 E.00731
;WIDTH:0.411022
G1 X51.95 Y123.73 E.00222
;WIDTH:0.453699
G1 X52.01 Y123.688 E.00248
;WIDTH:0.496376
G1 X52.069 Y123.646 E.00274
;WIDTH:0.539054
G1 X52.128 Y123.604 E.003
;WIDTH:0.581731
G1 X52.187 Y123.562 E.00325
;WIDTH:0.624408
G1 X52.246 Y123.52 E.00351
G1 X52.232 Y123.592 E.00358
;WIDTH:0.581731
G1 X52.217 Y123.665 E.00331
;WIDTH:0.539054
G1 X52.203 Y123.737 E.00305
;WIDTH:0.496376
G1 X52.189 Y123.81 E.00279
;WIDTH:0.453699
G1 X52.174 Y123.882 E.00253
;WIDTH:0.411022
G1 X52.16 Y123.955 E.00226
;WIDTH:0.394172
G1 X51.949 Y124.281 E.01133
;WIDTH:0.419999
G1 X50.578 Y126.541 E.08289
G1 X48.323 Y125.178 E.08263
G1 X48.323 Y124.258 E.02885
G1 X48.541 Y124.382 E.00788
G1 X49.013 Y124.578 E.01602
G1 X49.716 Y124.697 E.02235
G1 X50.447 Y124.634 E.02301
G1 X50.807 Y124.503 E.012
G1 E-3.5 F3600
;WIPE_START
G1 F7200
G1 X51.136 Y124.383 E-.16672
G1 X51.733 Y123.956 E-.34841
G1 X51.891 Y123.772 E-.11517
G1 X51.95 Y123.73 E-.0345
G1 X52.01 Y123.688 E-.0345
G1 X52.069 Y123.646 E-.0345
G1 X52.128 Y123.604 E-.0345
G1 X52.187 Y123.562 E-.0345
G1 X52.246 Y123.52 E-.0345
G1 X52.232 Y123.592 E-.03514
G1 X52.217 Y123.665 E-.03514
G1 X52.203 Y123.737 E-.03514
G1 X52.189 Y123.81 E-.03514
G1 X52.174 Y123.882 E-.03514
G1 X52.16 Y123.955 E-.03514
G1 X51.949 Y124.281 E-.18428
G1 X51.739 Y124.628 E-.1926
;WIPE_END
G1 E-.075 F3600
G1 X31.247 Y81.838 F9000
G1 E5 F2400
G1 F1200
G1 X31.526 Y81.437 E.0153
G1 X31.992 Y81.039 E.01924
G1 X32.265 Y80.87 E.01006
G1 X32.913 Y80.636 E.02159
G1 X33.421 Y80.574 E.01606
G1 X34.026 Y80.635 E.01906
G1 X34.687 Y80.87 E.022
G1 X35.252 Y81.263 E.02159
G1 X35.696 Y81.789 E.02159
G1 X35.989 Y82.412 E.02159
G1 X36.111 Y83.09 E.02159
G1 X36.053 Y83.776 E.02159
G1 X35.829 Y84.401 E.02081
G1 X35.434 Y84.979 E.02194
G1 X35.252 Y85.163 E.00812
G1 X34.687 Y85.557 E.0216
G1 X34.039 Y85.79 E.02159
G1 X33.353 Y85.848 E.02159
G1 X32.675 Y85.727 E.02159
G1 X32.265 Y85.557 E.01392
G1 X31.7 Y85.163 E.02159
G1 X31.256 Y84.637 E.02159
G1 X30.963 Y84.014 E.02159
G1 X30.841 Y83.336 E.02159
G1 X30.899 Y82.65 E.02159
G1 X31.133 Y82.002 E.02159
G1 X31.213 Y81.887 E.00441
G1 X31.556 Y82.042 F9000
G1 F1200
G1 X31.825 Y81.667 E.01447
G1 X32.222 Y81.338 E.01616
G1 X32.409 Y81.218 E.00698
G1 X32.962 Y81.01 E.01852
G1 X33.517 Y80.955 E.01749
G1 X34.132 Y81.048 E.01951
G1 X34.671 Y81.292 E.01852
G1 X35.127 Y81.667 E.01852
G1 X35.471 Y82.147 E.01852
G1 X35.679 Y82.699 E.01852
G1 X35.742 Y83.222 E.0165
G1 X35.679 Y83.727 E.01597
G1 X35.481 Y84.257 E.01773
G1 X35.132 Y84.754 E.01903
G1 X34.671 Y85.135 E.01876
G1 X34.133 Y85.378 E.01852
G1 X33.55 Y85.474 E.01852
G1 X32.962 Y85.416 E.01852
G1 X32.409 Y85.208 E.01852
G1 X31.929 Y84.864 E.01852
G1 X31.555 Y84.408 E.01852
G1 X31.311 Y83.87 E.01852
G1 X31.215 Y83.287 E.01852
G1 X31.273 Y82.699 E.01852
G1 X31.481 Y82.147 E.01852
G1 X31.521 Y82.091 E.00216
G1 X31.854 Y82.248 F9000
;TYPE:External perimeter
G1 F1200
G1 X32.159 Y81.861 E.01545
G1 X32.554 Y81.567 E.01545
G1 X33.011 Y81.384 E.01545
G1 X33.473 Y81.329 E.01458
G1 X33.988 Y81.397 E.01628
G1 X34.441 Y81.591 E.01545
G1 X34.828 Y81.896 E.01545
G1 X35.123 Y82.291 E.01545
G1 X35.305 Y82.749 E.01545
G1 X35.363 Y83.238 E.01545
G1 X35.293 Y83.726 E.01545
G1 X35.109 Y84.153 E.01458
G1 X34.797 Y84.562 E.01614
G1 X34.398 Y84.86 E.0156
G1 X33.941 Y85.043 E.01545
G1 X33.451 Y85.101 E.01545
G1 X32.964 Y85.03 E.01545
G1 X32.554 Y84.86 E.01392
G1 X32.143 Y84.551 E.01613
G1 X31.829 Y84.136 E.01631
G1 X31.647 Y83.678 E.01545
G1 X31.589 Y83.189 E.01545
G1 X31.695 Y82.615 E.01829
G1 X31.83 Y82.303 E.01065
G1 X31.658 Y81.899 F9000
G1 E-3.5 F3600
;WIPE_START
G1 F7200
G1 X32.159 Y81.861 E-.2617
G1 X32.554 Y81.567 E-.23403
G1 X33.011 Y81.384 E-.23404
G1 X33.473 Y81.329 E-.22091
G1 X33.988 Y81.397 E-.24671
G1 X34.428 Y81.586 E-.22761
;WIPE_END
G1 E-.075 F3600
G1 X75.287 Y65.412 F9000
G1 E5 F2400
;TYPE:Perimeter
G1 F1200
G1 X75.141 Y65.444 E.00467
G1 X74.459 Y65.5 E.02147
G1 X74.213 Y65.489 E.00772
G1 X73.54 Y65.367 E.02147
G1 X73.305 Y65.291 E.00772
G1 X72.686 Y64.999 E.02147
G1 X72.479 Y64.866 E.00772
G1 X71.963 Y64.429 E.02121
G1 X63.799 Y55.446 E.38061
G1 X63.336 Y54.793 E.02507
G1 X63.224 Y54.574 E.00772
G1 X62.993 Y53.93 E.02147
G1 X62.94 Y53.689 E.00772
G1 X62.884 Y53.007 E.02147
G1 X62.896 Y52.761 E.00772
G1 X63.018 Y52.088 E.02147
G1 X63.093 Y51.853 E.00772
G1 X63.385 Y51.234 E.02147
G1 X63.961 Y50.505 E.02913
G1 X64.143 Y50.339 E.00772
G1 X64.706 Y49.949 E.02147
G1 X64.925 Y49.837 E.00772
G1 X65.569 Y49.606 E.02147
G1 X65.81 Y49.554 E.00772
G1 X66.492 Y49.497 E.02147
G1 X66.738 Y49.509 E.00772
G1 X67.411 Y49.631 E.02147
G1 X67.646 Y49.706 E.00772
G1 X68.265 Y49.998 E.02147
G1 X68.472 Y50.132 E.00772
G1 X69.077 Y50.655 E.02507
G1 X77.153 Y59.552 E.37675
G1 X77.615 Y60.205 E.02507
G1 X77.727 Y60.423 E.00772
G1 X77.959 Y61.068 E.02147
G1 X78.011 Y61.308 E.00772
G1 X78.067 Y61.991 E.02147
G1 X78.022 Y62.42 E.01354
G1 X77.924 Y62.953 E.017
G1 X77.566 Y63.763 E.02777
G1 X77.433 Y63.97 E.00772
G1 X76.99 Y64.493 E.02147
G1 X76.808 Y64.658 E.00772
G1 X76.245 Y65.048 E.02147
G1 X76.026 Y65.161 E.00772
G1 X75.346 Y65.4 E.02262
G1 X75.174 Y65.046 F9000
G1 F1200
G1 X74.428 Y65.125 E.02352
G1 X73.607 Y64.995 E.02606
G1 X72.847 Y64.658 E.02606
G1 X72.207 Y64.141 E.02581
G1 X64.078 Y55.192 E.37907
G1 X63.646 Y54.578 E.02353
G1 X63.348 Y53.802 E.02606
G1 X63.26 Y52.976 E.02606
G1 X63.389 Y52.155 E.02606
G1 X63.726 Y51.395 E.02606
G1 X64.249 Y50.749 E.02606
G1 X64.921 Y50.259 E.02606
G1 X65.697 Y49.961 E.02606
G1 X66.523 Y49.873 E.02606
G1 X67.344 Y50.002 E.02606
G1 X68.104 Y50.339 E.02606
G1 X68.798 Y50.908 E.02812
G1 X76.873 Y59.805 E.37675
G1 X77.305 Y60.419 E.02353
G1 X77.604 Y61.195 E.02606
G1 X77.691 Y62.022 E.02606
G1 X77.562 Y62.843 E.02606
G1 X77.225 Y63.602 E.02606
G1 X76.702 Y64.249 E.02606
G1 X76.03 Y64.738 E.02606
G1 X75.234 Y65.039 E.02671
G1 X75.127 Y64.682 F9000
;TYPE:External perimeter
G1 F1200
G1 X74.397 Y64.749 E.023
G1 X73.674 Y64.624 E.023
G1 X73.008 Y64.317 E.023
G1 X72.451 Y63.853 E.02274
G1 X64.357 Y54.939 E.37752
G1 X63.956 Y54.363 E.02199
G1 X63.703 Y53.675 E.023
G1 X63.636 Y52.945 E.023
G1 X63.76 Y52.222 E.023
G1 X64.067 Y51.556 E.023
G1 X64.537 Y50.992 E.023
G1 X65.136 Y50.569 E.023
G1 X65.824 Y50.316 E.023
G1 X66.554 Y50.249 E.023
G1 X67.277 Y50.373 E.023
G1 X67.943 Y50.68 E.023
G1 X68.518 Y51.162 E.02352
G1 X76.594 Y60.059 E.37675
G1 X76.995 Y60.634 E.02199
G1 X77.249 Y61.322 E.023
G1 X77.316 Y62.053 E.023
G1 X77.191 Y62.776 E.023
G1 X76.884 Y63.442 E.023
G1 X76.415 Y64.005 E.023
G1 X75.816 Y64.428 E.023
G1 X75.184 Y64.661 E.02112
G1 X75.009 Y65.064 F9000
G1 E-3.5 F3600
;WIPE_START
G1 F7200
G1 X74.397 Y64.749 E-.37598
G1 X73.674 Y64.624 E-.34838
G1 X73.008 Y64.317 E-.34839
G1 X72.451 Y63.853 E-.34457
G1 X72.44 Y63.841 E-.00768
;WIPE_END
G1 E-.075 F3600
G1 X96.609 Y37.884 F9000
G1 E5 F2400
;TYPE:Perimeter
G1 F1200
G1 X96.602 Y38.033 E.00467
G1 X96.48 Y38.707 E.02147
G1 X96.405 Y38.941 E.00772
G1 X96.053 Y39.668 E.02532
G1 X95.537 Y40.289 E.02533
G1 X95.354 Y40.455 E.00772
G1 X94.792 Y40.845 E.02147
G1 X94.573 Y40.957 E.00772
G1 X93.928 Y41.189 E.02147
G1 X93.688 Y41.241 E.00772
G1 X93.006 Y41.297 E.02147
G1 X92.76 Y41.285 E.00772
G1 X92.086 Y41.163 E.02147
G1 X91.852 Y41.088 E.00772
G1 X91.233 Y40.796 E.02147
G1 X91.026 Y40.663 E.00772
G1 X90.421 Y40.14 E.02507
G1 X82.345 Y31.242 E.37675
G1 X81.883 Y30.59 E.02507
G1 X81.77 Y30.371 E.00772
G1 X81.539 Y29.726 E.02147
G1 X81.487 Y29.486 E.00772
G1 X81.431 Y28.804 E.02147
G1 X81.442 Y28.558 E.00772
G1 X81.564 Y27.884 E.02147
G1 X81.64 Y27.65 E.00772
G1 X81.932 Y27.031 E.02147
G1 X82.065 Y26.824 E.00772
G1 X82.508 Y26.301 E.02146
G1 X82.69 Y26.136 E.00772
G1 X83.252 Y25.746 E.02147
G1 X83.471 Y25.633 E.00772
G1 X84.116 Y25.402 E.02147
G1 X84.356 Y25.35 E.00772
G1 X85.038 Y25.294 E.02147
G1 X85.284 Y25.306 E.00772
G1 X85.958 Y25.428 E.02147
G1 X86.192 Y25.503 E.00772
G1 X86.811 Y25.795 E.02147
G1 X87.018 Y25.928 E.00772
G1 X87.623 Y26.451 E.02507
G1 X95.699 Y35.349 E.37675
G1 X96.161 Y36.001 E.02507
G1 X96.274 Y36.22 E.00772
G1 X96.505 Y36.864 E.02147
G1 X96.557 Y37.105 E.00772
G1 X96.612 Y37.824 E.02262
G1 X96.225 Y37.899 F9000
G1 F1200
G1 X96.109 Y38.639 E.02352
G1 X95.735 Y39.464 E.02837
G1 X95.249 Y40.046 E.02378
G1 X94.577 Y40.535 E.02606
G1 X93.801 Y40.834 E.02606
G1 X92.975 Y40.921 E.02606
G1 X92.153 Y40.792 E.02606
G1 X91.394 Y40.455 E.02606
G1 X90.7 Y39.886 E.02812
G1 X82.624 Y30.989 E.37675
G1 X82.193 Y30.375 E.02353
G1 X81.894 Y29.599 E.02606
G1 X81.806 Y28.773 E.02606
G1 X81.936 Y27.951 E.02606
G1 X82.273 Y27.192 E.02606
G1 X82.795 Y26.545 E.02606
G1 X83.467 Y26.056 E.02606
G1 X84.243 Y25.757 E.02606
G1 X85.07 Y25.67 E.02606
G1 X85.891 Y25.799 E.02606
G1 X86.65 Y26.136 E.02606
G1 X87.344 Y26.705 E.02812
G1 X95.42 Y35.602 E.37675
G1 X95.851 Y36.216 E.02353
G1 X96.15 Y36.992 E.02606
G1 X96.235 Y37.839 E.02671
G1 X95.862 Y37.849 F9000
;TYPE:External perimeter
G1 F1200
G1 X95.738 Y38.572 E.023
G1 X95.418 Y39.26 E.02377
G1 X94.961 Y39.802 E.02224
G1 X94.362 Y40.225 E.023
G1 X93.674 Y40.479 E.023
G1 X92.943 Y40.546 E.023
G1 X92.221 Y40.421 E.023
G1 X91.555 Y40.114 E.023
G1 X90.979 Y39.633 E.02352
G1 X82.902 Y30.734 E.37682
G1 X82.503 Y30.16 E.02191
G1 X82.249 Y29.472 E.023
G1 X82.182 Y28.741 E.023
G1 X82.307 Y28.019 E.023
G1 X82.614 Y27.353 E.023
G1 X83.083 Y26.789 E.023
G1 X83.682 Y26.366 E.023
G1 X84.37 Y26.112 E.023
G1 X85.101 Y26.045 E.023
G1 X85.823 Y26.17 E.023
G1 X86.489 Y26.477 E.023
G1 X87.065 Y26.958 E.02352
G1 X95.141 Y35.855 E.37675
G1 X95.541 Y36.431 E.02199
G1 X95.795 Y37.119 E.023
G1 X95.857 Y37.79 E.02111
G1 X96.2 Y38.063 F9000
G1 E-3.5 F3600
;WIPE_START
G1 F7200
G1 X95.738 Y38.572 E-.37599
G1 X95.418 Y39.26 E-.36006
G1 X94.961 Y39.802 E-.33689
G1 X94.362 Y40.225 E-.34838
G1 X94.355 Y40.228 E-.00368
;WIPE_END
G1 E-.075 F3600
G1 X133.051 Y182.898 F9000
G1 E5 F2400
;TYPE:Perimeter
G1 F1200
G1 X132.946 Y182.793 E.00467
G1 X132.513 Y182.229 E.02228
G1 X132.39 Y182.016 E.00772
G1 X132.118 Y181.36 E.02228
G1 X132.055 Y181.122 E.00772
G1 X131.962 Y180.417 E.02228
G1 X131.962 Y180.171 E.00772
G1 X132.055 Y179.466 E.02228
G1 X132.118 Y179.229 E.00772
G1 X132.39 Y178.572 E.02228
G1 X132.513 Y178.359 E.00772
G1 X132.946 Y177.795 E.02228
G1 X133.12 Y177.621 E.00772
G1 X133.684 Y177.188 E.02228
G1 X133.897 Y177.065 E.00772
G1 X134.554 Y176.793 E.02228
G1 X135.464 Y176.641 E.02893
G1 X136.436 Y176.728 E.03061
G1 X136.684 Y176.793 E.00805
G1 X137.341 Y177.065 E.02229
G1 X138.118 Y177.621 E.02995
G1 X138.292 Y177.795 E.00772
G1 X138.725 Y178.359 E.02228
G1 X138.848 Y178.572 E.00772
G1 X139.12 Y179.229 E.02228
G1 X139.276 Y180.171 E.02995
G1 X139.184 Y181.122 E.02995
G1 X138.86 Y181.986 E.02893
G1 X138.299 Y182.784 E.03061
G1 X138.118 Y182.967 E.00805
G1 X137.554 Y183.4 E.02229
G1 X137.341 Y183.523 E.00772
G1 X136.685 Y183.795 E.02228
G1 X136.447 Y183.859 E.00772
G1 X135.742 Y183.951 E.02228
G1 X135.496 Y183.951 E.00772
G1 X134.791 Y183.859 E.02228
G1 X134.554 Y183.795 E.00772
G1 X133.897 Y183.523 E.02228
G1 X133.684 Y183.4 E.00772
G1 X133.094 Y182.941 E.02344
G1 X133.299 Y182.604 F9000
G1 F1200
G1 X132.813 Y182 E.02433
G1 X132.467 Y181.215 E.02688
G1 X132.336 Y180.368 E.02688
G1 X132.429 Y179.516 E.02688
G1 X132.739 Y178.716 E.02688
G1 X133.228 Y178.048 E.02597
G1 X133.913 Y177.488 E.02777
G1 X134.698 Y177.142 E.02688
G1 X135.513 Y177.015 E.02586
G1 X136.391 Y177.103 E.02767
G1 X137.197 Y177.414 E.02708
G1 X137.889 Y177.92 E.02688
G1 X138.426 Y178.589 E.02688
G1 X138.771 Y179.373 E.02688
G1 X138.902 Y180.22 E.02688
G1 X138.81 Y181.073 E.02688
G1 X138.512 Y181.842 E.02586
G1 X137.997 Y182.558 E.02767
G1 X137.325 Y183.101 E.02708
G1 X136.54 Y183.446 E.02688
G1 X135.693 Y183.577 E.02688
G1 X134.841 Y183.485 E.02688
G1 X134.041 Y183.174 E.02688
G1 X133.336 Y182.651 E.02753
G1 X133.579 Y182.369 F9000
;TYPE:External perimeter
G1 F1200
G1 X133.112 Y181.77 E.02382
G1 X132.815 Y181.071 E.02381
G1 X132.71 Y180.319 E.02382
G1 X132.802 Y179.565 E.02382
G1 X133.087 Y178.861 E.02381
G1 X133.527 Y178.277 E.0229
G1 X134.143 Y177.787 E.0247
G1 X134.842 Y177.49 E.02382
G1 X135.562 Y177.389 E.02279
G1 X136.346 Y177.477 E.02474
G1 X137.053 Y177.762 E.02388
G1 X137.659 Y178.219 E.02382
G1 X138.126 Y178.818 E.02382
G1 X138.423 Y179.517 E.02381
G1 X138.529 Y180.269 E.02382
G1 X138.436 Y181.023 E.02382
G1 X138.164 Y181.697 E.02279
G1 X137.695 Y182.332 E.02474
G1 X137.095 Y182.801 E.02388
G1 X136.396 Y183.098 E.02382
G1 X135.644 Y183.204 E.02382
G1 X134.89 Y183.111 E.02382
G1 X134.186 Y182.826 E.02381
G1 X133.627 Y182.405 E.02193
G1 X133.194 Y182.476 F9000
G1 E-3.5 F3600
;WIPE_START
G1 F7200
G1 X133.112 Y181.77 E-.38839
G1 X132.815 Y181.071 E-.36078
G1 X132.71 Y180.319 E-.36079
G1 X132.791 Y179.66 E-.31504
;WIPE_END
G1 E-.075 F3600
G1 X114.642 Y175.727 F9000
G1 E5 F2400
;TYPE:Perimeter
G1 F1200
G1 X114.512 Y175.814 E.00488
G1 X113.058 Y177.268 E.06451
G1 X94.006 Y158.217 E.84479
G1 X95.027 Y157.196 E.04527
G1 X95.178 Y156.998 E.00781
G1 X95.415 Y156.541 E.01613
G1 X95.459 Y156.256 E.00903
G1 X95.413 Y155.644 E.01927
G1 X95.324 Y155.448 E.00673
G1 X95.027 Y154.995 E.01701
G1 X93.863 Y153.831 E.05161
G1 X94.873 Y154.126 E.03298
G1 X96.306 Y154.23 E.04507
G1 X97.728 Y154.021 E.04507
G1 X98.887 Y153.599 E.03867
G1 X99.072 Y153.508 E.00644
G1 X100.112 Y152.846 E.03867
