; generated by PrusaSlicer 2.5.0+win64 on 2023-04-22 at 20:18:20 UTC

; 

; external perimeters extrusion width = 0.42mm
; perimeters extrusion width = 0.44mm
; infill extrusion width = 0.44mm
; solid infill extrusion width = 0.44mm
; top infill extrusion width = 0.40mm
; first layer extrusion width = 0.42mm

M201 X500 Y500 Z100 E5000 ; sets maximum accelerations, mm/sec^2
M203 X500 Y500 Z10 E60 ; sets maximum feedrates, mm / sec
M204 P500 R1000 T500 ; sets acceleration (P, T) and retract acceleration (R), mm/sec^2
M205 X8.00 Y8.00 Z0.40 E5.00 ; sets the jerk limits, mm/sec
M205 S0 T0 ; sets the minimum extruding and travel feed rate, mm/sec
M107
;TYPE:Custom
G90 ; use absolute coordinates
M83 ; extruder relative mode
M104 S150 ; set temporary nozzle temp to prevent oozing during homing
M140 S70 ; set final bed temp
G4 S30 ; allow partial nozzle warmup
G28 ; home all axis
G1 Z50 F240
G1 X2.0 Y10 F3000
M104 S185 ; set final nozzle temp
M190 S70 ; wait for bed temp to stabilize
M109 S185 ; wait for nozzle temp to stabilize
G1 Z0.28 F240
G92 E0
G1 X2.0 Y140 E10 F1500 ; prime the nozzle
G1 X2.3 Y140 F5000
G92 E0
G1 X2.3 Y10 E10 F1200 ; prime the nozzle
G92 E0
G21 ; set units to millimeters
G90 ; use absolute coordinates
M83 ; use relative distances for extrusion
; Filament gcode
M107
;LAYER_CHANGE
;Z:0.2
;HEIGHT:0.2
;BEFORE_LAYER_CHANGE
G92 E0
;0.2


G1 E-10 F3600
G1 Z.2 F9000
;AFTER_LAYER_CHANGE
;0.2
G1 X37.431 Y89.611
G1 E10 F2400
M204 S500
;TYPE:Skirt/Brim
;WIDTH:0.42
G1 F1200
G1 X39.324 Y89.03 E.06207
G1 X122.053 Y89.03 E2.59389
G1 X122.889 Y89.136 E.02645
G1 X169.5 Y101.058 E1.50851
G1 X181.518 Y104.611 E.39293
G1 X182.159 Y104.917 E.02228
G1 X183.04 Y105.636 E.03565
G1 X183.482 Y106.224 E.02307
G1 X183.787 Y106.839 E.02153
G1 X183.976 Y107.481 E.02096
G1 X184.052 Y108.232 E.02367
G1 X184.035 Y109.754 E.04772
G1 X183.822 Y110.717 E.03094
G1 X183.528 Y111.346 E.02176
G1 X182.954 Y112.102 E.02976
G1 X165.296 Y129.967 E.78757
G1 X163.903 Y130.816 E.05115
G1 X162.894 Y130.97 E.03199
G1 X152.848 Y130.97 E.31501
G1 X41.621 Y112.504 E3.53515
G1 X39.788 Y111.561 E.06465
G1 X36.936 Y108.709 E.12645
G1 X36.095 Y107.311 E.05115
G1 X35.947 Y106.321 E.03138
G1 X35.947 Y92.407 E.43626
G1 X36.341 Y90.824 E.05115
G1 X37.391 Y89.655 E.04927
; printing object Schlittenkern_V1.stl id:0 copy 0
G1 E-7 F3600
;WIPE_START
G1 F7200
G1 X39.324 Y89.03 E-.96489
G1 X43.293 Y89.03 E-1.88511
;WIPE_END
G1 E-.15 F3600
G1 X75.656 Y92.617 F9000
G1 E10 F2400
;TYPE:External perimeter
;WIDTH:0.418658
G1 F1200
G1 X76.438 Y92.587 E.02445
;WIDTH:0.417926
G1 X76.838 Y92.616 E.01252
G1 E-7 F3600
;WIPE_START
G1 F7200
G1 X76.438 Y92.587 E-.19077
G1 X75.656 Y92.617 E-.37167
;WIPE_END
G1 E-2.43756 F3600
G1 X73.177 Y93.471 F9000
G1 E10 F2400
;TYPE:Perimeter
;WIDTH:0.419999
G1 F1200
G1 X73.076 Y93.644 E.00629
G1 X72.867 Y94.142 E.01691
G1 X72.735 Y94.687 E.0176
G1 X72.688 Y95.189 E.01582
G1 X72.717 Y95.721 E.01669
G1 X72.825 Y96.242 E.0167
G1 X73.002 Y96.722 E.01604
G1 X73.263 Y97.202 E.01712
G1 X73.563 Y97.596 E.01553
G1 X64.936 Y97.595 E.27049
G1 X65.152 Y97.324 E.01087
G1 X65.428 Y96.869 E.01669
G1 X65.632 Y96.377 E.01669
G1 X65.761 Y95.86 E.01669
G1 X65.811 Y95.33 E.01669
G1 X65.782 Y94.799 E.01669
G1 X65.673 Y94.277 E.0167
G1 X65.496 Y93.797 E.01607
G1 X65.319 Y93.471 E.01161
G1 X73.117 Y93.471 E.2445
G1 X73.965 Y93.07 F9000
G1 F1200
G1 X73.658 Y93.416 E.01452
G1 X73.401 Y93.836 E.01542
G1 X73.218 Y94.28 E.01506
G1 X73.103 Y94.768 E.01573
G1 X73.064 Y95.218 E.01414
G1 X73.093 Y95.693 E.01493
G1 X73.193 Y96.158 E.01493
G1 X73.353 Y96.584 E.01427
G1 X73.591 Y97.016 E.01544
G1 X73.885 Y97.396 E.01507
G1 X74.231 Y97.724 E.01494
G1 X74.587 Y97.973 E.01363
G1 X63.95 Y97.972 E.3335
G1 X64.201 Y97.778 E.00995
G1 X64.556 Y97.458 E.01498
G1 X64.858 Y97.089 E.01494
G1 X65.101 Y96.68 E.01493
G1 X65.281 Y96.239 E.01493
G1 X65.393 Y95.776 E.01493
G1 X65.431 Y95.351 E.01339
G1 X65.406 Y94.827 E.01645
G1 X65.306 Y94.361 E.01493
G1 X65.145 Y93.935 E.01429
G1 X64.902 Y93.502 E.01557
G1 X64.534 Y93.07 E.01779
G1 X65.239 Y93.094 E.02212
G1 X73.232 Y93.094 E.25062
G1 X73.905 Y93.072 E.02112
G1 E-7 F3600
;WIPE_START
G1 F7200
G1 X73.658 Y93.416 E-.2015
G1 X73.401 Y93.836 E-.23361
G1 X73.218 Y94.28 E-.22818
G1 X73.103 Y94.768 E-.23829
G1 X73.064 Y95.218 E-.21426
G1 X73.093 Y95.693 E-.22615
G1 X73.193 Y96.158 E-.22619
G1 X73.353 Y96.584 E-.21623
G1 X73.591 Y97.016 E-.23394
G1 X73.885 Y97.396 E-.22824
G1 X74.231 Y97.724 E-.22629
G1 X74.587 Y97.973 E-.20647
G1 X74.227 Y97.973 E-.17065
;WIPE_END
G1 E-.15 F3600
G1 X61.656 Y92.617 F9000
G1 E10 F2400
;TYPE:External perimeter
;WIDTH:0.418658
G1 F1200
G1 X62.438 Y92.587 E.02445
;WIDTH:0.417926
G1 X62.838 Y92.616 E.01252
G1 E-7 F3600
;WIPE_START
G1 F7200
G1 X62.438 Y92.587 E-.19077
G1 X61.656 Y92.617 E-.37166
;WIPE_END
G1 E-2.43757 F3600
G1 X59.178 Y93.471 F9000
G1 E10 F2400
;TYPE:Perimeter
;WIDTH:0.419999
G1 F1200
G1 X59.076 Y93.644 E.0063
G1 X58.867 Y94.142 E.01691
G1 X58.735 Y94.687 E.0176
G1 X58.688 Y95.189 E.01582
G1 X58.717 Y95.721 E.01669
G1 X58.825 Y96.242 E.0167
G1 X59.002 Y96.722 E.01604
G1 X59.263 Y97.202 E.01712
G1 X59.562 Y97.595 E.01549
G1 X48.937 Y97.595 E.33315
G1 X49.152 Y97.325 E.01082
G1 X49.428 Y96.869 E.0167
G1 X49.632 Y96.377 E.01669
G1 X49.756 Y95.881 E.01604
G1 X49.81 Y95.338 E.01712
G1 X49.782 Y94.799 E.01692
G1 X49.673 Y94.277 E.0167
G1 X49.488 Y93.777 E.01673
G1 X49.321 Y93.471 E.01092
G1 X59.118 Y93.471 E.30716
G1 X59.965 Y93.07 F9000
G1 F1200
G1 X59.658 Y93.416 E.01452
G1 X59.401 Y93.836 E.01542
G1 X59.218 Y94.28 E.01506
G1 X59.103 Y94.768 E.01573
G1 X59.064 Y95.218 E.01414
G1 X59.093 Y95.693 E.01493
G1 X59.193 Y96.158 E.01493
G1 X59.353 Y96.584 E.01427
G1 X59.591 Y97.016 E.01544
G1 X59.885 Y97.396 E.01507
G1 X60.231 Y97.724 E.01494
G1 X60.588 Y97.974 E.01367
G1 X47.907 Y97.977 E.3976
G1 X48.201 Y97.778 E.01112
G1 X48.5 Y97.509 E.01263
G1 X48.857 Y97.09 E.01727
G1 X49.101 Y96.68 E.01493
G1 X49.281 Y96.239 E.01493
G1 X49.388 Y95.797 E.01427
G1 X49.432 Y95.332 E.01464
G1 X49.406 Y94.827 E.01586
G1 X49.306 Y94.361 E.01493
G1 X49.137 Y93.915 E.01495
G1 X48.899 Y93.498 E.01506
G1 X48.533 Y93.07 E.01766
G1 X49.291 Y93.094 E.02378
G1 X59.279 Y93.094 E.31315
G1 X59.905 Y93.072 E.01965
G1 E-7 F3600
;WIPE_START
G1 F7200
G1 X59.658 Y93.416 E-.20138
G1 X59.401 Y93.836 E-.23361
G1 X59.218 Y94.28 E-.22818
G1 X59.103 Y94.768 E-.23829
G1 X59.064 Y95.218 E-.21426
G1 X59.093 Y95.693 E-.22615
G1 X59.193 Y96.158 E-.22619
G1 X59.353 Y96.584 E-.21623
G1 X59.591 Y97.016 E-.23394
G1 X59.885 Y97.396 E-.22825
G1 X60.231 Y97.724 E-.22629
G1 X60.588 Y97.974 E-.20707
G1 X60.23 Y97.974 E-.17017
;WIPE_END
G1 E-.15 F3600
G1 X45.655 Y92.617 F9000
G1 E10 F2400
;TYPE:External perimeter
;WIDTH:0.418572
G1 F1200
G1 X46.437 Y92.587 E.02444
;WIDTH:0.41784
G1 X46.838 Y92.616 E.01252
G1 E-7 F3600
;WIPE_START
G1 F7200
G1 X46.437 Y92.587 E-.19079
G1 X45.655 Y92.617 E-.3717
;WIPE_END
G1 E-2.43751 F3600
G1 X43.182 Y93.463 F9000
G1 E10 F2400
;TYPE:Perimeter
;WIDTH:0.419999
G1 F1200
G1 X43.01 Y93.777 E.01122
G1 X42.825 Y94.277 E.01673
G1 X42.716 Y94.799 E.0167
G1 X42.687 Y95.33 E.01669
G1 X42.737 Y95.861 E.01669
G1 X42.866 Y96.377 E.01669
G1 X43.07 Y96.869 E.01669
G1 X43.346 Y97.325 E.0167
G1 X43.669 Y97.716 E.01589
G1 X43.571 Y97.777 E.00362
G1 X43.289 Y98.107 E.01362
G1 X43.185 Y98.537 E.01387
G1 X43.185 Y102.78 E.13304
G1 X43.199 Y102.943 E.00513
G1 X43.366 Y103.336 E.01338
G1 X43.549 Y103.524 E.00823
G1 X43.723 Y103.632 E.00641
G1 X44.128 Y103.723 E.01301
G1 X74.324 Y103.723 E.94679
;WIDTH:0.431713
G1 X75.158 Y103.729 E.02694
;WIDTH:0.473335
G1 X75.279 Y103.749 E.00441
;WIDTH:0.514957
G1 X75.401 Y103.77 E.00484
;WIDTH:0.556578
G1 X75.522 Y103.791 E.00526
G1 X75.744 Y103.786 E.00947
;WIDTH:0.546805
G1 X77.371 Y103.786 E.06816
;WIDTH:0.556337
G1 X77.545 Y103.776 E.00747
G1 X77.648 Y103.714 E.00511
;WIDTH:0.510891
G1 X77.75 Y103.652 E.00466
;WIDTH:0.465445
G1 X77.853 Y103.59 E.0042
;WIDTH:0.419999
G1 X78.167 Y103.285 E.01373
G1 X78.247 Y103.127 E.00555
G1 X78.313 Y102.778 E.01114
G1 X78.304 Y98.523 E.13343
G1 X78.224 Y98.217 E.0099
G1 X78.412 Y98.09 E.00712
G1 X78.812 Y97.734 E.01678
G1 X79.152 Y97.324 E.01671
G1 X79.428 Y96.869 E.01669
G1 X79.632 Y96.377 E.01669
G1 X79.761 Y95.86 E.01669
G1 X79.811 Y95.33 E.0167
G1 X79.782 Y94.799 E.01669
G1 X79.673 Y94.277 E.0167
G1 X79.488 Y93.777 E.01673
G1 X79.319 Y93.468 E.01103
G1 X121.502 Y93.472 E1.32262
G1 X125.744 Y99.459 E.23006
G1 X126.197 Y100.028 E.02281
G1 X126.462 Y100.174 E.00949
G1 X126.777 Y100.229 E.01004
G1 X132.121 Y100.229 E.16755
G1 X136.458 Y107.457 E.2643
G1 X136.499 Y107.52 E.00236
G1 X136.728 Y107.746 E.01008
G1 X137.067 Y107.893 E.01158
G1 X137.417 Y107.902 E.01098
G1 X137.736 Y107.789 E.01062
G1 X140.063 Y106.452 E.08413
G1 X140.818 Y107.752 E.04714
G1 X140.678 Y108.227 E.01553
G1 X140.525 Y108.935 E.0227
G1 X140.43 Y109.653 E.0227
G1 X140.392 Y110.376 E.02271
G1 X140.411 Y111.1 E.02271
G1 X140.489 Y111.82 E.02271
G1 X140.624 Y112.531 E.0227
G1 X140.815 Y113.23 E.02271
G1 X141.06 Y113.917 E.02288
G1 X141.222 Y114.202 E.01027
G1 X141.528 Y114.444 E.01224
G1 X141.948 Y114.543 E.01352
G1 X161.877 Y114.543 E.62486
G1 X162.214 Y114.48 E.01074
G1 X162.419 Y114.371 E.00731
G1 X162.604 Y114.2 E.0079
G1 X162.768 Y113.908 E.01047
G1 X162.818 Y113.651 E.00821
G1 X162.761 Y113.272 E.01203
G1 X161.597 Y110.137 E.10484
G1 X161.917 Y109.584 E.02004
G1 X164.575 Y111.119 E.09625
G1 X164.754 Y111.198 E.00613
G1 X165.034 Y111.245 E.00889
G1 X165.439 Y111.16 E.01297
G1 X165.653 Y111.024 E.00796
G1 X165.831 Y110.825 E.00837
G1 X168.341 Y107.06 E.14189
G1 X168.569 Y106.643 E.01488
G1 X168.908 Y105.511 E.03706
G1 X179.606 Y108.672 E.34978
G1 X179.606 Y108.836 E.00513
G1 X171.608 Y108.836 E.25076
G1 X171.297 Y108.889 E.00989
G1 X170.977 Y109.079 E.01168
G1 X170.745 Y109.399 E.01239
G1 X170.665 Y109.779 E.01216
G1 X170.665 Y111.413 E.05126
G1 X162.268 Y126.528 E.54214
G1 X153.289 Y126.528 E.28155
G1 X153.112 Y126.352 E.00783
G1 X153.112 Y123.866 E.07795
G1 X153.189 Y123.789 E.0034
G1 X161.116 Y123.789 E.24854
G1 X161.543 Y123.686 E.01379
G1 X161.811 Y123.482 E.01057
G1 X161.996 Y123.183 E.01102
G1 X162.058 Y122.846 E.01074
G1 X162.058 Y116.936 E.18532
G1 X162.002 Y116.614 E.01024
G1 X161.801 Y116.288 E.01199
G1 X161.524 Y116.086 E.01074
G1 X161.116 Y115.993 E.01315
G1 X136.492 Y115.993 E.77205
G1 X127.828 Y103.863 E.46739
G1 X127.639 Y103.667 E.00853
G1 X127.375 Y103.522 E.00945
G1 X127.061 Y103.468 E.00999
G1 X122.233 Y103.468 E.15137
G1 X117.14 Y94.979 E.31039
G1 X116.826 Y94.662 E.01401
G1 X116.331 Y94.522 E.0161
G1 X108.141 Y94.522 E.25681
G1 X107.978 Y94.536 E.00513
G1 X107.697 Y94.633 E.00931
G1 X107.387 Y94.899 E.01282
G1 X107.236 Y95.201 E.01057
G1 X107.198 Y95.464 E.00836
G1 X107.198 Y102.715 E.22733
G1 X82.411 Y102.715 E.77718
G1 X81.46 Y102.747 E.02984
G1 X81.235 Y102.839 E.00763
G1 X81.011 Y103.017 E.00896
G1 X80.836 Y103.289 E.01015
G1 X80.76 Y103.658 E.0118
G1 X80.76 Y105.472 E.0569
;WIDTH:0.439686
G1 X80.751 Y106.188 E.02361
G1 X80.678 Y105.831 E.01202
;WIDTH:0.421687
G1 X80.565 Y105.525 E.01028
;WIDTH:0.419999
G1 X80.381 Y105.205 E.01159
G1 X80.17 Y104.954 E.01027
G1 X79.887 Y104.716 E.01159
G1 X79.604 Y104.552 E.01026
G1 X79.256 Y104.426 E.01159
G1 X78.754 Y104.354 E.0159
G1 X78.062 Y104.354 E.02169
;WIDTH:0.462268
G1 X77.832 Y104.332 E.00808
;WIDTH:0.504537
G1 X77.601 Y104.311 E.00889
;WIDTH:0.546805
G1 X77.371 Y104.29 E.0097
G1 X75.744 Y104.29 E.06816
;WIDTH:0.556578
G1 X75.567 Y104.301 E.00757
G1 X75.349 Y104.382 E.00992
;WIDTH:0.511052
G1 X75.131 Y104.463 E.00904
;WIDTH:0.465526
G1 X74.914 Y104.544 E.00816
;WIDTH:0.419999
G1 X74.594 Y104.728 E.01159
G1 X74.343 Y104.939 E.01027
G1 X74.105 Y105.222 E.01159
G1 X73.942 Y105.505 E.01026
G1 X73.815 Y105.853 E.01159
G1 X73.743 Y106.355 E.0159
G1 X73.743 Y107.994 E.05139
G1 X42.501 Y107.994 E.97955
G1 X40.388 Y105.881 E.09369
G1 X40.388 Y93.469 E.38915
G1 X43.122 Y93.463 E.0857
G1 X43.957 Y93.077 F9000
G1 F1200
G1 X43.657 Y93.416 E.01422
G1 X43.4 Y93.836 E.01542
G1 X43.218 Y94.28 E.01506
G1 X43.105 Y94.743 E.01495
G1 X43.063 Y95.218 E.01493
G1 X43.093 Y95.693 E.01493
G1 X43.192 Y96.159 E.01493
G1 X43.36 Y96.604 E.01493
G1 X43.593 Y97.02 E.01493
G1 X43.885 Y97.396 E.01493
G1 X44.23 Y97.724 E.01494
G1 X44.589 Y97.975 E.01372
G1 X44.237 Y97.972 E.01102
G1 X43.865 Y98.036 E.01182
G1 X43.643 Y98.246 E.00961
G1 X43.562 Y98.537 E.00946
G1 X43.57 Y102.878 E.1361
G1 X43.671 Y103.113 E.00803
G1 X43.885 Y103.291 E.00872
G1 X44.128 Y103.346 E.00781
G1 X77.371 Y103.346 E1.04231
G1 X77.66 Y103.266 E.0094
G1 X77.873 Y103.04 E.00974
G1 X77.936 Y102.779 E.00843
G1 X77.927 Y98.544 E.13278
G1 X77.831 Y98.23 E.01031
G1 X77.661 Y98.105 E.00661
G1 X78.201 Y97.778 E.01978
G1 X78.556 Y97.458 E.01498
G1 X78.829 Y97.124 E.01353
G1 X79.101 Y96.68 E.01633
G1 X79.27 Y96.267 E.01399
G1 X79.393 Y95.776 E.01586
G1 X79.435 Y95.302 E.01493
G1 X79.406 Y94.827 E.01493
G1 X79.306 Y94.361 E.01493
G1 X79.137 Y93.915 E.01495
G1 X78.899 Y93.498 E.01506
G1 X78.541 Y93.077 E.01734
G1 X79.686 Y93.094 E.03592
G1 X121.697 Y93.095 E1.31723
G1 X126.052 Y99.241 E.23618
G1 X126.429 Y99.731 E.0194
G1 X126.588 Y99.819 E.0057
G1 X126.777 Y99.852 E.00602
G1 X132.335 Y99.852 E.17425
G1 X136.782 Y107.263 E.27099
G1 X136.854 Y107.359 E.00377
G1 X137.044 Y107.492 E.00726
G1 X137.261 Y107.537 E.00696
G1 X137.548 Y107.462 E.00933
G1 X140.2 Y105.938 E.0959
G1 X140.931 Y107.195 E.0456
G1 X141.219 Y107.729 E.019
G1 X141.046 Y108.308 E.01895
G1 X140.899 Y108.986 E.02176
G1 X140.806 Y109.674 E.02176
G1 X140.769 Y110.367 E.02176
G1 X140.786 Y111.061 E.02176
G1 X140.86 Y111.751 E.02176
G1 X140.988 Y112.433 E.02176
G1 X141.17 Y113.103 E.02176
G1 X141.415 Y113.79 E.02288
G1 X141.512 Y113.961 E.00616
G1 X141.696 Y114.106 E.00734
G1 X141.948 Y114.166 E.00811
G1 X161.877 Y114.166 E.62486
G1 X162.079 Y114.128 E.00644
G1 X162.316 Y113.956 E.0092
G1 X162.437 Y113.679 E.00945
G1 X162.407 Y113.403 E.00871
G1 X161.182 Y110.102 E.11039
G1 X161.68 Y109.24 E.03123
G1 X161.95 Y109.167 E.00876
G1 X164.764 Y110.792 E.10188
G1 X165.039 Y110.868 E.00894
G1 X165.282 Y110.817 E.00778
G1 X165.517 Y110.616 E.0097
G1 X167.778 Y107.225 E.12778
G1 X168.208 Y106.536 E.02548
G1 X168.654 Y105.043 E.04885
G1 X179.983 Y108.391 E.37041
G1 X179.983 Y109.213 E.02578
G1 X171.608 Y109.213 E.26258
G1 X171.422 Y109.245 E.00593
G1 X171.271 Y109.325 E.00536
G1 X171.127 Y109.481 E.00667
G1 X171.042 Y109.779 E.00968
G1 X171.042 Y111.511 E.05433
G1 X162.49 Y126.905 E.55216
G1 X153.132 Y126.905 E.29341
G1 X152.735 Y126.508 E.01763
G1 X152.735 Y123.709 E.08775
G1 X153.032 Y123.412 E.01319
G1 X161.116 Y123.412 E.25344
G1 X161.372 Y123.35 E.00827
G1 X161.61 Y123.121 E.01036
G1 X161.681 Y122.846 E.0089
G1 X161.681 Y116.936 E.18532
G1 X161.665 Y116.801 E.00426
G1 X161.527 Y116.547 E.00905
G1 X161.361 Y116.426 E.00644
G1 X161.116 Y116.37 E.00789
G1 X136.298 Y116.37 E.77813
G1 X128.026 Y104.789 E.44623
G1 X127.408 Y103.964 E.03231
G1 X127.249 Y103.877 E.00567
G1 X127.061 Y103.845 E.006
G1 X122.019 Y103.845 E.15806
G1 X116.816 Y95.173 E.31708
G1 X116.628 Y94.983 E.00841
G1 X116.331 Y94.899 E.00966
G1 X108.141 Y94.899 E.25681
G1 X107.875 Y94.965 E.0086
G1 X107.688 Y95.125 E.00769
G1 X107.598 Y95.306 E.00634
G1 X107.575 Y95.464 E.00502
G1 X107.575 Y103.092 E.23915
G1 X82.411 Y103.092 E.789
G1 X81.557 Y103.111 E.02678
G1 X81.288 Y103.273 E.00985
G1 X81.183 Y103.436 E.00609
G1 X81.138 Y103.658 E.00708
G1 X81.138 Y108.771 E.16032
G1 X79.533 Y108.771 E.05031
G1 X79.716 Y108.665 E.00663
G1 X80.104 Y108.256 E.01769
G1 X80.329 Y107.738 E.01769
G1 X80.378 Y107.365 E.0118
G1 X80.378 Y106.355 E.03169
G1 X80.306 Y105.897 E.01453
G1 X80.054 Y105.393 E.01766
G1 X79.645 Y105.005 E.01769
G1 X79.127 Y104.78 E.01769
G1 X78.754 Y104.731 E.0118
G1 X75.744 Y104.731 E.0944
G1 X75.286 Y104.803 E.01453
G1 X74.782 Y105.055 E.01766
G1 X74.394 Y105.464 E.01769
G1 X74.17 Y105.982 E.01769
G1 X74.12 Y106.355 E.0118
G1 X74.12 Y108.371 E.06321
G1 X42.345 Y108.371 E.99627
G1 X40.011 Y106.037 E.10348
G1 X40.011 Y93.093 E.40584
G1 X43.897 Y93.077 E.12185
G1 X45.632 Y92.62 F9000
