; generated by PrusaSlicer 2.5.0+win64 on 2023-04-22 at 18:58:11 UTC

; 

; external perimeters extrusion width = 0.42mm
; perimeters extrusion width = 0.44mm
; infill extrusion width = 0.44mm
; solid infill extrusion width = 0.44mm
; top infill extrusion width = 0.40mm
; first layer extrusion width = 0.42mm

M201 X500 Y500 Z100 E5000 ; sets maximum accelerations, mm/sec^2
M203 X500 Y500 Z10 E60 ; sets maximum feedrates, mm / sec
M204 P500 R1000 T500 ; sets acceleration (P, T) and retract acceleration (R), mm/sec^2
M205 X8.00 Y8.00 Z0.40 E5.00 ; sets the jerk limits, mm/sec
M205 S0 T0 ; sets the minimum extruding and travel feed rate, mm/sec
M107
;TYPE:Custom
G90 ; use absolute coordinates
M83 ; extruder relative mode
M104 S150 ; set temporary nozzle temp to prevent oozing during homing
M140 S70 ; set final bed temp
G4 S30 ; allow partial nozzle warmup
G28 ; home all axis
G1 Z50 F240
G1 X2.0 Y10 F3000
M104 S210 ; set final nozzle temp
M190 S70 ; wait for bed temp to stabilize
M109 S210 ; wait for nozzle temp to stabilize
G1 Z0.28 F240
G92 E0
G1 X2.0 Y140 E10 F1500 ; prime the nozzle
G1 X2.3 Y140 F5000
G92 E0
G1 X2.3 Y10 E10 F1200 ; prime the nozzle
G92 E0
G21 ; set units to millimeters
G90 ; use absolute coordinates
M83 ; use relative distances for extrusion
; Filament gcode
M107
;LAYER_CHANGE
;Z:0.2
;HEIGHT:0.2
;BEFORE_LAYER_CHANGE
G92 E0
;0.2


G1 E-10 F3600
G1 Z.2 F9000
;AFTER_LAYER_CHANGE
;0.2
G1 X89.315 Y100.403
G1 E10 F2400
M204 S500
;TYPE:Skirt/Brim
;WIDTH:0.42
G1 F1200
G1 X99.94 Y92.277 E.41941
G1 X101.511 Y91.572 E.05397
G1 X102.959 Y91.578 E.04539
G1 X109.598 Y92.908 E.21231
G1 X110.769 Y93.357 E.03931
G1 X130.232 Y104.848 E.70867
G1 X131.474 Y106.04 E.05397
G1 X132.053 Y107.661 E.05397
G1 X132.027 Y108.694 E.03239
G1 X130.105 Y120.309 E.36914
G1 X129.777 Y121.339 E.03391
G1 X129.403 Y122.108 E.0268
G1 X128.208 Y123.521 E.05801
G1 X122.216 Y127.797 E.23083
G1 X120.623 Y128.449 E.05397
G1 X119.297 Y128.422 E.04157
G1 X103.859 Y125.328 E.49369
G1 X102.294 Y124.612 E.05397
G1 X101.538 Y123.825 E.03421
G1 X88.538 Y105.562 E.70288
G1 X87.887 Y103.968 E.05397
G1 X88.017 Y102.251 E.05397
G1 X89.281 Y100.452 E.06895
G1 X89.544 Y100.702 F9000
G1 F1200
G1 X100.17 Y92.576 E.41941
G1 X101.666 Y91.927 E.05115
G1 X102.885 Y91.947 E.0382
G1 X109.524 Y93.278 E.21231
G1 X110.578 Y93.681 E.03537
G1 X130.04 Y105.173 E.70867
G1 X131.203 Y106.317 E.05115
G1 X131.655 Y108.632 E.07395
G1 X129.733 Y120.247 E.36914
G1 X129.438 Y121.174 E.0305
G1 X129.064 Y121.943 E.0268
G1 X127.989 Y123.214 E.05218
G1 X121.997 Y127.49 E.23083
G1 X120.479 Y128.089 E.05115
G1 X119.371 Y128.053 E.03475
G1 X103.933 Y124.959 E.49369
G1 X102.458 Y124.261 E.05115
G1 X101.846 Y123.606 E.02813
G1 X88.845 Y105.343 E.70288
G1 X88.248 Y103.825 E.05115
G1 X88.432 Y102.204 E.05115
G1 X89.509 Y100.75 E.05671
; printing object Ausloeser_V1.stl id:0 copy 0
G1 E-7 F3600
;WIPE_START
G1 F7200
G1 X94.27 Y97.1 E-2.85
;WIPE_END
G1 E-.15 F3600
G1 X119.524 Y117.792 F9000
G1 E10 F2400
;TYPE:Perimeter
;WIDTH:0.419999
G1 F1200
G1 X119.527 Y118.041 E.00783
G1 X119.446 Y118.605 E.01786
G1 X119.321 Y119.054 E.01462
G1 X119.142 Y119.479 E.01445
G1 X118.857 Y119.952 E.0173
G1 X118.505 Y120.377 E.0173
G1 X118.094 Y120.744 E.0173
G1 X117.632 Y121.046 E.0173
G1 X117.13 Y121.276 E.0173
G1 X116.6 Y121.429 E.0173
G1 X116.053 Y121.5 E.0173
G1 X115.501 Y121.49 E.0173
G1 X114.957 Y121.397 E.0173
G1 X114.459 Y121.234 E.01644
G1 X113.941 Y120.976 E.01815
G1 X113.491 Y120.656 E.0173
G1 X113.093 Y120.273 E.0173
G1 X112.758 Y119.835 E.0173
G1 X112.491 Y119.352 E.0173
G1 X112.308 Y118.861 E.01644
G1 X112.187 Y118.295 E.01815
G1 X112.156 Y117.744 E.0173
G1 X112.2 Y117.243 E.01578
;WIDTH:0.458436
G1 X112.222 Y117.014 E.00792
;WIDTH:0.496872
G1 X112.244 Y116.786 E.00865
G1 X112.098 Y117.031 E.01075
;WIDTH:0.458436
G1 X111.952 Y117.276 E.00984
;WIDTH:0.419999
G1 X111.645 Y117.73 E.01721
G1 X111.3 Y118.126 E.01646
G1 X110.86 Y118.523 E.0186
G1 X110.371 Y118.86 E.0186
G1 X109.843 Y119.129 E.0186
G1 X109.284 Y119.327 E.0186
G1 X108.704 Y119.451 E.0186
G1 X108.113 Y119.498 E.0186
G1 X107.52 Y119.467 E.0186
G1 X106.937 Y119.359 E.0186
G1 X106.373 Y119.176 E.0186
G1 X105.838 Y118.921 E.0186
G1 X105.34 Y118.598 E.0186
G1 X104.889 Y118.213 E.0186
;WIDTH:0.45349
G1 X104.744 Y118.078 E.00678
;WIDTH:0.486981
G1 X104.599 Y117.942 E.00733
;WIDTH:0.520472
G1 X104.454 Y117.806 E.00789
G1 X104.116 Y117.311 E.02381
;WIDTH:0.517423
G1 X103.842 Y116.778 E.02365
;WIDTH:0.560947
G1 X103.621 Y116.22 E.02585
G1 X103.602 Y116.019 E.00869
;WIDTH:0.513965
G1 X103.583 Y115.818 E.0079
;WIDTH:0.466982
G1 X103.564 Y115.617 E.00712
;WIDTH:0.419999
G1 X103.517 Y115.026 E.0186
G1 X103.548 Y114.433 E.0186
G1 X103.652 Y113.872 E.01791
G1 X103.837 Y113.291 E.0191
G1 X104.094 Y112.751 E.01877
G1 X104.395 Y112.285 E.01739
G1 X104.765 Y111.844 E.01804
G1 X105.182 Y111.457 E.01784
G1 X105.641 Y111.128 E.0177
G1 X106.139 Y110.859 E.01774
G1 X106.656 Y110.656 E.01742
G1 X107.197 Y110.517 E.01751
G1 X107.75 Y110.446 E.0175
G1 X108.32 Y110.446 E.01786
G1 X108.704 Y110.477 E.01208
G1 X109.284 Y110.601 E.0186
G1 X109.843 Y110.799 E.0186
G1 X110.371 Y111.069 E.0186
G1 X110.86 Y111.405 E.0186
G1 X111.3 Y111.802 E.0186
G1 X111.685 Y112.253 E.0186
G1 X112.008 Y112.751 E.0186
G1 X112.247 Y113.242 E.01711
G1 X112.414 Y113.731 E.01622
G1 X112.538 Y114.311 E.0186
G1 X112.585 Y114.902 E.0186
G1 X112.554 Y115.495 E.0186
;WIDTH:0.454
G1 X112.517 Y115.79 E.01016
;WIDTH:0.488
G1 X112.48 Y116.085 E.011
;WIDTH:0.521384
G1 X112.462 Y116.213 E.00517
G1 X112.561 Y116.073 E.00681
;WIDTH:0.487589
G1 X112.659 Y115.933 E.00633
;WIDTH:0.453794
G1 X112.758 Y115.793 E.00585
;WIDTH:0.419999
G1 X113.081 Y115.371 E.01665
G1 X113.276 Y115.174 E.00869
G1 X113.728 Y114.798 E.01846
G1 X114.239 Y114.497 E.0186
G1 X114.792 Y114.282 E.01861
G1 X115.501 Y114.138 E.02267
G1 X116.053 Y114.128 E.0173
G1 X116.579 Y114.197 E.01665
G1 X117.124 Y114.35 E.01773
G1 X117.593 Y114.563 E.01616
G1 X118.019 Y114.833 E.01581
G1 X118.41 Y115.163 E.01604
G1 X118.755 Y115.548 E.01622
;WIDTH:0.459459
G1 X118.918 Y115.756 E.00912
;WIDTH:0.498919
G1 X119.08 Y115.963 E.00998
G1 X119.306 Y116.445 E.02019
;WIDTH:0.486707
G1 X119.37 Y116.705 E.00988
;WIDTH:0.453353
G1 X119.434 Y116.965 E.00913
;WIDTH:0.419999
G1 X119.52 Y117.496 E.01687
G1 X119.523 Y117.732 E.00741
G1 X119.158 Y117.78 F9000
G1 F1200
G1 X119.162 Y117.856 E.0024
G1 X119.078 Y118.524 E.0211
G1 X118.969 Y118.916 E.01277
G1 X118.816 Y119.291 E.01268
G1 X118.563 Y119.717 E.01554
G1 X118.249 Y120.1 E.01554
G1 X117.881 Y120.432 E.01554
G1 X117.468 Y120.706 E.01554
G1 X117.019 Y120.916 E.01554
G1 X116.544 Y121.056 E.01554
G1 X116.053 Y121.123 E.01554
G1 X115.557 Y121.117 E.01554
G1 X115.068 Y121.037 E.01554
G1 X114.62 Y120.893 E.01476
G1 X114.153 Y120.664 E.0163
G1 X113.747 Y120.38 E.01554
G1 X113.388 Y120.038 E.01554
G1 X113.084 Y119.647 E.01554
G1 X112.842 Y119.215 E.01554
G1 X112.675 Y118.774 E.01476
G1 X112.563 Y118.267 E.0163
G1 X112.532 Y117.772 E.01554
G1 X112.573 Y117.303 E.01476
G1 X112.689 Y116.802 E.01611
G1 X112.879 Y116.338 E.01573
G1 X113.176 Y115.856 E.01774
G1 X113.534 Y115.449 E.01701
G1 X113.94 Y115.109 E.01661
G1 X114.403 Y114.837 E.01683
G1 X114.904 Y114.642 E.01684
G1 X115.557 Y114.511 E.02091
G1 X116.066 Y114.505 E.01597
G1 X116.602 Y114.587 E.01698
G1 X117.09 Y114.74 E.01605
G1 X117.541 Y114.964 E.01579
G1 X117.966 Y115.266 E.01635
G1 X118.324 Y115.612 E.01559
G1 X118.72 Y116.171 E.02147
G1 X119.003 Y116.797 E.02154
G1 X119.129 Y117.332 E.01723
G1 X119.154 Y117.72 E.01221
G1 X118.786 Y117.8 F9000
;TYPE:External perimeter
G1 F1200
G1 X118.71 Y118.443 E.02029
G1 X118.502 Y119.077 E.02093
G1 X118.268 Y119.482 E.01465
G1 X117.992 Y119.824 E.01377
G1 X117.669 Y120.121 E.01377
G1 X117.305 Y120.367 E.01377
G1 X116.908 Y120.555 E.01377
G1 X116.488 Y120.683 E.01377
G1 X116.053 Y120.746 E.01377
G1 X115.614 Y120.744 E.01377
G1 X115.179 Y120.677 E.01377
G1 X114.781 Y120.552 E.01308
G1 X114.365 Y120.353 E.01445
G1 X114.004 Y120.103 E.01378
G1 X113.683 Y119.803 E.01377
G1 X113.411 Y119.458 E.01377
G1 X113.098 Y118.835 E.02185
G1 X112.943 Y118.268 E.01845
G1 X112.908 Y117.8 E.0147
G1 X112.941 Y117.384 E.01308
G1 X113.043 Y116.934 E.01445
G1 X113.22 Y116.5 E.0147
G1 X113.471 Y116.092 E.01504
G1 X113.793 Y115.724 E.01533
G1 X114.153 Y115.421 E.01476
G1 X114.76 Y115.083 E.02179
G1 X115.207 Y114.945 E.01465
G1 X115.642 Y114.882 E.01377
G1 X116.081 Y114.884 E.01377
G1 X116.493 Y114.948 E.01308
G1 X116.934 Y115.083 E.01445
G1 X117.335 Y115.28 E.014
G1 X117.71 Y115.543 E.01436
G1 X118.166 Y116.019 E.02066
G1 X118.489 Y116.526 E.01887
G1 X118.699 Y117.132 E.02011
G1 X118.779 Y117.741 E.01923
G1 X119.132 Y118.001 F9000
G1 E-7 F3600
;WIPE_START
G1 F7200
G1 X118.71 Y118.443 E-.33509
G1 X118.502 Y119.077 E-.317
G1 X118.268 Y119.482 E-.22201
G1 X117.992 Y119.824 E-.20867
G1 X117.669 Y120.121 E-.20867
G1 X117.305 Y120.367 E-.20867
G1 X116.908 Y120.555 E-.20867
G1 X116.488 Y120.683 E-.20867
G1 X116.053 Y120.746 E-.20868
G1 X115.614 Y120.744 E-.20867
G1 X115.179 Y120.677 E-.20867
G1 X114.781 Y120.552 E-.19821
G1 X114.576 Y120.453 E-.10832
;WIPE_END
G1 E-.15 F3600
G1 X112.207 Y114.953 F9000
G1 E10 F2400
;TYPE:Perimeter
G1 F1200
G1 X112.174 Y115.506 E.01738
G1 X112.076 Y116.004 E.01593
G1 X111.91 Y116.511 E.01671
G1 X111.67 Y117.011 E.01739
G1 X111.372 Y117.466 E.01705
G1 X111.017 Y117.878 E.01705
G1 X110.611 Y118.24 E.01705
G1 X110.162 Y118.546 E.01705
G1 X109.676 Y118.791 E.01705
G1 X109.163 Y118.97 E.01705
G1 X108.63 Y119.081 E.01705
G1 X108.088 Y119.121 E.01705
G1 X107.545 Y119.091 E.01705
G1 X107.011 Y118.989 E.01705
G1 X106.494 Y118.819 E.01705
G1 X106.004 Y118.583 E.01705
G1 X105.55 Y118.285 E.01705
G1 X105.138 Y117.93 E.01705
G1 X104.775 Y117.524 E.01705
G1 X104.469 Y117.075 E.01705
G1 X104.224 Y116.589 E.01705
G1 X104.045 Y116.076 E.01705
G1 X103.934 Y115.543 E.01705
G1 X103.894 Y115.001 E.01705
G1 X103.924 Y114.458 E.01705
G1 X104.022 Y113.945 E.01637
G1 X104.195 Y113.41 E.01762
G1 X104.432 Y112.917 E.01716
G1 X104.709 Y112.494 E.01585
G1 X105.048 Y112.092 E.0165
G1 X105.431 Y111.741 E.01629
G1 X105.851 Y111.442 E.01616
G1 X106.308 Y111.196 E.01626
G1 X106.777 Y111.013 E.0158
G1 X107.27 Y110.887 E.01596
G1 X107.775 Y110.822 E.01595
G1 X108.298 Y110.822 E.01638
G1 X108.63 Y110.847 E.01047
G1 X109.163 Y110.958 E.01705
G1 X109.676 Y111.137 E.01705
G1 X110.162 Y111.382 E.01705
G1 X110.611 Y111.688 E.01705
G1 X111.017 Y112.051 E.01705
G1 X111.372 Y112.463 E.01705
G1 X111.67 Y112.917 E.01705
G1 X111.896 Y113.381 E.01616
G1 X112.071 Y113.901 E.01722
G1 X112.176 Y114.436 E.0171
G1 X112.203 Y114.893 E.01433
G1 X111.832 Y114.972 F9000
;TYPE:External perimeter
G1 F1200
G1 X111.781 Y115.557 E.0184
G1 X111.685 Y116 E.01422
G1 X111.533 Y116.436 E.01446
G1 X111.332 Y116.844 E.01427
G1 X111.05 Y117.267 E.01594
G1 X110.716 Y117.646 E.01585
G1 X110.127 Y118.115 E.0236
G1 X109.509 Y118.453 E.02207
G1 X109.018 Y118.62 E.01628
G1 X108.532 Y118.714 E.01551
G1 X108.039 Y118.745 E.01551
G1 X107.545 Y118.711 E.01551
G1 X107.061 Y118.613 E.01551
G1 X106.593 Y118.453 E.01551
G1 X106.15 Y118.232 E.01551
G1 X105.74 Y117.956 E.01551
G1 X105.369 Y117.629 E.01551
G1 X105.044 Y117.256 E.01551
G1 X104.77 Y116.844 E.01551
G1 X104.553 Y116.4 E.01551
G1 X104.396 Y115.931 E.01551
G1 X104.301 Y115.445 E.01551
G1 X104.27 Y114.952 E.01551
G1 X104.304 Y114.458 E.01551
G1 X104.397 Y113.996 E.01479
G1 X104.563 Y113.506 E.01622
G1 X104.8 Y113.038 E.01645
G1 X105.067 Y112.643 E.01496
G1 X105.386 Y112.282 E.01511
G1 X105.759 Y111.957 E.01551
G1 X106.152 Y111.696 E.01479
G1 X106.605 Y111.47 E.01586
G1 X107.084 Y111.309 E.01587
G1 X107.8 Y111.199 E.02269
G1 X108.531 Y111.214 E.02294
G1 X109.023 Y111.31 E.01572
G1 X109.509 Y111.476 E.0161
G1 X109.96 Y111.701 E.0158
G1 X110.363 Y111.972 E.01522
G1 X110.733 Y112.299 E.01551
G1 X111.058 Y112.672 E.01551
G1 X111.409 Y113.242 E.02098
G1 X111.631 Y113.77 E.01796
G1 X111.798 Y114.458 E.02221
G1 X111.828 Y114.912 E.01427
G1 X112.178 Y115.173 F9000
G1 X112.462 Y116.213
;TYPE:Perimeter
;WIDTH:0.521384
G1 F1200
G1 X112.265 Y116.752 E.02282
G1 E-7 F3600
;WIPE_START
G1 F7200
G1 X112.462 Y116.213 E-.27244
;WIPE_END
G1 E-2.72756 F3600
G1 X106.375 Y108.777 F9000
G1 E10 F2400
;WIDTH:0.419999
G1 F1200
G1 X106.301 Y108.878 E.00393
G1 X105.915 Y109.264 E.0171
G1 X105.474 Y109.585 E.0171
G1 X104.99 Y109.836 E.0171
G1 X104.514 Y110.001 E.01578
G1 X103.962 Y110.102 E.0176
G1 X103.406 Y110.114 E.01745
G1 X102.85 Y110.039 E.01759
G1 X102.327 Y109.884 E.0171
G1 X101.834 Y109.651 E.0171
G1 X101.413 Y109.371 E.01586
G1 X100.983 Y108.974 E.01835
G1 X100.644 Y108.547 E.0171
G1 X100.375 Y108.072 E.0171
G1 X100.182 Y107.563 E.0171
G1 X100.068 Y107.029 E.0171
G1 X100.035 Y106.536 E.0155
G1 X100.09 Y105.942 E.01871
G1 X100.218 Y105.44 E.01624
G1 X100.414 Y104.957 E.01633
G1 X100.727 Y104.449 E.01873
G1 X101.083 Y104.035 E.0171
G1 X101.476 Y103.698 E.01624
G1 X101.961 Y103.394 E.01795
G1 X102.463 Y103.181 E.0171
G1 X102.992 Y103.047 E.0171
G1 X103.507 Y102.997 E.01624
G1 X104.078 Y103.03 E.01794
;WIDTH:0.414963
G1 X104.603 Y103.167 E.01678
;WIDTH:0.405757
G1 X105.118 Y103.343 E.01642
;WIDTH:0.419999
G1 X105.595 Y103.607 E.0171
G1 X106.022 Y103.946 E.0171
G1 X106.392 Y104.347 E.0171
G1 X106.697 Y104.799 E.0171
G1 X106.929 Y105.292 E.0171
G1 X107.076 Y105.789 E.01624
G1 X107.155 Y106.356 E.01795
G1 X107.144 Y106.901 E.0171
G1 X107.05 Y107.439 E.0171
G1 X106.875 Y107.955 E.0171
G1 X106.623 Y108.439 E.0171
G1 X106.41 Y108.729 E.01129
G1 X106.075 Y108.553 F9000
G1 F1200
G1 X105.686 Y108.964 E.01775
G1 X105.294 Y109.254 E.01529
G1 X104.862 Y109.481 E.01529
G1 X104.401 Y109.64 E.01529
G1 X103.921 Y109.726 E.01529
G1 X103.434 Y109.738 E.01529
G1 X102.95 Y109.676 E.01529
G1 X102.481 Y109.54 E.01529
G1 X102.039 Y109.335 E.01529
G1 X101.633 Y109.064 E.01529
G1 X101.257 Y108.714 E.01611
G1 X100.968 Y108.354 E.01447
G1 X100.725 Y107.931 E.01529
G1 X100.549 Y107.477 E.01529
G1 X100.444 Y107 E.01529
G1 X100.412 Y106.544 E.01433
G1 X100.457 Y106.028 E.01626
G1 X100.569 Y105.578 E.01452
G1 X100.763 Y105.105 E.01606
G1 X101.018 Y104.689 E.0153
G1 X101.334 Y104.317 E.01529
G1 X101.683 Y104.013 E.01452
G1 X102.115 Y103.738 E.01606
G1 X102.76 Y103.49 E.02167
G1 X103.413 Y103.378 E.02078
G1 X103.917 Y103.387 E.01579
G1 X104.485 Y103.497 E.01813
G1 X104.941 Y103.668 E.01529
G1 X105.367 Y103.907 E.01529
G1 X105.751 Y104.207 E.01529
G1 X106.084 Y104.563 E.01529
G1 X106.359 Y104.966 E.01529
G1 X106.57 Y105.406 E.01529
G1 X106.715 Y105.919 E.01672
G1 X106.778 Y106.356 E.01384
G1 X106.772 Y106.844 E.01529
G1 X106.691 Y107.325 E.01529
G1 X106.537 Y107.788 E.01529
G1 X106.315 Y108.222 E.01529
G1 X106.11 Y108.504 E.01093
G1 X105.776 Y108.333 F9000
;TYPE:External perimeter
G1 F1200
G1 X105.457 Y108.664 E.01439
G1 X105.114 Y108.923 E.01349
G1 X104.735 Y109.126 E.01349
G1 X104.329 Y109.27 E.01349
G1 X103.907 Y109.349 E.01349
G1 X103.477 Y109.364 E.01349
G1 X103.05 Y109.312 E.01349
G1 X102.636 Y109.196 E.01349
G1 X102.244 Y109.018 E.01349
G1 X101.884 Y108.782 E.01349
G1 X101.548 Y108.474 E.0143
G1 X101.293 Y108.161 E.01266
G1 X101.075 Y107.79 E.01349
G1 X100.916 Y107.391 E.01349
G1 X100.82 Y106.971 E.01349
G1 X100.789 Y106.553 E.01317
G1 X100.824 Y106.114 E.01381
G1 X100.919 Y105.717 E.0128
G1 X101.136 Y105.216 E.01709
G1 X101.309 Y104.929 E.01054
G1 X101.585 Y104.598 E.01349
G1 X101.891 Y104.328 E.0128
G1 X102.269 Y104.082 E.01416
G1 X102.86 Y103.854 E.01986
G1 X103.456 Y103.752 E.01897
G1 X103.935 Y103.767 E.01502
G1 X104.357 Y103.852 E.01349
G1 X104.761 Y103.999 E.01349
G1 X105.138 Y104.206 E.01349
G1 X105.479 Y104.469 E.01349
G1 X105.776 Y104.78 E.01349
G1 X106.128 Y105.349 E.02097
G1 X106.31 Y105.835 E.01626
G1 X106.401 Y106.34 E.0161
G1 X106.399 Y106.786 E.014
G1 X106.331 Y107.211 E.01349
G1 X106.095 Y107.831 E.0208
G1 X105.808 Y108.283 E.01679
G1 X105.925 Y108.704 F9000
G1 E-7 F3600
;WIPE_START
G1 F7200
G1 X105.457 Y108.664 E-.24598
G1 X105.114 Y108.923 E-.20431
G1 X104.735 Y109.126 E-.20431
G1 X104.329 Y109.27 E-.20431
G1 X103.907 Y109.349 E-.20431
G1 X103.477 Y109.364 E-.20432
