; generated by PrusaSlicer 2.5.0+win64 on 2023-04-20 at 23:50:54 UTC

; 

; external perimeters extrusion width = 0.42mm
; perimeters extrusion width = 0.44mm
; infill extrusion width = 0.44mm
; solid infill extrusion width = 0.44mm
; top infill extrusion width = 0.40mm
; first layer extrusion width = 0.42mm

M201 X500 Y500 Z100 E5000 ; sets maximum accelerations, mm/sec^2
M203 X500 Y500 Z10 E60 ; sets maximum feedrates, mm / sec
M204 P500 R1000 T500 ; sets acceleration (P, T) and retract acceleration (R), mm/sec^2
M205 X8.00 Y8.00 Z0.40 E5.00 ; sets the jerk limits, mm/sec
M205 S0 T0 ; sets the minimum extruding and travel feed rate, mm/sec
M107
;TYPE:Custom
G90 ; use absolute coordinates
M83 ; extruder relative mode
M104 S150 ; set temporary nozzle temp to prevent oozing during homing
M140 S70 ; set final bed temp
G4 S30 ; allow partial nozzle warmup
G28 ; home all axis
G1 Z50 F240
G1 X2.0 Y10 F3000
M104 S210 ; set final nozzle temp
M190 S70 ; wait for bed temp to stabilize
M109 S210 ; wait for nozzle temp to stabilize
G1 Z0.28 F240
G92 E0
G1 X2.0 Y140 E10 F1500 ; prime the nozzle
G1 X2.3 Y140 F5000
G92 E0
G1 X2.3 Y10 E10 F1200 ; prime the nozzle
G92 E0
G21 ; set units to millimeters
G90 ; use absolute coordinates
M83 ; use relative distances for extrusion
; Filament gcode
M107
;LAYER_CHANGE
;Z:0.2
;HEIGHT:0.2
;BEFORE_LAYER_CHANGE
G92 E0
;0.2


G1 E-5 F3600
G1 Z.2 F9000
;AFTER_LAYER_CHANGE
;0.2
G1 X31.975 Y64.322
G1 E5 F2400
M204 S500
;TYPE:Skirt/Brim
;WIDTH:0.42
G1 F1200
G1 X32.624 Y64.007 E.02261
G1 X75.822 Y51.164 E1.41305
G1 X76.613 Y51.021 E.02519
G1 X77.213 Y51.024 E.01883
G1 X204.789 Y63.17 E4.01812
G1 X206.327 Y63.712 E.05115
G1 X207.432 Y64.913 E.05115
G1 X207.846 Y66.532 E.0524
G1 X207.846 Y80.225 E.42933
G1 X207.604 Y81.479 E.04005
G1 X206.556 Y83.983 E.0851
G1 X205.954 Y84.783 E.0314
G1 X205.092 Y85.461 E.03437
G1 X62.827 Y166.65 E5.1359
G1 X61.925 Y166.928 E.02959
G1 X61.434 Y166.984 E.0155
G1 X19.616 Y169.008 E1.31272
G1 X18.376 Y168.862 E.03913
G1 X17.558 Y168.519 E.02782
G1 X16.98 Y168.117 E.02207
G1 X16.544 Y167.688 E.01916
G1 X13.208 Y163.788 E.16093
G1 X12.679 Y162.751 E.03651
G1 X12.499 Y161.836 E.02923
G1 X12.496 Y161.311 E.01646
G1 X14.269 Y134.608 E.8391
G1 X21.448 Y72.449 E1.96192
G1 X21.564 Y71.884 E.01808
G1 X21.822 Y71.221 E.02229
G1 X22.286 Y70.51 E.02662
G1 X23.219 Y69.697 E.03882
G1 X31.924 Y64.353 E.32026
; printing object Seite_R_V1.stl id:0 copy 0
G1 E-3.5 F3600
;WIPE_START
G1 F7200
G1 X32.624 Y64.007 E-.37097
G1 X34.751 Y63.375 E-1.05403
;WIPE_END
G1 E-.075 F3600
G1 X79.378 Y57.49 F9000
G1 E5 F2400
;TYPE:Perimeter
;WIDTH:0.419999
G1 F1200
G1 X79.05 Y58.854 E.04399
;WIDTH:0.394257
G1 X78.968 Y59.233 E.01133
;WIDTH:0.411165
G1 X78.927 Y59.295 E.00227
;WIDTH:0.453814
G1 X78.886 Y59.356 E.00254
;WIDTH:0.496463
G1 X78.845 Y59.418 E.0028
;WIDTH:0.539112
G1 X78.804 Y59.48 E.00306
;WIDTH:0.581761
G1 X78.762 Y59.542 E.00333
;WIDTH:0.62441
G1 X78.721 Y59.604 E.00359
G1 X78.709 Y59.53 E.00359
;WIDTH:0.581264
G1 X78.697 Y59.457 E.00332
;WIDTH:0.538117
G1 X78.685 Y59.384 E.00306
;WIDTH:0.494971
G1 X78.673 Y59.311 E.00279
;WIDTH:0.451824
G1 X78.667 Y58.93 E.01293
;WIDTH:0.419999
G1 X78.611 Y58.445 E.01533
G1 X78.36 Y57.755 E.02301
G1 X77.939 Y57.154 E.02301
G1 X77.377 Y56.682 E.023
G1 X77.088 Y56.528 E.01029
G1 X76.465 Y56.308 E.02071
G1 X77.12 Y55.655 E.02902
G1 X79.679 Y56.286 E.08262
G1 X79.392 Y57.431 E.03702
G1 E-3.5 F3600
;WIPE_START
G1 F7200
G1 X79.05 Y58.854 E-.69486
G1 X78.968 Y59.233 E-.18428
G1 X78.927 Y59.295 E-.03528
G1 X78.886 Y59.356 E-.03528
G1 X78.845 Y59.418 E-.03528
G1 X78.804 Y59.48 E-.03528
G1 X78.762 Y59.542 E-.03528
G1 X78.721 Y59.604 E-.03528
G1 X78.709 Y59.53 E-.03528
G1 X78.697 Y59.457 E-.03528
G1 X78.685 Y59.384 E-.03528
G1 X78.673 Y59.311 E-.03528
G1 X78.667 Y58.93 E-.18063
G1 X78.664 Y58.904 E-.01247
;WIPE_END
G1 E-.075 F3600
G1 X34.362 Y75.22 F9000
G1 E5 F2400
G1 F1200
G1 X34.314 Y74.953 E.00851
G1 X34.354 Y74.402 E.01733
G1 X34.435 Y74.029 E.01196
G1 X34.687 Y73.464 E.0194
G1 X34.998 Y73.054 E.01615
G1 X35.524 Y72.61 E.02159
G1 X36.148 Y72.317 E.02159
G1 X36.801 Y72.199 E.0208
G1 X37.498 Y72.252 E.02194
G1 X37.749 Y72.317 E.00813
G1 X38.372 Y72.61 E.02159
G1 X38.89 Y73.043 E.02115
G1 X39.238 Y73.511 E.01829
G1 X39.462 Y74.029 E.01771
G1 X39.583 Y74.707 E.02159
G1 X39.525 Y75.393 E.02159
G1 X39.292 Y76.041 E.02159
G1 X38.899 Y76.606 E.02159
G1 X38.372 Y77.051 E.02159
G1 X37.749 Y77.343 E.02159
G1 X37.072 Y77.465 E.02159
G1 X36.825 Y77.465 E.00772
G1 X36.148 Y77.343 E.02159
G1 X35.672 Y77.143 E.01619
G1 X35.172 Y76.78 E.01935
G1 X34.728 Y76.254 E.02159
G1 X34.435 Y75.631 E.02159
G1 X34.372 Y75.279 E.0112
G1 E-3.5 F3600
;WIPE_START
G1 F7200
G1 X34.314 Y74.953 E-.1574
G1 X34.354 Y74.402 E-.26255
G1 X34.435 Y74.029 E-.18114
G1 X34.687 Y73.464 E-.29386
G1 X34.998 Y73.054 E-.2446
G1 X35.458 Y72.667 E-.28544
;WIPE_END
G1 E-.075 F3600
G1 X37.739 Y76.934 F9000
G1 E5 F2400
G1 F1200
G1 X37.605 Y76.995 E.00463
G1 X37.022 Y77.091 E.01852
G1 X36.875 Y77.091 E.00463
G1 X36.292 Y76.995 E.01852
G1 X35.759 Y76.755 E.01833
G1 X35.298 Y76.377 E.01871
G1 X34.954 Y75.897 E.01852
G1 X34.745 Y75.344 E.01852
G1 X34.683 Y74.837 E.01604
G1 X34.745 Y74.316 E.01643
G1 X34.954 Y73.764 E.01852
G1 X35.298 Y73.284 E.01852
G1 X35.754 Y72.909 E.01852
G1 X36.292 Y72.665 E.01852
G1 X36.85 Y72.573 E.01773
G1 X37.454 Y72.626 E.01903
G1 X38.015 Y72.835 E.01876
G1 X38.495 Y73.179 E.01852
G1 X38.87 Y73.636 E.01852
G1 X39.113 Y74.174 E.01852
G1 X39.209 Y74.756 E.01852
G1 X39.151 Y75.344 E.01852
G1 X38.943 Y75.897 E.01852
G1 X38.599 Y76.377 E.01852
G1 X38.143 Y76.751 E.01852
G1 X37.794 Y76.909 E.012
G1 E-3.5 F3600
;WIPE_START
G1 F7200
G1 X37.605 Y76.995 E-.09866
G1 X37.022 Y77.091 E-.2805
G1 X36.875 Y77.091 E-.07014
G1 X36.292 Y76.995 E-.28051
G1 X35.759 Y76.755 E-.27762
G1 X35.298 Y76.377 E-.28345
G1 X35.133 Y76.147 E-.13413
;WIPE_END
G1 E-.075 F3600
G1 X35.235 Y75.565 F9000
G1 E5 F2400
;TYPE:External perimeter
G1 F1200
G1 X35.108 Y75.212 E.01175
G1 X35.061 Y74.806 E.01282
G1 X35.132 Y74.318 E.01545
G1 X35.327 Y73.865 E.01545
G1 X35.632 Y73.479 E.01545
G1 X36.026 Y73.184 E.01545
G1 X36.484 Y73.001 E.01545
G1 X36.946 Y72.946 E.01458
G1 X37.46 Y73.014 E.01628
G1 X37.913 Y73.208 E.01545
G1 X38.3 Y73.513 E.01545
G1 X38.595 Y73.908 E.01545
G1 X38.778 Y74.366 E.01545
G1 X38.836 Y74.855 E.01545
G1 X38.765 Y75.342 E.01545
G1 X38.57 Y75.795 E.01545
G1 X38.265 Y76.182 E.01545
G1 X37.871 Y76.477 E.01545
G1 X37.413 Y76.659 E.01545
G1 X36.924 Y76.717 E.01545
G1 X36.436 Y76.647 E.01545
G1 X35.984 Y76.452 E.01545
G1 X35.597 Y76.147 E.01545
G1 X35.302 Y75.752 E.01545
G1 X35.255 Y75.621 E.00438
G1 X34.862 Y75.524 F9000
G1 E-3.5 F3600
;WIPE_START
G1 F7200
G1 X35.108 Y75.212 E-.20654
G1 X35.061 Y74.806 E-.19414
G1 X35.132 Y74.318 E-.23402
G1 X35.327 Y73.865 E-.23401
G1 X35.632 Y73.479 E-.23401
G1 X36.026 Y73.184 E-.23401
G1 X36.199 Y73.115 E-.08825
;WIPE_END
G1 E-.075 F3600
G1 X36.61 Y122.16 F9000
G1 E5 F2400
;TYPE:Perimeter
G1 F1200
G1 X36.453 Y122.017 E.00666
G1 X36.011 Y121.495 E.02147
G1 X35.877 Y121.288 E.00772
G1 X35.585 Y120.669 E.02147
G1 X35.51 Y120.434 E.00772
G1 X35.388 Y119.761 E.02147
G1 X35.376 Y119.515 E.00772
G1 X35.433 Y118.833 E.02147
G1 X35.716 Y117.948 E.02913
G1 X35.828 Y117.729 E.00772
G1 X36.218 Y117.166 E.02147
G1 X36.906 Y116.542 E.02913
G1 X37.113 Y116.408 E.00772
G1 X37.732 Y116.116 E.02147
G1 X37.967 Y116.041 E.00772
G1 X38.755 Y115.906 E.02507
G1 X50.757 Y115.326 E.37675
G1 X51.554 Y115.383 E.02507
G1 X51.639 Y115.394 E.00269
G1 X52.439 Y115.667 E.0265
G1 X52.658 Y115.779 E.00772
G1 X53.221 Y116.169 E.02147
G1 X53.403 Y116.335 E.00772
G1 X53.845 Y116.857 E.02147
G1 X53.979 Y117.064 E.00772
G1 X54.271 Y117.683 E.02147
G1 X54.346 Y117.917 E.00772
G1 X54.468 Y118.591 E.02147
G1 X54.48 Y118.837 E.00772
G1 X54.423 Y119.519 E.02147
G1 X54.371 Y119.76 E.00772
G1 X54.14 Y120.404 E.02147
G1 X53.744 Y121.032 E.02328
G1 X53.472 Y121.368 E.01354
G1 X52.95 Y121.81 E.02147
G1 X52.743 Y121.944 E.00772
G1 X52.124 Y122.236 E.02147
G1 X51.889 Y122.311 E.00772
G1 X51.101 Y122.446 E.02507
G1 X39.099 Y123.026 E.37675
G1 X38.302 Y122.968 E.02507
G1 X38.061 Y122.916 E.00772
G1 X37.417 Y122.685 E.02147
G1 X37.198 Y122.573 E.00772
G1 X36.657 Y122.198 E.02064
G1 X36.977 Y121.957 F9000
G1 F1200
G1 X36.85 Y121.873 E.00478
G1 X36.298 Y121.251 E.02606
G1 X35.926 Y120.508 E.02606
G1 X35.759 Y119.694 E.02606
G1 X35.808 Y118.864 E.02606
G1 X36.071 Y118.075 E.02606
G1 X36.528 Y117.381 E.02606
G1 X37.15 Y116.829 E.02606
G1 X37.893 Y116.457 E.02606
G1 X38.773 Y116.283 E.02812
G1 X50.775 Y115.702 E.37675
G1 X51.523 Y115.759 E.02353
G1 X52.312 Y116.022 E.02606
G1 X53.006 Y116.479 E.02606
G1 X53.558 Y117.101 E.02606
G1 X53.93 Y117.844 E.02606
G1 X54.097 Y118.658 E.02606
G1 X54.048 Y119.488 E.02606
G1 X53.785 Y120.277 E.02606
G1 X53.434 Y120.817 E.02021
G1 X53.228 Y121.08 E.01046
G1 X52.706 Y121.523 E.02147
G1 X51.963 Y121.895 E.02606
G1 X51.083 Y122.069 E.02812
G1 X39.081 Y122.65 E.37675
G1 X38.333 Y122.593 E.02353
G1 X37.544 Y122.33 E.02606
G1 X37.028 Y121.99 E.0194
G1 X37.323 Y121.739 F9000
;TYPE:External perimeter
G1 F1200
G1 X37.065 Y121.563 E.00979
G1 X36.586 Y121.007 E.023
G1 X36.267 Y120.347 E.023
G1 X36.13 Y119.626 E.023
G1 X36.184 Y118.895 E.023
G1 X36.426 Y118.202 E.023
G1 X36.838 Y117.596 E.023
G1 X37.394 Y117.117 E.023
G1 X38.054 Y116.798 E.023
G1 X38.791 Y116.66 E.02352
G1 X50.793 Y116.079 E.37675
G1 X51.509 Y116.137 E.02252
G1 X52.185 Y116.377 E.02247
G1 X52.791 Y116.789 E.023
G1 X53.27 Y117.345 E.023
G1 X53.589 Y118.005 E.023
G1 X53.726 Y118.726 E.023
G1 X53.672 Y119.457 E.023
G1 X53.43 Y120.15 E.023
G1 X52.985 Y120.792 E.02453
G1 X52.462 Y121.235 E.02147
G1 X51.802 Y121.554 E.023
G1 X51.065 Y121.692 E.02352
G1 X39.063 Y122.273 E.37675
G1 X38.364 Y122.217 E.02199
G1 X37.671 Y121.975 E.023
G1 X37.373 Y121.772 E.01132
G1 X37.05 Y121.89 F9000
G1 E-3.5 F3600
;WIPE_START
G1 F7200
G1 X37.065 Y121.563 E-.17688
G1 X36.586 Y121.007 E-.34838
G1 X36.267 Y120.347 E-.34838
G1 X36.13 Y119.626 E-.34838
G1 X36.162 Y119.2 E-.20298
;WIPE_END
G1 E-.075 F3600
G1 X46.956 Y152.681 F9000
G1 E5 F2400
;TYPE:Perimeter
G1 F1200
G1 X35.099 Y153.255 E.3722
G1 X34.302 Y153.197 E.02507
G1 X34.061 Y153.145 E.00772
G1 X33.417 Y152.914 E.02147
G1 X33.198 Y152.801 E.00772
G1 X32.635 Y152.411 E.02147
G1 X32.453 Y152.246 E.00772
G1 X32.011 Y151.724 E.02147
G1 X31.877 Y151.517 E.00772
G1 X31.585 Y150.898 E.02147
G1 X31.51 Y150.663 E.00772
G1 X31.388 Y149.99 E.02147
G1 X31.376 Y149.744 E.00772
G1 X31.433 Y149.061 E.02147
G1 X31.485 Y148.821 E.00772
G1 X31.716 Y148.177 E.02147
G1 X31.828 Y147.958 E.00772
G1 X32.218 Y147.395 E.02147
G1 X32.384 Y147.213 E.00772
G1 X32.906 Y146.77 E.02147
G1 X33.113 Y146.637 E.00772
G1 X33.732 Y146.345 E.02147
G1 X33.967 Y146.27 E.00772
G1 X34.632 Y146.149 E.02121
G1 X35.543 Y146.097 E.02861
G1 X46.757 Y145.554 E.352
G1 X47.554 Y145.612 E.02507
G1 X47.795 Y145.664 E.00772
G1 X48.439 Y145.895 E.02147
G1 X48.658 Y146.008 E.00772
G1 X49.221 Y146.398 E.02147
G1 X49.403 Y146.563 E.00772
G1 X49.845 Y147.086 E.02147
G1 X49.979 Y147.293 E.00772
G1 X50.271 Y147.912 E.02147
G1 X50.346 Y148.146 E.00772
G1 X50.468 Y148.82 E.02147
G1 X50.48 Y149.066 E.00772
G1 X50.423 Y149.748 E.02147
G1 X50.371 Y149.988 E.00772
G1 X50.14 Y150.633 E.02147
G1 X50.028 Y150.852 E.00772
G1 X49.638 Y151.414 E.02147
G1 X49.472 Y151.596 E.00772
G1 X48.95 Y152.039 E.02147
G1 X48.743 Y152.172 E.00772
G1 X48.124 Y152.464 E.02147
G1 X47.889 Y152.54 E.00772
G1 X47.224 Y152.66 E.02121
G1 X47.016 Y152.678 E.00653
G1 E-3.5 F3600
;WIPE_START
G1 F7200
G1 X44.02 Y152.823 E-1.425
;WIPE_END
G1 E-.075 F3600
G1 X32.7 Y151.932 F9000
G1 E5 F2400
G1 F1200
G1 X32.298 Y151.48 E.01898
G1 X31.926 Y150.737 E.02606
G1 X31.759 Y149.922 E.02606
G1 X31.808 Y149.093 E.02606
G1 X32.071 Y148.304 E.02606
G1 X32.528 Y147.61 E.02606
G1 X33.15 Y147.058 E.02606
G1 X33.893 Y146.686 E.02606
G1 X34.699 Y146.52 E.02581
G1 X46.775 Y145.931 E.37907
G1 X47.523 Y145.988 E.02353
G1 X48.312 Y146.25 E.02606
G1 X49.006 Y146.708 E.02606
G1 X49.558 Y147.33 E.02606
G1 X49.93 Y148.073 E.02606
G1 X50.097 Y148.887 E.02606
G1 X50.048 Y149.717 E.02606
G1 X49.785 Y150.506 E.02606
G1 X49.328 Y151.199 E.02606
G1 X48.706 Y151.751 E.02606
G1 X47.963 Y152.124 E.02606
G1 X47.157 Y152.289 E.02581
G1 X35.081 Y152.878 E.37907
G1 X34.333 Y152.821 E.02353
G1 X33.544 Y152.559 E.02606
G1 X32.85 Y152.101 E.02606
G1 X32.74 Y151.977 E.0052
G1 E-3.5 F3600
;WIPE_START
G1 F7200
G1 X32.298 Y151.48 E-.31598
G1 X31.926 Y150.737 E-.39483
G1 X31.759 Y149.922 E-.39483
G1 X31.799 Y149.251 E-.31936
;WIPE_END
G1 E-.075 F3600
G1 X33.596 Y147.248 F9000
G1 E5 F2400
;TYPE:External perimeter
G1 F1200
G1 X34.054 Y147.027 E.01596
G1 X34.767 Y146.891 E.02274
G1 X46.793 Y146.308 E.37752
G1 X47.492 Y146.364 E.02199
G1 X48.185 Y146.605 E.023
G1 X48.791 Y147.018 E.023
G1 X49.27 Y147.573 E.023
G1 X49.589 Y148.234 E.023
G1 X49.726 Y148.954 E.023
G1 X49.672 Y149.686 E.023
G1 X49.43 Y150.378 E.023
G1 X49.018 Y150.985 E.023
G1 X48.462 Y151.464 E.023
G1 X47.802 Y151.783 E.023
G1 X47.089 Y151.918 E.02274
G1 X35.063 Y152.502 E.37752
G1 X34.364 Y152.446 E.02199
G1 X33.671 Y152.204 E.023
G1 X33.065 Y151.792 E.023
G1 X32.586 Y151.236 E.023
G1 X32.267 Y150.576 E.023
G1 X32.13 Y149.855 E.023
G1 X32.184 Y149.124 E.023
G1 X32.426 Y148.431 E.023
G1 X32.838 Y147.825 E.023
G1 X33.394 Y147.346 E.023
G1 X33.542 Y147.274 E.00516
G1 X33.599 Y146.848 F9000
G1 E-3.5 F3600
;WIPE_START
G1 F7200
G1 X34.054 Y147.027 E-.27023
G1 X34.767 Y146.891 E-.34456
G1 X36.47 Y146.808 E-.81021
;WIPE_END
G1 E-.075 F3600
G1 X132.25 Y70.141 F9000
G1 E5 F2400
;TYPE:Perimeter
G1 F1200
G1 X131.811 Y69.449 E.02568
G1 X131.147 Y68.772 E.02973
G1 X130.771 Y68.422 E.01611
G1 X129.718 Y67.747 E.03922
G1 X129.368 Y67.596 E.01195
G1 X131.013 Y67.596 E.05158
G1 X131.475 Y67.563 E.01454
G1 X132.043 Y67.363 E.01888
G1 X132.226 Y67.21 E.00746
G1 X132.57 Y66.825 E.01618
G1 X132.669 Y66.59 E.00801
G1 X132.785 Y66.04 E.01763
G1 X132.785 Y64.596 E.04527
G1 X159.728 Y64.596 E.84479
G1 X159.728 Y66.653 E.06451
G1 X159.751 Y66.862 E.00658
G1 X159.86 Y67.135 E.00921
G1 X160.023 Y67.339 E.00818
G1 X160.336 Y67.535 E.01156
G1 X160.671 Y67.596 E.01068
G1 X203.404 Y67.596 E1.33988
G1 X203.404 Y74.813 E.22627
G1 X203.404 Y80.02 E.16327
G1 X202.831 Y81.453 E.04839
G1 X183.45 Y83.225 E.61021
G1 X144.071 Y90.385 E1.25496
G1 X143.676 Y90.516 E.01304
G1 X137.189 Y93.76 E.2274
G1 X134.649 Y92.478 E.08922
G1 X131.244 Y87.406 E.19153
G1 X131.002 Y87.141 E.01126
G1 X123.711 Y81.664 E.28592
G1 X123.464 Y81.531 E.00879
G1 X120.139 Y80.334 E.1108
G1 X119.665 Y80.248 E.01511
G1 X108.994 Y80.146 E.3346
G1 X108.478 Y79.105 E.03643
G1 X107.675 Y78.045 E.04168
G1 X107.545 Y77.905 E.00599
G1 X106.545 Y77.029 E.0417
G1 X106.39 Y76.918 E.00599
G1 X105.234 Y76.261 E.04169
G1 X105.059 Y76.184 E.00599
G1 X103.794 Y75.773 E.04169
G1 X103.608 Y75.733 E.00599
G1 X102.286 Y75.586 E.04168
G1 X102.095 Y75.584 E.00599
G1 X100.771 Y75.706 E.04168
G1 X100.584 Y75.743 E.00599
G1 X99.312 Y76.129 E.04169
G1 X99.136 Y76.203 E.00599
G1 X97.967 Y76.838 E.0417
G1 X97.81 Y76.945 E.00599
G1 X96.793 Y77.803 E.04168
G1 X96.661 Y77.94 E.00599
G1 X95.838 Y78.984 E.04169
G1 X95.737 Y79.143 E.0059
G1 X95.299 Y80.011 E.03048
G1 X82.342 Y79.892 E.40628
G1 X81.91 Y79.961 E.01373
G1 X81.639 Y80.065 E.0091
G1 X81.254 Y80.353 E.01508
G1 X80.138 Y81.53 E.05086
G1 X79.913 Y81.853 E.01232
G1 X79.795 Y82.137 E.00965
G1 X79.737 Y82.554 E.01321
G1 X80.585 Y96.248 E.43018
G1 X80.581 Y96.613 E.01143
G1 X80.492 Y97.108 E.01578
G1 X80.31 Y97.436 E.01176
G1 X79.989 Y97.752 E.0141
G1 X79.582 Y97.922 E.01384
G1 X79.012 Y98.006 E.01806
G1 X77.483 Y98.013 E.04795
G1 X77.058 Y98.116 E.01372
G1 X76.645 Y98.359 E.01501
G1 X76.314 Y98.752 E.0161
G1 X71.379 Y107.403 E.31227
G1 X64.513 Y124.586 E.58018
G1 X64.147 Y125.537 E.03195
G1 X62.22 Y134.533 E.28849
G1 X58.942 Y152.3 E.56645
G1 X58.752 Y153.419 E.0356
G1 X58.752 Y156.581 E.09915
G1 X58.798 Y157.016 E.0137
G1 X60.441 Y162.052 E.1661
G1 X60.471 Y162.469 E.01311
G1 X19.759 Y164.439 E1.27799
G1 X17.069 Y161.314 E.12928
