; generated by PrusaSlicer 2.5.0+win64 on 2023-04-20 at 21:18:30 UTC

; 

; external perimeters extrusion width = 0.42mm
; perimeters extrusion width = 0.44mm
; infill extrusion width = 0.44mm
; solid infill extrusion width = 0.44mm
; top infill extrusion width = 0.40mm
; first layer extrusion width = 0.42mm

M201 X500 Y500 Z100 E5000 ; sets maximum accelerations, mm/sec^2
M203 X500 Y500 Z10 E60 ; sets maximum feedrates, mm / sec
M204 P500 R1000 T500 ; sets acceleration (P, T) and retract acceleration (R), mm/sec^2
M205 X8.00 Y8.00 Z0.40 E5.00 ; sets the jerk limits, mm/sec
M205 S0 T0 ; sets the minimum extruding and travel feed rate, mm/sec
M107
;TYPE:Custom
G90 ; use absolute coordinates
M83 ; extruder relative mode
M104 S150 ; set temporary nozzle temp to prevent oozing during homing
M140 S70 ; set final bed temp
G4 S30 ; allow partial nozzle warmup
G28 ; home all axis
G1 Z50 F240
G1 X2.0 Y10 F3000
M104 S210 ; set final nozzle temp
M190 S70 ; wait for bed temp to stabilize
M109 S210 ; wait for nozzle temp to stabilize
G1 Z0.28 F240
G92 E0
G1 X2.0 Y140 E10 F1500 ; prime the nozzle
G1 X2.3 Y140 F5000
G92 E0
G1 X2.3 Y10 E10 F1200 ; prime the nozzle
G92 E0
G21 ; set units to millimeters
G90 ; use absolute coordinates
M83 ; use relative distances for extrusion
; Filament gcode
M107
;LAYER_CHANGE
;Z:0.2
;HEIGHT:0.2
;BEFORE_LAYER_CHANGE
G92 E0
;0.2


G1 E-5 F3600
G1 Z.2 F9000
;AFTER_LAYER_CHANGE
;0.2
G1 X84.986 Y96.533
G1 E5 F2400
M204 S500
;TYPE:Skirt/Brim
;WIDTH:0.42
G1 F1200
G1 X85.911 Y95.732 E.03836
G1 X86.698 Y95.362 E.02726
G1 X87.37 Y95.203 E.02163
G1 X87.967 Y95.162 E.01879
G1 X110.304 Y95.479 E.70042
G1 X111.359 Y95.554 E.03317
G1 X117.103 Y96.543 E.18275
G1 X117.968 Y96.826 E.02851
G1 X118.757 Y97.316 E.02913
G1 X140.22 Y114.879 E.86956
G1 X140.696 Y115.355 E.02111
G1 X141.194 Y116.138 E.02907
G1 X141.46 Y116.936 E.02639
G1 X141.534 Y117.797 E.02709
G1 X141.427 Y118.563 E.02424
G1 X141.21 Y119.192 E.02088
G1 X140.715 Y120.008 E.02992
G1 X139.88 Y120.83 E.03674
G1 X135.555 Y124.073 E.16949
G1 X134.452 Y124.649 E.039
G1 X133.263 Y124.84 E.03777
G1 X124.355 Y124.801 E.27929
G1 X123.665 Y124.639 E.02221
G1 X80.853 Y110.308 E1.41555
G1 X79.928 Y109.801 E.03309
G1 X79.472 Y109.4 E.01902
G1 X78.867 Y108.577 E.03202
G1 X78.369 Y107.498 E.03727
G1 X78.135 Y106.463 E.03327
G1 X78.194 Y105.408 E.03313
G1 X78.36 Y104.823 E.01906
G1 X78.843 Y103.922 E.03206
G1 X84.948 Y96.579 E.29942
; printing object Magazin_Seite_L_V1.stl id:0 copy 0
G1 E-3.5 F3600
;WIPE_START
G1 F7200
G1 X85.911 Y95.732 E-.60933
G1 X86.698 Y95.362 E-.41302
G1 X87.37 Y95.203 E-.32769
G1 X87.527 Y95.192 E-.07496
;WIPE_END
G1 E-.075 F3600
G1 X86.488 Y101.849 F9000
G1 E5 F2400
;TYPE:Perimeter
;WIDTH:0.419999
G1 F1200
G1 X86.549 Y102.205 E.01132
G1 X86.764 Y102.774 E.01907
G1 X87.096 Y103.283 E.01907
G1 X87.53 Y103.709 E.01907
G1 X88.045 Y104.032 E.01907
G1 X88.618 Y104.236 E.01907
G1 X89.221 Y104.313 E.01907
G1 X89.724 Y104.28 E.01581
G1 X90.217 Y104.149 E.01599
G1 X90.764 Y103.884 E.01907
G1 X91.242 Y103.508 E.01907
G1 X91.627 Y103.037 E.01907
G1 X91.902 Y102.495 E.01907
G1 X92.054 Y101.906 E.01907
G1 X92.076 Y101.299 E.01907
G1 X91.967 Y100.7 E.01907
G1 X91.732 Y100.14 E.01907
G1 X91.478 Y99.769 E.01407
G1 X110.121 Y100.034 E.58459
G1 X110.686 Y100.061 E.01773
G1 X111.317 Y100.192 E.02022
G1 X111.852 Y100.387 E.01783
G1 X112.375 Y100.549 E.01718
G1 X114.636 Y100.827 E.07142
G1 X114.494 Y101.058 E.00853
G1 X114.373 Y101.473 E.01353
G1 X114.348 Y101.951 E.01501
G1 X114.384 Y102.261 E.00981
G1 X114.489 Y102.547 E.00955
G1 X114.771 Y102.933 E.01499
G1 X115.002 Y103.129 E.00949
G1 X126.955 Y110.306 E.43715
G1 X129.832 Y117.017 E.22894
G1 X129.932 Y117.195 E.00642
G1 X130.31 Y117.617 E.01774
G1 X131.306 Y118.281 E.03755
G1 X131.707 Y118.46 E.01377
G1 X132.043 Y118.522 E.0107
G1 X135.357 Y118.526 E.10389
G1 X133.014 Y120.283 E.09181
G1 X125.187 Y120.276 E.24542
G1 X114.135 Y109.224 E.49007
G1 X113.781 Y108.972 E.01363
G1 X113.458 Y108.842 E.01091
G1 X113.089 Y108.791 E.01167
G1 X112.656 Y108.855 E.01371
G1 X111.992 Y109.107 E.02228
G1 X111.418 Y109.263 E.01866
G1 X110.753 Y109.365 E.02109
G1 X110.24 Y109.388 E.0161
G1 X109.648 Y109.354 E.01858
G1 X108.985 Y109.239 E.0211
G1 X108.491 Y109.097 E.01611
G1 X107.942 Y108.877 E.01857
G1 X107.35 Y108.556 E.0211
G1 X106.927 Y108.264 E.01611
G1 X106.473 Y107.878 E.01868
G1 X106.063 Y107.444 E.01872
G1 X105.585 Y106.825 E.02451
G1 X105.287 Y106.572 E.01226
G1 X104.897 Y106.378 E.01367
G1 X104.493 Y106.316 E.0128
G1 X83.019 Y106.011 E.67336
G1 X86.45 Y101.895 E.16799
G1 X86.997 Y100.65 F9000
G1 F1200
G1 X86.906 Y100.918 E.00888
G1 X86.836 Y101.44 E.01652
G1 X86.88 Y101.965 E.01652
G1 X87.036 Y102.468 E.01652
G1 X87.296 Y102.926 E.01652
G1 X87.648 Y103.318 E.01652
G1 X88.077 Y103.624 E.01652
G1 X88.561 Y103.831 E.01652
G1 X89.079 Y103.93 E.01652
G1 X89.605 Y103.914 E.01652
G1 X90.116 Y103.786 E.01652
G1 X90.588 Y103.551 E.01652
G1 X90.998 Y103.22 E.01652
G1 X91.327 Y102.809 E.01652
G1 X91.56 Y102.337 E.01652
G1 X91.686 Y101.825 E.01652
G1 X91.699 Y101.299 E.01652
G1 X91.599 Y100.781 E.01652
G1 X91.39 Y100.298 E.01652
G1 X91.082 Y99.871 E.01652
G1 X90.689 Y99.52 E.01652
G1 X90.449 Y99.378 E.00873
G1 X110.492 Y99.673 E.6285
G1 X111.194 Y99.765 E.02221
G1 X112.421 Y100.175 E.04055
G1 X115.611 Y100.567 E.10076
G1 X115.277 Y100.734 E.01172
G1 X115.045 Y100.913 E.00917
G1 X114.822 Y101.244 E.01252
G1 X114.75 Y101.492 E.00812
G1 X114.746 Y102.157 E.02083
G1 X114.878 Y102.473 E.01073
G1 X115.196 Y102.806 E.01444
G1 X127.259 Y110.057 E.44129
G1 X130.178 Y116.868 E.23237
G1 X130.239 Y116.975 E.00385
G1 X130.519 Y117.303 E.01352
G1 X131.515 Y117.968 E.03755
G1 X131.627 Y118.025 E.00394
G1 X132.043 Y118.145 E.01359
G1 X136.486 Y118.15 E.13929
G1 X133.127 Y120.66 E.13147
G1 X125.03 Y120.653 E.25386
G1 X113.868 Y109.491 E.49496
G1 X113.484 Y109.241 E.01436
G1 X113.154 Y109.17 E.01058
G1 X112.771 Y109.214 E.01208
G1 X112.331 Y109.381 E.01476
G1 X111.771 Y109.558 E.01841
G1 X111.056 Y109.7 E.02285
G1 X110.492 Y109.754 E.01776
G1 X109.894 Y109.746 E.01878
G1 X109.166 Y109.653 E.023
G1 X108.616 Y109.525 E.01768
G1 X108.05 Y109.326 E.01883
G1 X107.385 Y109.004 E.02318
G1 X106.907 Y108.709 E.0176
G1 X106.416 Y108.325 E.01955
G1 X106.03 Y107.958 E.01668
G1 X105.628 Y107.497 E.01918
G1 X105.209 Y106.973 E.02104
G1 X104.78 Y106.737 E.01536
G1 X104.488 Y106.693 E.00925
G1 X82.466 Y106.38 E.69054
G1 X82.374 Y106.197 E.00644
G1 X86.958 Y100.696 E.22453
G1 X87.954 Y98.973 F9000
;TYPE:External perimeter
G1 F1200
G1 X88.471 Y98.972 E.01623
;WIDTH:0.466326
G1 X89.086 Y99.004 E.02165
;WIDTH:0.469517
G1 X89.596 Y99.013 E.01811
G1 X90.099 Y98.996 E.01785
;WIDTH:0.419999
G1 X110.245 Y99.281 E.63172
G1 X110.77 Y99.311 E.0165
G1 X111.278 Y99.397 E.01615
G1 X111.773 Y99.539 E.01616
G1 X112.467 Y99.8 E.02325
G1 X116.193 Y100.258 E.11771
G1 X116.268 Y100.298 E.00266
G1 X116.135 Y100.647 E.01169
G1 X116.035 Y100.776 E.00513
G1 X115.446 Y101.071 E.02066
G1 X115.294 Y101.196 E.00617
G1 X115.15 Y101.429 E.00858
G1 X115.101 Y101.99 E.01765
G1 X115.169 Y102.221 E.00755
G1 X115.39 Y102.482 E.01073
G1 X127.427 Y109.709 E.4402
G1 X127.582 Y109.853 E.00664
G1 X130.525 Y116.72 E.23423
G1 X130.728 Y116.99 E.01058
G1 X131.724 Y117.654 E.03755
G1 X132.044 Y117.768 E.01064
G1 X137.229 Y117.774 E.16257
G1 X137.479 Y117.82 E.00797
G1 X137.311 Y118.003 E.00781
G1 X133.385 Y120.947 E.15384
G1 X133.188 Y121.037 E.00681
G1 X124.987 Y121.03 E.25713
G1 X124.822 Y120.978 E.00544
G1 X113.601 Y109.757 E.49754
G1 X113.375 Y109.607 E.00851
G1 X113.145 Y109.549 E.00743
G1 X112.886 Y109.573 E.00816
G1 X112.226 Y109.824 E.02215
G1 X111.575 Y110.002 E.02116
G1 X110.827 Y110.117 E.02372
G1 X110.235 Y110.143 E.01858
G1 X109.561 Y110.105 E.02115
G1 X108.816 Y109.975 E.02372
G1 X108.246 Y109.812 E.01858
G1 X107.62 Y109.56 E.02115
G1 X106.955 Y109.2 E.02373
G1 X106.467 Y108.864 E.01858
G1 X105.953 Y108.426 E.02117
G1 X105.489 Y107.935 E.02118
G1 X104.988 Y107.286 E.02569
G1 X104.694 Y107.109 E.01078
G1 X104.483 Y107.07 E.00674
G1 X82.559 Y106.759 E.68745
G1 X82.214 Y106.718 E.01089
G1 X81.956 Y106.207 E.01797
G1 X81.989 Y106.07 E.00442
G1 X86.438 Y100.731 E.21788
;WIDTH:0.457105
G1 X86.568 Y100.604 E.00626
;WIDTH:0.494211
G1 X86.698 Y100.477 E.00682
;WIDTH:0.531317
G1 X86.828 Y100.35 E.00738
;WIDTH:0.539416
G1 X87.164 Y99.953 E.0215
;WIDTH:0.549892
G1 X87.496 Y99.563 E.02159
G1 X87.59 Y99.417 E.0073
;WIDTH:0.506595
G1 X87.683 Y99.271 E.00668
;WIDTH:0.463297
G1 X87.776 Y99.125 E.00606
;WIDTH:0.419999
G1 X87.908 Y99.012 E.00543
G1 X87.914 Y99.86 F9000
;WIDTH:0.559456
G1 F1200
G1 X88.136 Y99.763 E.01043
;WIDTH:0.512971
G1 X88.359 Y99.666 E.00949
;WIDTH:0.466485
G1 X88.581 Y99.569 E.00855
G1 X89.116 Y99.425 E.01948
;WIDTH:0.476525
G1 X89.632 Y99.444 E.01864
G1 X89.843 Y99.519 E.00806
;WIDTH:0.448262
G1 X90.053 Y99.594 E.00753
;WIDTH:0.419999
G1 X90.445 Y99.807 E.01397
G1 X90.781 Y100.099 E.01397
G1 X91.048 Y100.456 E.01397
G1 X91.231 Y100.862 E.01397
G1 X91.322 Y101.299 E.01397
G1 X91.318 Y101.744 E.01397
G1 X91.218 Y102.178 E.01397
G1 X91.027 Y102.581 E.01397
G1 X90.753 Y102.933 E.01397
G1 X90.411 Y103.218 E.01397
G1 X90.015 Y103.423 E.01397
G1 X89.585 Y103.538 E.01397
G1 X89.14 Y103.557 E.01397
G1 X88.701 Y103.481 E.01397
G1 X88.288 Y103.312 E.01397
G1 X87.854 Y102.986 E.01702
G1 X87.619 Y102.732 E.01087
G1 X87.393 Y102.348 E.01397
G1 X87.255 Y101.924 E.01397
G1 X87.211 Y101.481 E.01397
G1 X87.255 Y101.078 E.0127
;WIDTH:0.457842
G1 X87.277 Y100.954 E.00434
;WIDTH:0.495684
G1 X87.299 Y100.831 E.00473
;WIDTH:0.533527
G1 X87.32 Y100.707 E.00513
;WIDTH:0.571369
G1 X87.342 Y100.583 E.00552
G1 X87.601 Y100.198 E.02039
;WIDTH:0.559456
G1 X87.873 Y99.904 E.0172
G1 X88.109 Y99.317 F9000
;TYPE:Perimeter
;WIDTH:0.440858
G1 F1200
G1 X88.035 Y99.361 E.00285
G1 X88.109 Y99.404 E.00285
G1 X88.134 Y99.361 E.00165
G1 E-3.5 F3600
;WIPE_START
G1 F7200
G1 X88.109 Y99.404 E-.02363
G1 X88.035 Y99.361 E-.04092
G1 X88.109 Y99.317 E-.04092
;WIPE_END
G1 E-1.39452 F3600
G1 X127.443 Y111.749 F9000
G1 E5 F2400
;TYPE:Solid infill
;WIDTH:0.4224
G1 F1200
G1 X125.408 Y109.715 E.09077
G1 X124.064 Y108.907 E.04951
G1 X127.522 Y112.365 E.15433
G1 X127.925 Y113.304 E.03224
G1 X122.719 Y108.098 E.23231
G1 X121.374 Y107.29 E.04951
G1 X128.327 Y114.243 E.31029
G1 X128.73 Y115.183 E.03224
G1 X120.029 Y106.482 E.38826
G1 X118.684 Y105.674 E.04951
G1 X129.455 Y116.445 E.48066
G1 E-3.5 F3600
;WIPE_START
G1 F7200
G1 X127.334 Y114.324 E-1.425
;WIPE_END
G1 E-.075 F3600
G1 X133.802 Y118.645 F9000
G1 E5 F2400
G1 F1200
G1 X134.193 Y119.036 E.01745
G1 X133.886 Y119.266 E.0121
G1 X133.434 Y118.814 E.02016
G1 X132.897 Y118.813 E.01695
G1 X133.579 Y119.496 E.03045
G1 X133.273 Y119.726 E.0121
G1 X132.36 Y118.813 E.04074
G1 X132.033 Y118.812 E.0103
G1 X131.775 Y118.764 E.0083
G1 X132.966 Y119.956 E.05316
G1 X132.917 Y119.992 E.00192
G1 X132.466 Y119.992 E.01425
G1 X116.843 Y104.369 E.69715
G1 E-3.5 F3600
;WIPE_START
G1 F7200
G1 X118.964 Y106.491 E-1.425
;WIPE_END
G1 E-.075 F3600
G1 X114.305 Y101.294 F9000
G1 E5 F2400
G1 F1200
G1 X114.058 Y101.048 E.01099
G1 X113.445 Y100.972 E.01948
G1 X114.237 Y101.763 E.03533
G1 X112.637 Y100.7 F9000
G1 F1200
G1 X114.081 Y102.144 E.06441
G1 X114.103 Y102.337 E.00614
G1 X114.21 Y102.634 E.00997
G1 X114.324 Y102.846 E.0076
G1 X114.587 Y103.163 E.01297
G1 X114.749 Y103.309 E.0069
G1 X115.994 Y104.057 E.04582
G1 X131.929 Y119.992 E.71106
G1 X131.391 Y119.991 E.01695
G1 X112.212 Y100.812 E.85586
G1 X111.935 Y100.734 E.00908
G1 X111.374 Y100.511 E.01904
G1 X130.854 Y119.991 E.86927
G1 X130.317 Y119.99 E.01695
G1 X110.682 Y100.355 E.8762
G1 X110.114 Y100.324 E.01794
G1 X129.78 Y119.99 E.87756
G1 X129.243 Y119.989 E.01695
G1 X109.57 Y100.316 E.87789
G1 X109.026 Y100.309 E.01718
G1 X128.706 Y119.989 E.87821
G1 X128.169 Y119.988 E.01695
G1 X108.481 Y100.301 E.87853
G1 X107.937 Y100.293 E.01718
G1 X127.632 Y119.988 E.87886
G1 X127.094 Y119.987 E.01695
G1 X107.392 Y100.285 E.87918
G1 X106.848 Y100.278 E.01718
G1 X126.557 Y119.987 E.87951
G1 X126.02 Y119.987 E.01695
G1 X106.304 Y100.27 E.87983
G1 X105.759 Y100.262 E.01718
G1 X125.483 Y119.986 E.88016
G1 X125.307 Y119.986 E.00555
G1 X114.336 Y109.015 E.48957
G1 X114.136 Y108.854 E.0081
G1 X113.906 Y108.708 E.00862
G1 X113.714 Y108.614 E.00671
G1 X113.529 Y108.568 E.00603
G1 X105.215 Y100.255 E.371
G1 X104.67 Y100.247 E.01718
G1 X112.942 Y108.518 E.36911
G1 X112.639 Y108.557 E.00965
G1 X112.497 Y108.61 E.00477
G1 X104.126 Y100.239 E.37353
G1 X103.582 Y100.231 E.01718
G1 X112.105 Y108.755 E.38035
G1 X111.699 Y108.885 E.01346
G1 X103.037 Y100.224 E.38653
G1 X102.493 Y100.216 E.01718
G1 X111.269 Y108.992 E.39164
G1 X110.804 Y109.064 E.01485
G1 X101.949 Y100.208 E.39517
G1 X101.404 Y100.2 E.01718
G1 X110.299 Y109.095 E.39691
G1 X109.735 Y109.068 E.01779
G1 X100.86 Y100.193 E.39607
G1 X100.315 Y100.185 E.01718
G1 X109.093 Y108.963 E.3917
G1 X108.586 Y108.822 E.01662
G1 X108.302 Y108.709 E.00964
G1 X99.771 Y100.177 E.3807
G1 X99.227 Y100.17 E.01718
G1 X107.624 Y108.567 E.37475
G1 E-3.5 F3600
;WIPE_START
G1 F7200
G1 X105.503 Y106.446 E-1.425
;WIPE_END
G1 E-.075 F3600
G1 X104.74 Y106.22 F9000
G1 E5 F2400
G1 F1200
G1 X98.682 Y100.162 E.27034
G1 X98.138 Y100.154 E.01718
G1 X104.002 Y106.018 E.26168
G1 X103.458 Y106.011 E.01718
G1 X97.593 Y100.146 E.26168
G1 X97.049 Y100.139 E.01718
G1 X102.913 Y106.003 E.26168
G1 X102.369 Y105.995 E.01718
G1 X96.505 Y100.131 E.26168
G1 X95.96 Y100.123 E.01718
G1 X101.824 Y105.987 E.26168
G1 X101.28 Y105.98 E.01718
G1 X95.416 Y100.116 E.26168
G1 X94.872 Y100.108 E.01718
G1 X100.736 Y105.972 E.26168
G1 X100.191 Y105.964 E.01718
G1 X94.327 Y100.1 E.26168
G1 X93.783 Y100.092 E.01718
G1 X99.647 Y105.957 E.26168
G1 X99.103 Y105.949 E.01718
G1 X93.238 Y100.085 E.26168
G1 X92.694 Y100.077 E.01718
G1 X98.558 Y105.941 E.26168
G1 X98.014 Y105.933 E.01718
G1 X92.15 Y100.069 E.26168
G1 X92.009 Y100.067 E.00443
G1 X92.168 Y100.389 E.01132
G1 X92.27 Y100.727 E.01113
G1 X97.469 Y105.926 E.23201
G1 X96.925 Y105.918 E.01718
G1 X92.367 Y101.36 E.20341
G1 X92.348 Y101.878 E.01636
G1 X96.381 Y105.91 E.17994
G1 X95.836 Y105.902 E.01718
G1 X92.259 Y102.326 E.15962
G1 X92.118 Y102.721 E.01324
G1 X95.292 Y105.895 E.14164
G1 X94.747 Y105.887 E.01718
G1 X91.939 Y103.079 E.12531
G1 X91.719 Y103.396 E.01217
G1 X94.203 Y105.879 E.11084
G1 X93.659 Y105.872 E.01718
G1 X91.472 Y103.685 E.09757
G1 X91.186 Y103.936 E.012
G1 X93.114 Y105.864 E.08604
G1 X92.57 Y105.856 E.01718
G1 X90.87 Y104.157 E.07584
G1 X90.518 Y104.341 E.01255
G1 X92.025 Y105.848 E.06727
G1 X91.481 Y105.841 E.01718
G1 X90.117 Y104.476 E.06089
G1 X89.77 Y104.567 E.0113
G1 X89.677 Y104.573 E.00296
G1 X90.937 Y105.833 E.05623
G1 X90.392 Y105.825 E.01718
G1 X89.171 Y104.603 E.05452
G1 X88.547 Y104.517 E.01986
G1 X89.848 Y105.818 E.05805
G1 X89.304 Y105.81 E.01718
G1 X86.173 Y102.68 E.13967
G1 X85.93 Y102.973 E.01202
G1 X88.759 Y105.802 E.12627
G1 X88.215 Y105.794 E.01718
G1 X85.686 Y103.265 E.11286
G1 X85.442 Y103.558 E.01202
G1 X87.67 Y105.787 E.09945
G1 X87.126 Y105.779 E.01718
G1 X85.198 Y103.851 E.08605
G1 X84.954 Y104.143 E.01202
G1 X86.582 Y105.771 E.07264
G1 X86.037 Y105.763 E.01718
G1 X84.71 Y104.436 E.05923
G1 X84.466 Y104.729 E.01202
G1 X85.493 Y105.756 E.04582
G1 X84.948 Y105.748 E.01718
G1 X84.222 Y105.022 E.03242
G1 X83.978 Y105.314 E.01202
G1 X84.404 Y105.74 E.01901
G1 X83.86 Y105.733 E.01718
G1 X83.614 Y105.487 E.01098
; stop printing object Magazin_Seite_L_V1.stl id:0 copy 0
M106 S255
;LAYER_CHANGE
;Z:0.4
;HEIGHT:0.2
;BEFORE_LAYER_CHANGE
G92 E0
;0.4


G1 E-3.5 F3600
;WIPE_START
G1 F7200
G1 X83.86 Y105.733 E-.16527
G1 X84.404 Y105.74 E-.25861
G1 X83.978 Y105.314 E-.28616
G1 X84.222 Y105.022 E-.181
G1 X84.948 Y105.748 E-.48799
G1 X85.045 Y105.749 E-.04597
;WIPE_END
G1 E-.075 F3600
G1 Z.4 F9000
;AFTER_LAYER_CHANGE
;0.4
G1 X83.251 Y111.11
G1 E5 F2400
;TYPE:Skirt/Brim
;WIDTH:0.42
G1 X80.853 Y110.308 E.07927
G1 X79.928 Y109.801 E.03309
G1 X79.472 Y109.4 E.01902
G1 X78.867 Y108.577 E.03202
G1 X78.369 Y107.498 E.03727
G1 X78.135 Y106.463 E.03327
G1 X78.194 Y105.408 E.03313
