;FLAVOR:Marlin
;TIME:9205
;Filament used: 6.68623m
;Layer height: 0.2
;MINX:42.519
;MINY:80.835
;MINZ:0.2
;MAXX:192.019
;MAXY:165.878
;MAXZ:8
;Generated with Cura_SteamEngine 5.2.1
M140 S50
M105
M190 S50
M104 S200
M105
M109 S200
M82 ;absolute extrusion mode
; Ender 3 Custom Start G-code
G92 E0 ; Reset Extruder
G28 ; Home all axes
G1 Z2.0 F3000 ; Move Z Axis up little to prevent scratching of Heat Bed
G1 X0.1 Y20 Z0.3 F5000.0 ; Move to start position
G1 X0.1 Y200.0 Z0.3 F1500.0 E15 ; Draw the first line
G1 X0.4 Y200.0 Z0.3 F5000.0 ; Move to side a little
G1 X0.4 Y20 Z0.3 F1500.0 E30 ; Draw the second line
G92 E0 ; Reset Extruder
G1 Z2.0 F3000 ; Move Z Axis up little to prevent scratching of Heat Bed
G1 X5 Y20 Z0.3 F5000.0 ; Move over to prevent blob squish
G92 E0
G92 E0
G1 F2700 E-5
;LAYER_COUNT:40
;LAYER:0
M107
G0 F6000 X59.061 Y103.796 Z0.2
;TYPE:SKIRT
G1 F2700 E0
G1 F1200 X59.994 Y103.32 E0.03484
G1 X60.89 Y102.915 E0.06754
G1 X63.301 Y101.782 E0.15614
G1 X65.534 Y100.654 E0.23935
G1 X67.756 Y99.452 E0.32338
G1 X69.895 Y98.216 E0.40554
G1 X72.071 Y96.875 E0.49056
G1 X74.189 Y95.484 E0.57484
G1 X76.232 Y94.059 E0.65768
G1 X78.243 Y92.571 E0.74089
G1 X80.261 Y90.987 E0.82621
G1 X82.15 Y89.415 E0.90795
G1 X84.076 Y87.719 E0.99331
G1 X85.908 Y86.011 E1.07661
G1 X87.922 Y84.02 E1.17081
G1 X88.616 Y83.39 E1.20198
G1 X89.362 Y82.821 E1.23319
G1 X90.154 Y82.318 E1.26439
G1 X90.985 Y81.884 E1.29558
G1 X91.85 Y81.523 E1.32675
G1 X92.743 Y81.236 E1.35795
G1 X93.658 Y81.027 E1.38916
G1 X94.586 Y80.896 E1.42034
G1 X95.349 Y80.848 E1.44576
G1 X95.979 Y80.835 E1.46672
G1 X115.04 Y80.836 E2.10069
G1 X117.191 Y80.843 E2.17224
G1 X136.555 Y80.842 E2.81629
G1 X137.257 Y80.852 E2.83964
G1 X138.193 Y80.905 E2.87082
G1 X139.121 Y81.038 E2.902
G1 X140.035 Y81.25 E2.93321
G1 X140.928 Y81.538 E2.96441
G1 X141.792 Y81.902 E2.9956
G1 X142.623 Y82.338 E3.02681
G1 X143.413 Y82.843 E3.05799
G1 X144.157 Y83.413 E3.08917
G1 X144.586 Y83.791 E3.10818
G1 X145.063 Y84.234 E3.12984
G1 X146.217 Y85.337 E3.18293
G1 X148.084 Y87.023 E3.2666
G1 X150.014 Y88.671 E3.35101
G1 X151.967 Y90.245 E3.43444
G1 X153.954 Y91.755 E3.51744
G1 X156.017 Y93.234 E3.60187
G1 X158.115 Y94.649 E3.68604
G1 X160.214 Y95.981 E3.76872
G1 X162.403 Y97.282 E3.85342
G1 X164.591 Y98.504 E3.93677
G1 X166.817 Y99.662 E4.02023
G1 X169.072 Y100.758 E4.10362
G1 X171.384 Y101.8 E4.18796
G1 X173.733 Y102.782 E4.27264
G1 X174.614 Y103.136 E4.30422
G1 X175.468 Y103.523 E4.33541
G1 X176.286 Y103.981 E4.36659
G1 X177.063 Y104.507 E4.3978
G1 X177.792 Y105.097 E4.42899
G1 X178.468 Y105.747 E4.46018
G1 X179.086 Y106.453 E4.49139
G1 X179.641 Y107.208 E4.52255
G1 X180.131 Y108.009 E4.55378
G1 X180.55 Y108.847 E4.58495
G1 X180.88 Y109.672 E4.6145
G1 X181.052 Y110.158 E4.63165
G1 X181.944 Y112.567 E4.71709
G1 X182.879 Y114.894 E4.8005
G1 X183.892 Y117.219 E4.88485
G1 X184.96 Y119.493 E4.96841
G1 X186.092 Y121.735 E5.05194
G1 X187.281 Y123.935 E5.13512
G1 X188.558 Y126.144 E5.21998
G1 X189.944 Y128.391 E5.30779
G1 X190.282 Y128.921 E5.3287
G1 X190.753 Y129.732 E5.35989
G1 X191.152 Y130.581 E5.39109
G1 X191.478 Y131.46 E5.42228
G1 X191.727 Y132.364 E5.45346
G1 X191.899 Y133.286 E5.48466
G1 X192.004 Y134.502 E5.52525
G1 X192.019 Y135.165 E5.54731
G1 X192.018 Y154.25 E6.18208
G1 X192.008 Y154.977 E6.20626
G1 X191.955 Y155.914 E6.23748
G1 X191.823 Y156.842 E6.26865
G1 X191.612 Y157.756 E6.29985
G1 X191.323 Y158.648 E6.33104
G1 X190.96 Y159.513 E6.36224
G1 X190.525 Y160.344 E6.39343
G1 X190.02 Y161.134 E6.42462
G1 X189.45 Y161.879 E6.45582
G1 X188.819 Y162.573 E6.48702
G1 X188.13 Y163.21 E6.51823
G1 X187.39 Y163.786 E6.54942
G1 X186.604 Y164.297 E6.5806
G1 X185.777 Y164.739 E6.61179
G1 X184.915 Y165.109 E6.64299
G1 X184.025 Y165.404 E6.67417
G1 X183.113 Y165.623 E6.70537
G1 X182.186 Y165.763 E6.73655
G1 X181.318 Y165.822 E6.76548
G1 X180.689 Y165.835 E6.78641
G1 X162.26 Y165.835 E7.39936
G1 X159.358 Y165.878 E7.49589
G1 X118.562 Y165.878 E8.85277
G1 X116.398 Y165.845 E8.92476
G1 X115.026 Y165.835 E8.97039
G1 X54.053 Y165.834 E10.99836
G1 X53.355 Y165.823 E11.02158
G1 X52.418 Y165.768 E11.0528
G1 X51.49 Y165.634 E11.08398
G1 X50.577 Y165.421 E11.11516
G1 X49.685 Y165.131 E11.14636
G1 X48.821 Y164.766 E11.17756
G1 X47.991 Y164.329 E11.20876
G1 X47.202 Y163.823 E11.23993
G1 X46.458 Y163.251 E11.27114
G1 X45.766 Y162.618 E11.30234
G1 X45.13 Y161.929 E11.33352
G1 X44.555 Y161.187 E11.36475
G1 X44.046 Y160.4 E11.39592
G1 X43.605 Y159.572 E11.42712
G1 X43.237 Y158.71 E11.45829
G1 X42.944 Y157.819 E11.48949
G1 X42.727 Y156.906 E11.5207
G1 X42.589 Y155.979 E11.55187
G1 X42.532 Y155.123 E11.58041
G1 X42.519 Y154.493 E11.60137
G1 X42.52 Y135.386 E12.23687
G1 X42.53 Y134.682 E12.26029
G1 X42.583 Y133.745 E12.2915
G1 X42.716 Y132.817 E12.32268
G1 X42.928 Y131.903 E12.35389
G1 X43.216 Y131.011 E12.38506
G1 X43.58 Y130.146 E12.41628
G1 X44.016 Y129.316 E12.44746
G1 X44.322 Y128.818 E12.4669
G1 X45.087 Y127.648 E12.5134
G1 X46.349 Y125.671 E12.59141
G1 X47.637 Y123.523 E12.67471
G1 X48.882 Y121.307 E12.75925
G1 X50.029 Y119.121 E12.84136
G1 X51.159 Y116.812 E12.92686
G1 X52.196 Y114.532 E13.01016
G1 X53.159 Y112.244 E13.09273
G1 X54.265 Y109.38 E13.19484
G1 X54.64 Y108.52 E13.22605
G1 X55.087 Y107.696 E13.25723
G1 X55.602 Y106.912 E13.28843
G1 X56.182 Y106.175 E13.31962
G1 X56.823 Y105.49 E13.35082
G1 X57.52 Y104.863 E13.382
G1 X58.268 Y104.297 E13.4132
G1 X59.061 Y103.796 E13.4444
G0 F6000 X59.377 Y104.077
G1 F1200 X60.159 Y103.684 E13.47351
G1 X61.074 Y103.27 E13.50691
G1 X63.472 Y102.143 E13.59504
G1 X65.725 Y101.006 E13.67898
G1 X67.94 Y99.807 E13.76275
G1 X70.125 Y98.544 E13.84669
G1 X72.279 Y97.217 E13.93084
G1 X74.408 Y95.82 E14.01553
G1 X76.453 Y94.393 E14.09847
G1 X78.505 Y92.874 E14.18338
G1 X80.497 Y91.31 E14.26762
G1 X82.425 Y89.706 E14.35104
G1 X84.349 Y88.011 E14.43632
G1 X86.179 Y86.305 E14.51953
G1 X88.203 Y84.305 E14.61417
G1 X88.885 Y83.687 E14.64478
G1 X89.619 Y83.13 E14.67543
G1 X90.398 Y82.639 E14.70606
G1 X91.216 Y82.218 E14.73665
G1 X92.068 Y81.869 E14.76728
G1 X92.947 Y81.595 E14.7979
G1 X93.847 Y81.399 E14.82854
G1 X94.76 Y81.282 E14.85915
G1 X95.36 Y81.248 E14.87914
G1 X95.979 Y81.235 E14.89973
G1 X115.038 Y81.236 E15.53364
G1 X117.189 Y81.243 E15.60518
G1 X136.397 Y81.241 E16.24404
G1 X137.251 Y81.252 E16.27245
G1 X138.17 Y81.305 E16.30306
G1 X139.081 Y81.438 E16.33368
G1 X139.977 Y81.649 E16.3643
G1 X140.852 Y81.937 E16.39494
G1 X141.698 Y82.3 E16.42556
G1 X142.509 Y82.735 E16.45617
G1 X143.28 Y83.239 E16.4868
G1 X144.313 Y84.084 E16.53119
G1 X144.905 Y84.635 E16.55809
G1 X145.956 Y85.64 E16.60646
G1 X147.822 Y87.326 E16.6901
G1 X149.746 Y88.968 E16.77423
G1 X151.719 Y90.559 E16.85853
G1 X153.724 Y92.083 E16.94229
G1 X155.806 Y93.575 E17.02749
G1 X157.858 Y94.959 E17.10981
G1 X160.041 Y96.344 E17.1958
G1 X162.182 Y97.617 E17.27864
G1 X164.418 Y98.864 E17.3638
G1 X166.636 Y100.019 E17.44697
G1 X168.911 Y101.125 E17.5311
G1 X171.214 Y102.163 E17.61512
G1 X173.577 Y103.15 E17.7003
G1 X174.464 Y103.507 E17.7321
G1 X175.303 Y103.887 E17.76273
G1 X176.105 Y104.339 E17.79335
G1 X176.865 Y104.858 E17.82396
G1 X177.577 Y105.442 E17.85459
G1 X178.236 Y106.085 E17.88521
G1 X178.837 Y106.783 E17.91585
G1 X179.375 Y107.53 E17.94647
G1 X179.845 Y108.321 E17.97707
G1 X180.246 Y109.15 E18.0077
G1 X180.503 Y109.805 E18.0311
G1 X180.672 Y110.282 E18.04793
G1 X181.574 Y112.719 E18.13436
G1 X182.518 Y115.067 E18.21853
G1 X183.521 Y117.37 E18.30208
G1 X184.599 Y119.664 E18.38638
G1 X185.741 Y121.927 E18.47069
G1 X186.934 Y124.135 E18.55416
G1 X188.206 Y126.333 E18.63863
G1 X189.609 Y128.609 E18.72756
G1 X189.945 Y129.136 E18.74834
G1 X190.406 Y129.933 E18.77897
G1 X190.796 Y130.767 E18.80959
G1 X191.113 Y131.631 E18.8402
G1 X191.353 Y132.52 E18.87083
G1 X191.515 Y133.426 E18.90144
G1 X191.604 Y134.514 E18.93774
G1 X191.619 Y135.165 E18.9594
G1 X191.618 Y154.245 E19.59401
G1 X191.608 Y154.972 E19.61819
G1 X191.555 Y155.891 E19.64881
G1 X191.423 Y156.802 E19.67942
G1 X191.212 Y157.698 E19.71004
G1 X190.925 Y158.573 E19.74067
G1 X190.562 Y159.419 E19.77129
G1 X190.128 Y160.231 E19.80191
G1 X189.624 Y161.002 E19.83254
G1 X189.056 Y161.726 E19.86315
G1 X188.427 Y162.398 E19.89377
G1 X187.742 Y163.013 E19.92438
G1 X187.006 Y163.566 E19.955
G1 X186.225 Y164.054 E19.98563
G1 X185.405 Y164.472 E20.01625
G1 X184.551 Y164.817 E20.04688
G1 X183.671 Y165.086 E20.07749
G1 X182.77 Y165.279 E20.10813
G1 X181.857 Y165.392 E20.13873
G1 X181.307 Y165.422 E20.15705
G1 X180.689 Y165.435 E20.17761
G1 X162.254 Y165.435 E20.79076
G1 X159.352 Y165.478 E20.88729
G1 X118.569 Y165.478 E22.24374
G1 X116.409 Y165.445 E22.31559
G1 X115.029 Y165.435 E22.36149
G1 X54.059 Y165.434 E24.38936
G1 X53.361 Y165.423 E24.41258
G1 X52.442 Y165.368 E24.4432
G1 X51.531 Y165.234 E24.47383
G1 X50.635 Y165.022 E24.50445
G1 X49.761 Y164.732 E24.53508
G1 X48.916 Y164.368 E24.56568
G1 X48.105 Y163.932 E24.59631
G1 X47.335 Y163.427 E24.62693
G1 X46.612 Y162.857 E24.65755
G1 X45.941 Y162.227 E24.68817
G1 X45.327 Y161.54 E24.71881
G1 X44.776 Y160.803 E24.74942
G1 X44.29 Y160.021 E24.78004
G1 X43.874 Y159.2 E24.81065
G1 X43.53 Y158.346 E24.84128
G1 X43.262 Y157.465 E24.8719
G1 X43.072 Y156.564 E24.90253
G1 X42.96 Y155.651 E24.93312
G1 X42.932 Y155.112 E24.95107
G1 X42.919 Y154.493 E24.97167
G1 X42.92 Y135.391 E25.607
G1 X42.93 Y134.687 E25.63042
G1 X42.983 Y133.768 E25.66104
G1 X43.116 Y132.857 E25.69166
G1 X43.327 Y131.961 E25.72227
G1 X43.615 Y131.087 E25.75288
G1 X43.978 Y130.241 E25.7835
G1 X44.413 Y129.429 E25.81414
G1 X44.657 Y129.037 E25.8295
G1 X45.422 Y127.867 E25.87599
G1 X46.696 Y125.871 E25.95475
G1 X47.986 Y123.719 E26.0382
G1 X49.227 Y121.51 E26.12247
G1 X50.399 Y119.276 E26.20638
G1 X51.512 Y117.003 E26.29056
G1 X52.552 Y114.717 E26.37409
G1 X53.536 Y112.377 E26.45852
G1 X54.638 Y109.524 E26.56024
G1 X55.007 Y108.681 E26.59085
G1 X55.447 Y107.872 E26.62148
G1 X55.956 Y107.105 E26.65209
G1 X56.53 Y106.385 E26.68272
G1 X57.164 Y105.717 E26.71335
G1 X57.853 Y105.107 E26.74396
G1 X58.593 Y104.559 E26.77458
G1 X59.377 Y104.077 E26.80519
G0 F6000 X59.692 Y104.361
G1 F1200 X60.323 Y104.048 E26.82862
G1 X61.285 Y103.613 E26.86374
G1 X63.658 Y102.498 E26.95094
G1 X65.917 Y101.357 E27.03512
G1 X68.11 Y100.171 E27.11804
G1 X70.33 Y98.888 E27.20332
G1 X72.503 Y97.549 E27.28821
G1 X74.635 Y96.149 E27.37305
G1 X76.698 Y94.71 E27.45671
G1 X78.744 Y93.195 E27.54138
G1 X80.737 Y91.631 E27.62564
G1 X82.699 Y89.998 E27.71055
G1 X84.603 Y88.321 E27.79493
G1 X86.449 Y86.6 E27.87888
G1 X88.484 Y84.589 E27.97403
G1 X89.154 Y83.983 E28.00408
G1 X89.875 Y83.439 E28.03412
G1 X90.641 Y82.961 E28.06415
G1 X91.446 Y82.552 E28.09418
G1 X92.285 Y82.217 E28.12423
G1 X93.149 Y81.956 E28.15425
G1 X94.034 Y81.774 E28.1843
G1 X95.371 Y81.648 E28.22897
G1 X95.979 Y81.635 E28.24919
G1 X115.037 Y81.636 E28.88307
G1 X117.188 Y81.643 E28.95461
G1 X136.397 Y81.641 E29.5935
G1 X137.245 Y81.652 E29.62171
G1 X138.147 Y81.705 E29.65176
G1 X139.04 Y81.837 E29.68179
G1 X139.918 Y82.048 E29.71182
G1 X140.774 Y82.336 E29.74186
G1 X141.602 Y82.698 E29.77192
G1 X142.394 Y83.132 E29.80195
G1 X143.144 Y83.635 E29.83199
G1 X144.041 Y84.377 E29.87071
G1 X144.518 Y84.82 E29.89236
G1 X145.676 Y85.927 E29.94564
G1 X147.558 Y87.626 E30.02997
G1 X149.502 Y89.286 E30.115
G1 X151.472 Y90.874 E30.19915
G1 X153.472 Y92.394 E30.28271
G1 X155.572 Y93.898 E30.36862
G1 X157.666 Y95.311 E30.45264
G1 X159.812 Y96.673 E30.53718
G1 X161.978 Y97.961 E30.62099
G1 X164.203 Y99.203 E30.70574
G1 X166.499 Y100.398 E30.79183
G1 X168.737 Y101.485 E30.87459
G1 X171.045 Y102.526 E30.9588
G1 X173.423 Y103.519 E31.04451
G1 X174.315 Y103.878 E31.07649
G1 X175.137 Y104.252 E31.10653
G1 X175.923 Y104.697 E31.13657
G1 X176.667 Y105.21 E31.16662
G1 X177.362 Y105.786 E31.19665
G1 X178.003 Y106.422 E31.22668
G1 X178.586 Y107.112 E31.25673
G1 X179.106 Y107.851 E31.28678
G1 X179.558 Y108.632 E31.31679
G1 X179.939 Y109.451 E31.34684
G1 X180.126 Y109.939 E31.36422
G1 X180.289 Y110.399 E31.38045
G1 X181.199 Y112.858 E31.46766
G1 X182.144 Y115.21 E31.55196
G1 X183.164 Y117.55 E31.63686
G1 X184.237 Y119.835 E31.72083
G1 X185.39 Y122.118 E31.80589
G1 X186.593 Y124.345 E31.89008
G1 X187.861 Y126.537 E31.97431
G1 X189.245 Y128.782 E32.06202
G1 X189.608 Y129.351 E32.08447
G1 X190.06 Y130.133 E32.11451
G1 X190.44 Y130.952 E32.14454
G1 X190.747 Y131.801 E32.17457
G1 X190.977 Y132.675 E32.20463
G1 X191.129 Y133.565 E32.23466
G1 X191.204 Y134.526 E32.26672
G1 X191.219 Y135.165 E32.28798
G1 X191.218 Y154.239 E32.92238
G1 X191.208 Y154.966 E32.94656
G1 X191.156 Y155.868 E32.97661
G1 X191.024 Y156.761 E33.00664
G1 X190.813 Y157.64 E33.03671
G1 X190.526 Y158.496 E33.06673
G1 X190.164 Y159.323 E33.09676
G1 X189.73 Y160.115 E33.1268
G1 X189.228 Y160.866 E33.15684
G1 X188.662 Y161.569 E33.18686
G1 X188.035 Y162.22 E33.21692
G1 X187.354 Y162.812 E33.24693
G1 X186.623 Y163.342 E33.27697
G1 X185.847 Y163.805 E33.30702
G1 X185.034 Y164.198 E33.33705
G1 X184.189 Y164.518 E33.36711
G1 X183.32 Y164.761 E33.39712
G1 X182.432 Y164.926 E33.42716
G1 X181.296 Y165.022 E33.46508
G1 X180.689 Y165.035 E33.48527
G1 X162.248 Y165.035 E34.09862
G1 X159.346 Y165.078 E34.19515
G1 X118.575 Y165.078 E35.5512
G1 X116.418 Y165.045 E35.62295
G1 X115.031 Y165.035 E35.66909
G1 X54.065 Y165.034 E37.69682
G1 X53.367 Y165.023 E37.72004
G1 X52.466 Y164.969 E37.75006
G1 X51.573 Y164.835 E37.7801
G1 X50.695 Y164.623 E37.81014
G1 X49.839 Y164.334 E37.84019
G1 X49.013 Y163.97 E37.87021
G1 X48.221 Y163.535 E37.90026
G1 X47.472 Y163.031 E37.93029
G1 X46.769 Y162.463 E37.96035
G1 X46.12 Y161.836 E37.99036
G1 X45.529 Y161.153 E38.0204
G1 X45 Y160.421 E38.05044
G1 X44.539 Y159.644 E38.08049
G1 X44.148 Y158.83 E38.11053
G1 X43.83 Y157.985 E38.14056
G1 X43.589 Y157.115 E38.17058
G1 X43.425 Y156.227 E38.20062
G1 X43.332 Y155.101 E38.2382
G1 X43.319 Y154.493 E38.25842
G1 X43.32 Y135.397 E38.89356
G1 X43.33 Y134.693 E38.91698
G1 X43.383 Y133.792 E38.94699
G1 X43.515 Y132.898 E38.97705
G1 X43.726 Y132.02 E39.00709
G1 X44.014 Y131.164 E39.03712
G1 X44.376 Y130.337 E39.06715
G1 X44.992 Y129.256 E39.10853
G1 X45.715 Y128.15 E39.15248
G1 X47.033 Y126.085 E39.23396
G1 X48.344 Y123.899 E39.31874
G1 X49.564 Y121.727 E39.4016
G1 X50.762 Y119.444 E39.48735
G1 X51.877 Y117.166 E39.5717
G1 X52.926 Y114.86 E39.65597
G1 X53.91 Y112.523 E39.7403
G1 X55.012 Y109.668 E39.84209
G1 X55.374 Y108.841 E39.87212
G1 X55.808 Y108.049 E39.90215
G1 X56.31 Y107.299 E39.93217
G1 X56.877 Y106.595 E39.96224
G1 X57.504 Y105.945 E39.99227
G1 X58.185 Y105.353 E40.02229
G1 X58.917 Y104.823 E40.05234
G1 X59.692 Y104.361 E40.08235
G1 F2700 E35.08235
;MESH:scincepro1+others.3mf(14)
G0 F6000 X64.933 Y112.67
G0 X83.919 Y132.735
;TYPE:WALL-INNER
G1 F2700 E40.08235
G1 F1200 X83.919 Y123.335 E40.395
G1 X83.919 Y113.935 E40.70764
G1 X65.119 Y113.935 E41.33293
G1 X65.119 Y132.735 E41.95822
G1 X83.919 Y132.735 E42.58351
G0 F6000 X84.319 Y133.135
;TYPE:WALL-OUTER
G1 F1200 X84.319 Y123.335 E42.90946
G1 X84.319 Y113.535 E43.23541
G1 X64.719 Y113.535 E43.88731
G1 X64.719 Y133.135 E44.53921
G1 X84.319 Y133.135 E45.19111
G0 F6000 X84.049 Y132.865
G0 X83.819 Y132.375
G0 X83.559 Y132.375
;TYPE:SKIN
G1 F1200 X83.559 Y123.335 E45.49178
G1 X83.559 Y114.295 E45.79245
G1 X65.479 Y114.295 E46.3938
G1 X65.479 Y132.375 E46.99514
G1 X83.559 Y132.375 E47.59648
G0 F6000 X83.819 Y132.375
G0 X83.819 Y115.037
G0 X83.358 Y115.037
G1 F1200 X82.816 Y114.494 E47.622
G0 F6000 X82.25 Y114.494
G1 F1200 X83.358 Y115.602 E47.67412
G0 F6000 X83.358 Y116.168
G1 F1200 X81.684 Y114.494 E47.75286
G0 F6000 X81.119 Y114.494
G1 F1200 X83.358 Y116.734 E47.8582
G0 F6000 X83.358 Y117.299
G1 F1200 X80.553 Y114.494 E47.99013
G0 F6000 X79.987 Y114.494
G1 F1200 X83.358 Y117.865 E48.1487
G0 F6000 X83.358 Y118.431
G1 F1200 X79.422 Y114.494 E48.33386
G0 F6000 X78.856 Y114.494
G1 F1200 X83.358 Y118.996 E48.54562
G0 F6000 X83.358 Y119.562
G1 F1200 X78.29 Y114.494 E48.784
G0 F6000 X77.725 Y114.494
G1 F1200 X83.358 Y120.128 E49.04898
G0 F6000 X83.358 Y120.693
G1 F1200 X77.159 Y114.494 E49.34056
G0 F6000 X76.593 Y114.494
G1 F1200 X83.358 Y121.259 E49.65877
