;FLAVOR:Marlin
;TIME:2034
;Filament used: 1.09349m
;Layer height: 0.2
;MINX:95.781
;MINY:97.191
;MINZ:0.2
;MAXX:143.677
;MAXY:147.653
;MAXZ:15
;POSTPROCESSED
;Generated with Cura_SteamEngine 5.2.1
M140 S70
M105
M190 S70
M104 S200
M105
M109 S200
M82 ;absolute extrusion mode
; Ender 3 Custom Start G-code
G92 E0 ; Reset Extruder
G28 ; Home all axes
G1 Z2.0 F3000 ; Move Z Axis up little to prevent scratching of Heat Bed
G1 X0.1 Y20 Z0.3 F5000.0 ; Move to start position
G1 X0.1 Y200.0 Z0.3 F1500.0 E15 ; Draw the first line
G1 X0.4 Y200.0 Z0.3 F5000.0 ; Move to side a little
G1 X0.4 Y20 Z0.3 F1500.0 E30 ; Draw the second line
G92 E0 ; Reset Extruder
G1 Z2.0 F3000 ; Move Z Axis up little to prevent scratching of Heat Bed
G1 X5 Y20 Z0.3 F5000.0 ; Move over to prevent blob squish
G92 E0
G92 E0
G1 F2700 E-5
;LAYER_COUNT:75
;LAYER:0
M117 Layer 0 of 74 CE3E3V2_Jake
M107
G0 F6000 X99.746 Y101.881 Z0.2
;TYPE:SKIRT
G1 F2700 E0
G1 F1200 X100.425 Y101.235 E0.03117
G1 X101.157 Y100.649 E0.06236
G1 X102.022 Y100.076 E0.09687
G1 X104.02 Y98.883 E0.17427
G1 X104.845 Y98.436 E0.20548
G1 X105.705 Y98.062 E0.23667
G1 X106.593 Y97.763 E0.26783
G1 X107.505 Y97.54 E0.29906
G1 X108.015 Y97.451 E0.31628
G1 X108.928 Y97.313 E0.34699
G1 X109.86 Y97.212 E0.37817
G1 X110.798 Y97.191 E0.40937
G1 X111.734 Y97.251 E0.44057
G1 X112.609 Y97.379 E0.46998
G1 X113.709 Y97.586 E0.50721
G1 X116.193 Y98.02 E0.59108
G1 X118.716 Y98.386 E0.67587
G1 X121.207 Y98.677 E0.75929
G1 X123.748 Y98.901 E0.84413
G1 X126.208 Y99.048 E0.9261
G1 X128.757 Y99.128 E1.01092
G1 X131.306 Y99.136 E1.0957
G1 X132.684 Y99.115 E1.14154
G1 X133.621 Y99.155 E1.17273
G1 X134.551 Y99.275 E1.20392
G1 X135.468 Y99.473 E1.23512
G1 X136.364 Y99.749 E1.2663
G1 X137.234 Y100.1 E1.29751
G1 X138.07 Y100.524 E1.32868
G1 X138.868 Y101.018 E1.3599
G1 X139.62 Y101.578 E1.39108
G1 X140.322 Y102.199 E1.42226
G1 X140.969 Y102.879 E1.45347
G1 X141.555 Y103.611 E1.48466
G1 X142.077 Y104.39 E1.51585
G1 X142.53 Y105.211 E1.54704
G1 X142.912 Y106.068 E1.57825
G1 X143.22 Y106.954 E1.60944
G1 X143.451 Y107.863 E1.64064
G1 X143.604 Y108.788 E1.67182
G1 X143.677 Y109.723 E1.70301
G1 X143.658 Y110.871 E1.7412
G1 X143.578 Y112.033 E1.77994
G1 X143.519 Y112.682 E1.80162
G1 X143.335 Y113.871 E1.84163
G1 X143.17 Y114.65 E1.86812
G1 X142.843 Y116.098 E1.91749
G1 X142.357 Y118.575 E2.00145
G1 X141.945 Y121.046 E2.08477
G1 X141.602 Y123.528 E2.1681
G1 X141.327 Y126.044 E2.25229
G1 X141.125 Y128.548 E2.33584
G1 X140.993 Y131.075 E2.42
G1 X140.927 Y133.57 E2.50302
G1 X140.892 Y134.594 E2.53709
G1 X140.82 Y135.529 E2.56828
G1 X140.668 Y136.454 E2.59946
G1 X140.439 Y137.364 E2.63067
G1 X140.132 Y138.25 E2.66186
G1 X139.752 Y139.107 E2.69304
G1 X139.299 Y139.929 E2.72426
G1 X138.779 Y140.709 E2.75544
G1 X137.93 Y141.734 E2.7997
G1 X136.896 Y142.839 E2.85004
G1 X136.227 Y143.496 E2.88122
G1 X135.504 Y144.093 E2.91241
G1 X134.732 Y144.627 E2.94363
G1 X133.918 Y145.093 E2.97483
G1 X132.593 Y145.676 E3.02297
G1 X131.603 Y145.993 E3.05755
G1 X130.689 Y146.201 E3.08873
G1 X129.76 Y146.33 E3.11992
G1 X128.434 Y146.378 E3.16405
G1 X125.829 Y146.314 E3.25072
G1 X123.329 Y146.321 E3.33387
G1 X120.806 Y146.4 E3.41783
G1 X118.269 Y146.551 E3.50236
G1 X115.78 Y146.771 E3.58547
G1 X113.308 Y147.059 E3.66824
G1 X110.083 Y147.537 E3.77668
G1 X109.15 Y147.635 E3.80788
G1 X108.213 Y147.653 E3.83905
G1 X107.277 Y147.591 E3.87025
G1 X106.35 Y147.45 E3.90144
G1 X105.438 Y147.23 E3.93264
G1 X104.653 Y146.973 E3.96011
G1 X103.988 Y146.727 E3.9837
G1 X103.123 Y146.364 E4.0149
G1 X102.419 Y146.007 E4.04115
G1 X101.535 Y145.475 E4.07547
G1 X100.776 Y144.925 E4.10664
G1 X100.218 Y144.452 E4.13097
G1 X99.94 Y144.2 E4.14345
G1 X99.273 Y143.541 E4.17464
G1 X98.664 Y142.828 E4.20582
G1 X98.247 Y142.262 E4.22921
G1 X97.801 Y141.587 E4.25612
G1 X97.38 Y140.896 E4.28303
G1 X96.927 Y140.075 E4.31422
G1 X96.545 Y139.219 E4.34539
G1 X96.238 Y138.333 E4.37658
G1 X96.007 Y137.424 E4.40777
G1 X95.854 Y136.498 E4.43899
G1 X95.781 Y135.563 E4.47018
G1 X95.788 Y134.625 E4.50138
G1 X95.897 Y133.532 E4.53792
G1 X96.136 Y131.951 E4.5911
G1 X96.475 Y129.399 E4.67672
G1 X96.739 Y126.88 E4.76096
G1 X96.928 Y124.388 E4.84409
G1 X97.048 Y121.891 E4.92723
G1 X97.097 Y119.369 E5.01113
G1 X97.073 Y116.808 E5.09631
G1 X96.981 Y114.322 E5.17906
G1 X96.814 Y111.784 E5.26365
G1 X96.701 Y110.457 E5.30795
G1 X96.661 Y109.52 E5.33914
G1 X96.701 Y108.583 E5.37033
G1 X96.821 Y107.652 E5.40156
G1 X97.019 Y106.736 E5.43273
G1 X97.295 Y105.839 E5.46394
G1 X97.646 Y104.97 E5.49511
G1 X98.07 Y104.133 E5.52632
G1 X98.564 Y103.336 E5.55751
G1 X99.124 Y102.583 E5.58872
G1 X99.746 Y101.881 E5.61991
G0 F6000 X100.152 Y102.038
G1 F1200 X100.829 Y101.415 E5.65051
G1 X101.559 Y100.853 E5.68116
G1 X102.227 Y100.419 E5.70765
G1 X104.225 Y99.226 E5.78505
G1 X105.035 Y98.789 E5.81566
G1 X105.88 Y98.423 E5.84629
G1 X106.754 Y98.133 E5.87692
G1 X108.075 Y97.846 E5.92188
G1 X108.988 Y97.708 E5.95259
G1 X109.903 Y97.61 E5.9832
G1 X110.824 Y97.592 E6.01383
G1 X111.742 Y97.654 E6.04444
G1 X112.535 Y97.772 E6.0711
G1 X113.631 Y97.979 E6.1082
G1 X116.139 Y98.416 E6.19287
G1 X118.688 Y98.787 E6.27855
G1 X121.158 Y99.075 E6.36126
G1 X123.689 Y99.298 E6.44576
G1 X126.206 Y99.448 E6.52963
G1 X128.744 Y99.527 E6.61408
G1 X131.272 Y99.536 E6.69817
G1 X132.127 Y99.517 E6.72661
G1 X132.684 Y99.515 E6.74514
G1 X133.604 Y99.555 E6.77576
G1 X134.517 Y99.675 E6.80639
G1 X135.416 Y99.873 E6.83701
G1 X136.294 Y100.149 E6.86762
G1 X137.145 Y100.5 E6.89824
G1 X137.963 Y100.923 E6.92887
G1 X138.74 Y101.416 E6.95947
G1 X139.472 Y101.974 E6.99009
G1 X140.153 Y102.594 E7.02072
G1 X140.778 Y103.27 E7.05134
G1 X141.341 Y103.998 E7.08195
G1 X141.839 Y104.773 E7.11259
G1 X142.268 Y105.587 E7.14319
G1 X142.625 Y106.436 E7.17382
G1 X142.907 Y107.312 E7.20443
G1 X143.111 Y108.21 E7.23506
G1 X143.237 Y109.122 E7.26568
G1 X143.284 Y110.042 E7.29632
G1 X143.259 Y110.843 E7.32298
G1 X143.179 Y112.005 E7.36172
G1 X143.121 Y112.643 E7.38302
G1 X142.944 Y113.788 E7.42156
G1 X142.78 Y114.562 E7.44787
G1 X142.447 Y116.038 E7.4982
G1 X141.969 Y118.47 E7.58064
G1 X141.548 Y120.997 E7.66584
G1 X141.203 Y123.496 E7.74975
G1 X140.929 Y126.005 E7.83369
G1 X140.728 Y128.494 E7.91675
G1 X140.593 Y131.084 E8.00301
G1 X140.527 Y133.556 E8.08526
G1 X140.492 Y134.58 E8.11933
G1 X140.42 Y135.498 E8.14996
G1 X140.27 Y136.406 E8.18057
G1 X140.041 Y137.298 E8.2112
G1 X139.735 Y138.166 E8.24181
G1 X139.355 Y139.005 E8.27245
G1 X138.904 Y139.808 E8.30308
G1 X138.385 Y140.568 E8.33369
G1 X137.638 Y141.461 E8.37241
G1 X136.604 Y142.566 E8.42274
G1 X135.946 Y143.21 E8.45337
G1 X135.235 Y143.795 E8.48399
G1 X134.476 Y144.316 E8.51461
G1 X133.675 Y144.769 E8.54522
G1 X132.451 Y145.303 E8.58963
G1 X131.482 Y145.611 E8.62345
G1 X130.583 Y145.813 E8.6541
G1 X129.671 Y145.937 E8.68471
G1 X128.444 Y145.978 E8.72554
G1 X125.838 Y145.913 E8.81225
G1 X123.316 Y145.922 E8.89613
G1 X120.768 Y146.001 E8.98092
G1 X118.277 Y146.149 E9.06391
G1 X115.738 Y146.373 E9.14869
G1 X113.233 Y146.665 E9.23257
G1 X110.024 Y147.141 E9.34047
G1 X109.109 Y147.237 E9.37107
G1 X108.188 Y147.252 E9.40171
G1 X107.27 Y147.188 E9.43231
G1 X106.36 Y147.044 E9.46296
G1 X105.467 Y146.822 E9.49356
G1 X104.791 Y146.598 E9.51725
G1 X104.126 Y146.352 E9.54083
G1 X103.278 Y145.995 E9.57143
G1 X102.53 Y145.608 E9.59944
G1 X101.742 Y145.132 E9.63006
G1 X100.998 Y144.59 E9.66068
G1 X100.487 Y144.156 E9.68298
G1 X100.209 Y143.904 E9.69546
G1 X99.554 Y143.256 E9.7261
G1 X98.653 Y142.151 E9.77352
G1 X98.143 Y141.379 E9.8043
G1 X97.722 Y140.688 E9.83121
G1 X97.277 Y139.882 E9.86183
G1 X96.905 Y139.04 E9.89245
G1 X96.606 Y138.169 E9.92308
G1 X96.385 Y137.276 E9.95367
G1 X96.241 Y136.366 E9.98432
G1 X96.178 Y135.448 E10.01492
G1 X96.194 Y134.527 E10.04556
G1 X96.293 Y133.591 E10.07686
G1 X96.532 Y132.006 E10.13018
G1 X96.871 Y129.456 E10.21574
G1 X97.134 Y126.95 E10.29954
G1 X97.328 Y124.401 E10.38457
G1 X97.448 Y121.882 E10.46845
G1 X97.497 Y119.373 E10.55191
G1 X97.473 Y116.825 E10.63666
G1 X97.379 Y114.281 E10.72134
G1 X97.214 Y111.774 E10.8049
G1 X97.099 Y110.423 E10.85
G1 X97.061 Y109.503 E10.88062
G1 X97.103 Y108.583 E10.91125
G1 X97.224 Y107.67 E10.94188
G1 X97.424 Y106.772 E10.97248
G1 X97.701 Y105.894 E11.0031
G1 X98.053 Y105.043 E11.03374
G1 X98.478 Y104.226 E11.06437
G1 X98.972 Y103.449 E11.09499
G1 X99.531 Y102.718 E11.1256
G1 X100.152 Y102.038 E11.15623
G0 F6000 X100.558 Y102.2
G1 F1200 X101.233 Y101.6 E11.18626
G1 X101.959 Y101.063 E11.2163
G1 X102.432 Y100.762 E11.23495
G1 X104.43 Y99.569 E11.31234
G1 X105.225 Y99.141 E11.34237
G1 X106.055 Y98.785 E11.37241
G1 X106.913 Y98.504 E11.40244
G1 X108.135 Y98.242 E11.44401
G1 X109.048 Y98.104 E11.47472
G1 X109.946 Y98.008 E11.50476
G1 X110.849 Y97.993 E11.5348
G1 X111.749 Y98.057 E11.56481
G1 X112.461 Y98.165 E11.58876
G1 X113.566 Y98.373 E11.62616
G1 X116.084 Y98.812 E11.71117
G1 X118.616 Y99.18 E11.79627
G1 X121.113 Y99.472 E11.87988
G1 X123.664 Y99.697 E11.96506
G1 X126.207 Y99.849 E12.04979
G1 X128.73 Y99.927 E12.13375
G1 X131.28 Y99.936 E12.21856
G1 X132.136 Y99.917 E12.24704
G1 X132.684 Y99.915 E12.26526
G1 X133.586 Y99.955 E12.2953
G1 X134.481 Y100.075 E12.32533
G1 X135.362 Y100.273 E12.35536
G1 X136.222 Y100.548 E12.38539
G1 X137.055 Y100.899 E12.41546
G1 X137.853 Y101.322 E12.4455
G1 X138.61 Y101.813 E12.47551
G1 X139.321 Y102.37 E12.50555
G1 X139.981 Y102.988 E12.53562
G1 X140.582 Y103.661 E12.56563
G1 X141.122 Y104.385 E12.59567
G1 X141.596 Y105.154 E12.62572
G1 X142 Y105.961 E12.65573
G1 X142.331 Y106.802 E12.68579
G1 X142.586 Y107.668 E12.71582
G1 X142.764 Y108.553 E12.74585
G1 X142.862 Y109.451 E12.77589
G1 X142.881 Y110.354 E12.80593
G1 X142.86 Y110.816 E12.82131
G1 X142.78 Y111.978 E12.86005
G1 X142.723 Y112.604 E12.88096
G1 X142.553 Y113.706 E12.91805
G1 X142.421 Y114.332 E12.93932
G1 X142.064 Y115.911 E12.99317
G1 X141.569 Y118.432 E13.07862
G1 X141.157 Y120.908 E13.1621
G1 X140.808 Y123.435 E13.24695
G1 X140.532 Y125.966 E13.33163
G1 X140.326 Y128.512 E13.41659
G1 X140.193 Y131.052 E13.50118
G1 X140.127 Y133.542 E13.58403
G1 X140.092 Y134.566 E13.61811
G1 X140.021 Y135.467 E13.64817
G1 X139.871 Y136.357 E13.67819
G1 X139.643 Y137.231 E13.70823
G1 X139.338 Y138.081 E13.73826
G1 X138.959 Y138.901 E13.76831
G1 X138.51 Y139.684 E13.79833
G1 X137.992 Y140.425 E13.8284
G1 X137.346 Y141.187 E13.86163
G1 X136.312 Y142.292 E13.91196
G1 X135.666 Y142.924 E13.94202
G1 X134.967 Y143.496 E13.97206
G1 X134.22 Y144.003 E14.00209
G1 X133.432 Y144.443 E14.03211
G1 X132.311 Y144.927 E14.07272
G1 X131.36 Y145.23 E14.10591
G1 X130.479 Y145.426 E14.13593
G1 X129.583 Y145.543 E14.16599
G1 X128.454 Y145.578 E14.20356
G1 X125.847 Y145.513 E14.29029
G1 X123.302 Y145.522 E14.37494
G1 X120.77 Y145.6 E14.45919
G1 X118.218 Y145.752 E14.54422
G1 X115.729 Y145.972 E14.62733
G1 X113.194 Y146.267 E14.71222
G1 X109.966 Y146.746 E14.82075
G1 X109.067 Y146.838 E14.85081
G1 X108.164 Y146.851 E14.88085
G1 X107.264 Y146.785 E14.91086
G1 X106.373 Y146.638 E14.9409
G1 X105.498 Y146.414 E14.97094
G1 X104.93 Y146.222 E14.99088
G1 X104.265 Y145.976 E15.01446
G1 X103.433 Y145.626 E15.04449
G1 X102.722 Y145.257 E15.07113
G1 X101.949 Y144.789 E15.10118
G1 X101.22 Y144.256 E15.13122
G1 X100.756 Y143.859 E15.15153
G1 X100.478 Y143.607 E15.16401
G1 X99.836 Y142.972 E15.19404
G1 X98.978 Y141.918 E15.23925
G1 X98.484 Y141.171 E15.26903
G1 X98.063 Y140.48 E15.29595
G1 X97.628 Y139.689 E15.32597
G1 X97.264 Y138.862 E15.35602
G1 X96.975 Y138.006 E15.38607
G1 X96.763 Y137.129 E15.41608
G1 X96.629 Y136.236 E15.44612
G1 X96.575 Y135.334 E15.47617
G1 X96.601 Y134.431 E15.50622
G1 X96.688 Y133.651 E15.53232
G1 X96.928 Y132.062 E15.58577
G1 X97.271 Y129.479 E15.67243
G1 X97.532 Y126.989 E15.75571
G1 X97.728 Y124.414 E15.8416
G1 X97.848 Y121.909 E15.92501
G1 X97.897 Y119.378 E16.00921
G1 X97.873 Y116.806 E16.09476
G1 X97.779 Y114.274 E16.17903
G1 X97.611 Y111.712 E16.26443
G1 X97.498 Y110.388 E16.30862
G1 X97.461 Y109.486 E16.33865
G1 X97.504 Y108.584 E16.36868
G1 X97.627 Y107.689 E16.39873
G1 X97.828 Y106.809 E16.42875
G1 X98.106 Y105.95 E16.45878
G1 X98.46 Y105.119 E16.48882
G1 X98.885 Y104.322 E16.51887
G1 X99.379 Y103.566 E16.5489
G1 X99.938 Y102.857 E16.57893
G1 X100.558 Y102.2 E16.60898
G1 F2700 E11.60898
;MESH:Jake.stl(2)
G0 F6000 X109.01 Y108.121
G0 X109.837 Y108.412
;TYPE:WALL-OUTER
G1 F2700 E16.60898
G1 F2243 X109.799 Y108.434 E16.60976
G1 X109.851 Y108.434 E16.61068
G0 F6000 X109.852 Y109.811
G1 F1708.2 X109.578 Y109.793 E16.6171
G0 F6000 X109.123 Y110.678
G1 F1514.2 X108.807 Y110.562 E16.62597
G1 F1318.7 X108.546 Y110.387 E16.63548
G0 F6000 X108.424 Y110.284
G1 F1237.1 X108.546 Y110.387 E16.64064
G1 X108.47 Y110.259 E16.64544
G1 F1221.4 X108.508 Y110.111 E16.65043
G1 F1212.1 X108.609 Y110.043 E16.65444
G1 X108.939 Y109.983 E16.66549
G1 X108.944 Y109.922 E16.6675
G1 X109.095 Y109.8 E16.67389
G1 X108.807 Y109.772 E16.68342
G1 X108.591 Y109.763 E16.69054
G1 X108.342 Y109.736 E16.69879
G1 X108 Y109.712 E16.71007
G1 X108.229 Y110.024 E16.72282
G1 F1221.4 X108.424 Y110.284 E16.73344
G1 F2700 E11.73344
;MESH:Jake.stl(5)
G0 F6000 X108.169 Y111.188
G0 X108.839 Y111.443
G0 X109.358 Y111.599
G0 X129.49 Y112.251
G0 X130.366 Y112.004
;TYPE:WALL-OUTER
G1 F2700 E16.73344
G1 F1233.9 X130.489 Y112.13 E16.73913
G1 X130.425 Y111.981 E16.74438
G1 F1209.1 X130.48 Y111.844 E16.74925
G1 F1194 X130.596 Y111.787 E16.75357
G1 F1206 X130.903 Y111.769 E16.76375
G1 F1230.8 X130.982 Y111.616 E16.76933
G1 F1256.5 X131.11 Y111.579 E16.77357
G1 X130.97 Y111.565 E16.77804
G1 F1218.3 X130.601 Y111.506 E16.79028
G1 F1194 X130.297 Y111.448 E16.80062
G1 X130 Y111.397 E16.8107
G1 X130.193 Y111.717 E16.82319
G1 F1209.1 X130.366 Y112.004 E16.83425
G0 F6000 X130.489 Y112.13
G1 F1318.7 X130.72 Y112.314 E16.84319
G1 F1509.4 X131.025 Y112.46 E16.85213
G0 F6000 X131.11 Y111.579
G1 F1352.1 X131.421 Y111.621 E16.86139
G1 F1568.6 X131.556 Y111.618 E16.86483
G1 F1690.1 X131.832 Y111.663 E16.87143
G0 F6000 X131.957 Y110.289
G1 F2285.7 X131.905 Y110.289 E16.87234
G1 X131.943 Y110.267 E16.87311
G1 F2700 E11.87311
;MESH:Jake.stl(1)
G0 F6000 X131.324 Y110.774
G0 X129.995 Y110.309
G0 X129.585 Y110.448
G0 X128.846 Y110.91
G0 X129.137 Y132.099
G0 X129.21 Y132.889
;TYPE:WALL-OUTER
G1 F2700 E16.87311
G1 F2285.7 X129.172 Y132.911 E16.87387
G1 X129.224 Y132.911 E16.87478
G0 F6000 X129.16 Y134.288
G1 F1708.2 X128.914 Y134.26 E16.88057
G1 F1459 X128.408 Y134.237 E16.89442
G1 F950.5 X128.131 Y134.317 E16.90653
G1 F724 X127.872 Y134.329 E16.92082
G1 F636.6 X127.717 Y134.35 E16.93063
G0 F6000 X127.84 Y134.816
G1 F1318.7 X128.081 Y134.989 E16.93961
G1 F1514.2 X128.391 Y135.119 E16.94847
G1 F2700 E11.94847
;MESH:Jake.stl(3)
G0 F6000 X127.999 Y135.826
G0 X109.732 Y134.728
G0 X109.039 Y134.198
;TYPE:WALL-OUTER
G1 F2700 E16.94847
G1 F2264.2 X108.987 Y134.198 E16.94939
G1 X109.025 Y134.176 E16.95016
G0 F6000 X108.945 Y135.574
G1 F1684.2 X108.668 Y135.536 E16.95679
G1 F1573.8 X108.534 Y135.542 E16.96019
G1 F1355.9 X108.223 Y135.507 E16.9694
G0 F6000 X107.488 Y135.948
G1 F1227.6 X107.612 Y136.07 E16.97506
G1 X107.545 Y135.924 E16.98028
G1 F1206 X107.599 Y135.782 E16.98531
G1 F1194 X107.69 Y135.73 E16.98881
G1 F1206 X108.019 Y135.703 E16.99973
G1 F1215.2 X108.032 Y135.621 E17.00246
G1 F1243.5 X108.223 Y135.507 E17.0096
G1 F1230.8 X107.703 Y135.443 E17.02659
G1 F1194 X107.403 Y135.393 E17.03676
G1 X107.111 Y135.349 E17.04663
G1 X107.243 Y135.556 E17.05483
G1 F1206 X107.488 Y135.948 E17.07013
G0 F6000 X107.612 Y136.07
G1 F1315.1 X107.849 Y136.25 E17.07916
G1 F1514.2 X108.16 Y136.391 E17.08816
G1 F2700 E12.08816
;MESH:NONMESH
G0 F300 X108.16 Y136.391 Z0.4
G0 F6000 X107.743 Y137.085
G0 X107.168 Y136.833
G0 X106.834 Y136.517
G0 X106.248 Y135.607
G0 X105.949 Y134.887
G0 X111.466 Y109.122
G0 X111.272 Y107.597
G0 X110.741 Y105.925
;TIME_ELAPSED:35.519464
;LAYER:1
M117 Layer 1 of 74 CE3E3V2_Jake
M106 S85
;TYPE:WALL-OUTER
;MESH:Jake.stl(2)
G1 F2700 E17.08816
G1 F755.2 X110.93 Y105.823 E17.10093
G1 F871 X111.242 Y105.615 E17.12026
G1 F1313.9 X111.377 Y105.326 E17.13117
G1 F2317.6 X111.836 Y104.974 E17.14237
G1 F2700 E12.14237
