;FLAVOR:Marlin
;TIME:1270
;Filament used: 1.14449m
;Layer height: 0.35
;MINX:97.311
;MINY:100.568
;MINZ:0.2
;MAXX:134.267
;MAXY:134.394
;MAXZ:14.55
;Generated with Cura_SteamEngine 5.2.1
M140 S60
M105
M190 S60
M104 S210
M105
M109 S210
M82 ;absolute extrusion mode
; Ender 3 Custom Start G-code
G92 E0 ; Reset Extruder
G28 ; Home all axes
G1 Z2.0 F3000 ; Move Z Axis up little to prevent scratching of Heat Bed
G1 X0.1 Y20 Z0.3 F5000.0 ; Move to start position
G1 X0.1 Y200.0 Z0.3 F1500.0 E15 ; Draw the first line
G1 X0.4 Y200.0 Z0.3 F5000.0 ; Move to side a little
G1 X0.4 Y20 Z0.3 F1500.0 E30 ; Draw the second line
G92 E0 ; Reset Extruder
G1 Z2.0 F3000 ; Move Z Axis up little to prevent scratching of Heat Bed
G1 X5 Y20 Z0.3 F5000.0 ; Move over to prevent blob squish
G92 E0
G92 E0
G1 F2700 E-5
;LAYER_COUNT:42
;LAYER:0
M107
M204 S1000
M205 X8 Y8
G0 F6000 X120.868 Y102.282 Z0.2
;TYPE:SKIRT
G1 F2700 E0
G1 F6000 X121.207 Y101.946 E0.01588
G1 X121.587 Y101.606 E0.03283
G1 X121.958 Y101.327 E0.04827
G1 X122.372 Y101.066 E0.06455
G1 X122.645 Y100.951 E0.0744
G1 X122.804 Y100.862 E0.08046
G1 X123.265 Y100.695 E0.09677
G1 X123.764 Y100.604 E0.11364
G1 X124.065 Y100.575 E0.1237
G1 X124.555 Y100.568 E0.14
G1 X125.039 Y100.64 E0.15628
G1 X125.505 Y100.791 E0.17257
G1 X125.683 Y100.883 E0.17923
G1 X125.834 Y100.81 E0.18481
G1 X126.303 Y100.671 E0.20108
G1 X126.789 Y100.611 E0.21737
G1 X127.522 Y100.66 E0.2418
G1 X128.096 Y100.812 E0.26155
G1 X128.731 Y101.113 E0.28492
G1 X129.221 Y101.467 E0.30503
G1 X129.475 Y101.6 E0.31457
G1 X129.888 Y101.863 E0.33085
G1 X130.253 Y102.189 E0.34713
G1 X130.554 Y102.563 E0.3631
G1 X130.702 Y102.779 E0.3718
G1 X131.055 Y103.214 E0.39044
G1 X131.293 Y103.642 E0.40672
G1 X131.33 Y103.756 E0.41071
G1 X131.495 Y104.081 E0.42283
G1 X131.655 Y104.543 E0.4391
G1 X131.738 Y105.026 E0.4554
G1 X131.742 Y105.515 E0.47166
G1 X131.665 Y105.999 E0.48796
G1 X131.511 Y106.463 E0.50422
G1 X131.284 Y106.897 E0.52051
G1 X131.118 Y107.133 E0.53011
G1 X130.813 Y107.525 E0.54663
G1 X130.272 Y108.184 E0.57499
G1 X130.144 Y108.314 E0.58105
G1 X129.899 Y108.636 E0.59451
G1 X129.543 Y108.973 E0.61082
G1 X129.138 Y109.247 E0.62708
G1 X128.864 Y109.372 E0.6371
G1 X128.442 Y109.635 E0.65363
G1 X127.989 Y109.821 E0.66992
G1 X127.512 Y109.931 E0.6862
G1 X127.024 Y109.963 E0.70247
G1 X126.537 Y109.914 E0.71875
G1 X125.994 Y109.767 E0.73746
G1 X125.554 Y110.114 E0.7561
G1 X125.126 Y110.352 E0.77239
G1 X124.695 Y110.509 E0.78764
G1 X124.216 Y110.614 E0.80395
G1 X123.728 Y110.64 E0.82021
G1 X123.241 Y110.586 E0.8365
G1 X122.638 Y110.4 E0.85749
G1 X122.277 Y110.246 E0.87054
G1 X121.844 Y110.018 E0.88682
G1 X121.203 Y109.706 E0.91053
G1 X120.805 Y109.421 E0.92681
G1 X120.459 Y109.075 E0.94309
G1 X120.257 Y108.807 E0.95425
G1 X120.079 Y108.542 E0.96487
G1 X119.84 Y108.115 E0.98114
G1 X119.667 Y107.63 E0.99827
G1 X119.593 Y107.382 E1.00688
G1 X119.469 Y106.908 E1.02317
G1 X119.423 Y106.421 E1.03944
G1 X119.441 Y106.161 E1.04811
G1 X119.433 Y106.113 E1.04973
G1 X119.433 Y105.623 E1.06603
G1 X119.511 Y105.14 E1.0823
G1 X119.59 Y104.907 E1.09048
G1 X119.684 Y104.525 E1.10357
G1 X119.836 Y104.087 E1.11899
G1 X120.048 Y103.6 E1.13665
G1 X120.24 Y103.231 E1.15049
G1 X120.579 Y102.677 E1.17209
G1 X120.868 Y102.282 E1.18837
G0 X121.191 Y102.52
G1 X121.522 Y102.206 E1.20354
G1 X121.56 Y102.181 E1.20506
G1 X121.827 Y101.926 E1.21734
G1 X122.198 Y101.647 E1.23278
G1 X122.585 Y101.406 E1.24794
G1 X122.816 Y101.302 E1.25637
G1 X123.235 Y101.122 E1.27153
G1 X123.803 Y101.002 E1.29084
G1 X124.104 Y100.973 E1.3009
G1 X124.559 Y100.969 E1.31603
G1 X125.009 Y101.045 E1.33121
G1 X125.438 Y101.198 E1.34636
G1 X125.658 Y101.323 E1.35478
G1 X126.157 Y101.121 E1.37268
G1 X126.603 Y101.027 E1.38784
G1 X127.058 Y101.012 E1.40298
G1 X127.481 Y101.062 E1.41715
G1 X127.992 Y101.2 E1.43476
G1 X128.529 Y101.458 E1.45457
G1 X128.985 Y101.791 E1.47335
G1 X129.04 Y101.849 E1.47601
G1 X129.316 Y101.969 E1.48602
G1 X129.696 Y102.22 E1.50117
G1 X130.026 Y102.534 E1.51632
G1 X130.224 Y102.789 E1.52706
G1 X130.388 Y103.029 E1.53672
G1 X130.458 Y103.104 E1.54014
G1 X130.74 Y103.463 E1.55532
G1 X130.954 Y103.865 E1.57047
G1 X130.972 Y103.923 E1.57249
G1 X131.129 Y104.242 E1.58431
G1 X131.276 Y104.674 E1.59949
G1 X131.345 Y105.124 E1.61463
G1 X131.334 Y105.579 E1.62977
G1 X131.244 Y106.026 E1.64493
G1 X131.077 Y106.45 E1.66009
G1 X130.802 Y106.888 E1.67729
G1 X130.497 Y107.28 E1.69381
G1 X129.963 Y107.93 E1.72179
G1 X129.84 Y108.055 E1.72762
G1 X129.58 Y108.392 E1.74178
G1 X129.244 Y108.699 E1.75692
G1 X128.858 Y108.943 E1.77211
G1 X128.57 Y109.093 E1.78291
G1 X128.175 Y109.32 E1.79806
G1 X127.747 Y109.476 E1.81321
G1 X127.298 Y109.554 E1.82837
G1 X126.842 Y109.552 E1.84354
G1 X126.394 Y109.471 E1.85868
G1 X125.944 Y109.3 E1.87469
G1 X125.743 Y109.442 E1.88287
G1 X125.396 Y109.737 E1.89802
G1 X125.003 Y109.968 E1.91318
G1 X124.577 Y110.127 E1.92831
G1 X124.132 Y110.222 E1.94344
G1 X123.676 Y110.237 E1.95862
G1 X123.225 Y110.173 E1.97377
G1 X122.795 Y110.032 E1.98882
G1 X122.434 Y109.878 E2.00187
G1 X122.032 Y109.664 E2.01702
G1 X121.382 Y109.347 E2.04107
G1 X121.017 Y109.074 E2.05623
G1 X120.589 Y108.584 E2.07787
G1 X120.411 Y108.319 E2.08849
G1 X120.191 Y107.92 E2.10364
G1 X120.054 Y107.528 E2.11746
G1 X119.97 Y107.249 E2.12715
G1 X119.857 Y106.808 E2.14229
G1 X119.823 Y106.353 E2.15746
G1 X119.824 Y105.922 E2.1718
G1 X119.853 Y105.468 E2.18693
G1 X119.962 Y105.025 E2.2021
G1 X119.996 Y104.914 E2.20596
G1 X120.071 Y104.627 E2.21583
G1 X120.203 Y104.246 E2.22924
G1 X120.415 Y103.759 E2.24691
G1 X120.581 Y103.44 E2.25887
G1 X120.92 Y102.886 E2.28047
G1 X121.191 Y102.52 E2.29562
G0 X121.513 Y102.76
G1 X121.774 Y102.524 E2.30732
G1 X121.876 Y102.407 E2.31248
G1 X122.068 Y102.246 E2.32082
G1 X122.439 Y101.967 E2.33626
G1 X122.796 Y101.748 E2.35019
G1 X122.972 Y101.682 E2.35644
G1 X123.251 Y101.541 E2.36684
G1 X123.841 Y101.4 E2.38701
G1 X124.142 Y101.371 E2.39707
G1 X124.561 Y101.371 E2.41101
G1 X124.973 Y101.45 E2.42496
G1 X125.362 Y101.606 E2.4389
G1 X125.658 Y101.797 E2.45062
G1 X126.069 Y101.578 E2.4661
G1 X126.469 Y101.454 E2.48003
G1 X126.886 Y101.408 E2.49399
G1 X127.394 Y101.449 E2.51094
G1 X127.886 Y101.587 E2.52793
G1 X128.331 Y101.805 E2.54441
G1 X128.746 Y102.115 E2.56164
G1 X128.808 Y102.183 E2.5647
G1 X129.155 Y102.337 E2.57733
G1 X129.499 Y102.576 E2.59126
G1 X129.893 Y103.014 E2.61086
G1 X130.075 Y103.281 E2.6216
G1 X130.166 Y103.378 E2.62603
G1 X130.423 Y103.71 E2.63999
G1 X130.739 Y104.333 E2.66323
G1 X130.895 Y104.801 E2.67963
G1 X130.949 Y105.217 E2.69359
G1 X130.923 Y105.635 E2.70752
G1 X130.818 Y106.041 E2.72146
G1 X130.639 Y106.419 E2.73538
G1 X130.486 Y106.642 E2.74437
G1 X130.144 Y107.08 E2.76285
G1 X129.654 Y107.676 E2.78852
G1 X129.529 Y107.803 E2.79444
G1 X129.263 Y108.146 E2.80888
G1 X128.947 Y108.421 E2.82281
G1 X128.584 Y108.632 E2.83678
G1 X128.432 Y108.685 E2.84213
G1 X128.285 Y108.803 E2.8484
G1 X127.914 Y108.998 E2.86234
G1 X127.513 Y109.12 E2.87628
G1 X127.096 Y109.163 E2.89022
G1 X126.679 Y109.126 E2.90415
G1 X126.276 Y109.011 E2.91809
G1 X125.929 Y108.835 E2.93103
G1 X125.528 Y109.084 E2.94673
G1 X125.204 Y109.382 E2.96137
G1 X124.846 Y109.599 E2.97529
G1 X124.46 Y109.744 E2.98901
G1 X124.05 Y109.828 E3.00293
G1 X123.63 Y109.833 E3.0169
G1 X123.218 Y109.758 E3.03083
G1 X122.952 Y109.665 E3.0402
G1 X122.591 Y109.511 E3.05325
G1 X122.223 Y109.31 E3.0672
G1 X122.203 Y109.293 E3.06807
G1 X121.936 Y109.179 E3.07773
G1 X121.563 Y108.988 E3.09167
G1 X121.233 Y108.73 E3.1056
G1 X120.921 Y108.361 E3.12167
G1 X120.743 Y108.096 E3.13229
G1 X120.543 Y107.727 E3.14625
G1 X120.441 Y107.427 E3.15679
G1 X120.348 Y107.116 E3.16758
G1 X120.247 Y106.709 E3.18153
G1 X120.225 Y106.291 E3.19545
G1 X120.244 Y106.157 E3.19995
G1 X120.226 Y105.745 E3.21367
G1 X120.288 Y105.331 E3.22759
G1 X120.371 Y105.095 E3.23591
G1 X120.383 Y105.015 E3.2386
G1 X120.458 Y104.728 E3.24847
G1 X120.57 Y104.406 E3.25981
G1 X120.782 Y103.919 E3.27748
G1 X120.922 Y103.649 E3.28759
G1 X121.261 Y103.095 E3.30919
G1 X121.513 Y102.76 E3.32314
G0 X121.833 Y103.003
G1 X122.032 Y102.833 E3.33184
G1 X122.088 Y102.761 E3.33487
G1 X122.308 Y102.565 E3.34467
G1 X122.679 Y102.286 E3.36011
G1 X123.004 Y102.092 E3.3727
G1 X123.314 Y101.948 E3.38407
G1 X123.727 Y101.813 E3.39852
G1 X124.18 Y101.769 E3.41366
G1 X124.559 Y101.773 E3.42627
G1 X124.929 Y101.856 E3.43888
G1 X125.273 Y102.014 E3.45147
G1 X125.659 Y102.302 E3.46749
G1 X126.045 Y102.033 E3.48314
G1 X126.394 Y101.885 E3.49574
G1 X126.766 Y101.814 E3.50834
G1 X127.315 Y101.84 E3.52662
G1 X127.776 Y101.974 E3.54259
G1 X128.133 Y102.152 E3.55586
G1 X128.504 Y102.436 E3.5714
G1 X128.569 Y102.512 E3.57472
G1 X128.99 Y102.703 E3.5901
G1 X129.294 Y102.929 E3.6027
G1 X129.563 Y103.24 E3.61637
G1 X129.759 Y103.527 E3.62793
G1 X129.875 Y103.651 E3.63358
G1 X130.103 Y103.954 E3.64619
G1 X130.256 Y104.282 E3.65823
G1 X130.397 Y104.565 E3.66875
G1 X130.513 Y104.926 E3.68136
G1 X130.55 Y105.303 E3.69396
G1 X130.508 Y105.679 E3.70654
G1 X130.387 Y106.039 E3.71917
G1 X130.171 Y106.396 E3.73305
G1 X129.866 Y106.788 E3.74957
G1 X129.345 Y107.422 E3.77687
G1 X129.213 Y107.556 E3.78312
G1 X128.948 Y107.897 E3.79749
G1 X128.654 Y108.137 E3.81011
G1 X128.317 Y108.31 E3.82271
G1 X128.236 Y108.332 E3.8255
G1 X128.004 Y108.507 E3.83516
G1 X127.66 Y108.666 E3.84777
G1 X127.29 Y108.75 E3.86039
G1 X126.912 Y108.755 E3.87296
G1 X126.54 Y108.681 E3.88558
G1 X126.192 Y108.53 E3.89819
G1 X125.878 Y108.32 E3.91076
G1 X125.699 Y108.502 E3.91925
G1 X125.383 Y108.711 E3.93185
G1 X125.255 Y108.791 E3.93687
G1 X124.979 Y109.051 E3.94948
G1 X124.655 Y109.247 E3.96208
G1 X124.343 Y109.362 E3.97314
G1 X123.971 Y109.434 E3.98574
G1 X123.592 Y109.427 E3.99835
G1 X123.109 Y109.297 E4.01498
G1 X122.748 Y109.143 E4.02804
G1 X122.401 Y108.944 E4.04134
G1 X122.084 Y108.807 E4.05283
G1 X121.748 Y108.631 E4.06544
G1 X121.457 Y108.389 E4.07803
G1 X121.253 Y108.138 E4.08879
G1 X121.075 Y107.873 E4.09941
G1 X120.898 Y107.538 E4.11201
G1 X120.777 Y107.132 E4.1261
G1 X120.725 Y106.983 E4.13135
G1 X120.638 Y106.615 E4.14392
G1 X120.629 Y106.236 E4.15653
G1 X120.626 Y105.965 E4.16555
G1 X120.644 Y105.586 E4.17817
G1 X120.742 Y105.22 E4.19077
G1 X120.77 Y105.116 E4.19435
G1 X120.845 Y104.829 E4.20422
G1 X120.937 Y104.566 E4.21349
G1 X121.149 Y104.079 E4.23115
G1 X121.264 Y103.857 E4.23947
G1 X121.603 Y103.303 E4.26107
G1 X121.833 Y103.003 E4.27364
G0 X122.151 Y103.25
G1 X122.338 Y103.08 E4.28205
G1 X122.549 Y102.885 E4.2916
G1 X122.92 Y102.606 E4.30704
G1 X123.314 Y102.378 E4.32218
G1 X123.785 Y102.209 E4.33883
G1 X124.219 Y102.167 E4.35333
G1 X124.553 Y102.175 E4.36444
G1 X124.875 Y102.262 E4.37553
G1 X125.168 Y102.423 E4.38665
G1 X125.415 Y102.648 E4.39777
G1 X125.601 Y102.926 E4.40889
G1 X125.633 Y103.029 E4.41248
G1 X125.845 Y102.706 E4.42533
G1 X126.09 Y102.478 E4.43646
G1 X126.381 Y102.314 E4.44757
G1 X126.702 Y102.224 E4.45866
G1 X127.239 Y102.231 E4.47652
G1 X127.661 Y102.359 E4.49119
G1 X127.995 Y102.549 E4.50397
G1 X128.258 Y102.754 E4.51506
G1 X128.349 Y102.869 E4.51994
G1 X128.519 Y102.926 E4.5259
G1 X128.821 Y103.069 E4.53702
G1 X129.136 Y103.325 E4.55052
G1 X129.446 Y103.779 E4.5688
G1 X129.583 Y103.925 E4.57546
G1 X129.78 Y104.194 E4.58655
G1 X129.827 Y104.32 E4.59102
G1 X130.006 Y104.642 E4.60327
G1 X130.128 Y105.046 E4.61731
G1 X130.147 Y105.379 E4.62841
G1 X130.087 Y105.708 E4.63953
G1 X129.933 Y106.051 E4.65203
G1 X129.55 Y106.543 E4.67277
G1 X129.036 Y107.168 E4.69969
G1 X128.847 Y107.386 E4.70928
G1 X128.635 Y107.644 E4.72039
G1 X128.368 Y107.844 E4.73148
G1 X128.022 Y107.992 E4.744
G1 X128.004 Y108.013 E4.74492
G1 X127.729 Y108.202 E4.75602
G1 X127.417 Y108.321 E4.76713
G1 X127.085 Y108.363 E4.77826
G1 X126.753 Y108.325 E4.78937
G1 X126.44 Y108.209 E4.80047
G1 X126.108 Y107.997 E4.81357
G1 X125.816 Y107.703 E4.82736
G1 X125.686 Y107.937 E4.83626
G1 X125.459 Y108.182 E4.84737
G1 X125.18 Y108.366 E4.85848
G1 X125.025 Y108.421 E4.86395
G1 X124.963 Y108.517 E4.86776
G1 X124.72 Y108.746 E4.87886
G1 X124.271 Y108.971 E4.89556
G1 X123.897 Y109.039 E4.90821
G1 X123.563 Y109.018 E4.91934
G1 X123.266 Y108.929 E4.92965
G1 X122.905 Y108.775 E4.9427
G1 X122.606 Y108.599 E4.95424
G1 X122.231 Y108.436 E4.96784
G1 X121.938 Y108.276 E4.97895
G1 X121.657 Y108.022 E4.99155
G1 X121.407 Y107.65 E5.00645
G1 X121.215 Y107.224 E5.02199
G1 X121.102 Y106.851 E5.03496
G1 X121.03 Y106.525 E5.04606
G1 X121.037 Y106.191 E5.05717
G1 X121.051 Y106.133 E5.05916
G1 X121.025 Y105.784 E5.0708
G1 X121.084 Y105.455 E5.08191
G1 X121.157 Y105.217 E5.09019
G1 X121.259 Y104.825 E5.10367
G1 X121.553 Y104.151 E5.12812
G1 X121.944 Y103.512 E5.15304
G1 X122.151 Y103.25 E5.16415
G0 X122.465 Y103.504
G1 X122.589 Y103.417 E5.16918
G1 X122.789 Y103.205 E5.17888
G1 X123.16 Y102.926 E5.19432
G1 X123.531 Y102.722 E5.2084
G1 X123.956 Y102.595 E5.22315
G1 X124.257 Y102.566 E5.23321
G1 X124.539 Y102.578 E5.2426
G1 X124.806 Y102.669 E5.25198
G1 X125.037 Y102.831 E5.26136
G1 X125.214 Y103.052 E5.27078
G1 X125.344 Y103.426 E5.28395
G1 X125.529 Y104.633 E5.32456
G1 X125.533 Y104.915 E5.33394
G1 X125.459 Y105.188 E5.34335
G1 X125.311 Y105.428 E5.35273
G1 X125.082 Y105.636 E5.36302
G1 X125.235 Y106.04 E5.37739
G1 X125.402 Y106.393 E5.39038
G1 X125.492 Y106.687 E5.4006
G1 X125.56 Y107.115 E5.41502
G1 X125.501 Y107.434 E5.42581
G1 X125.374 Y107.686 E5.43519
G1 X125.181 Y107.892 E5.44458
G1 X124.939 Y108.037 E5.45397
G1 X124.771 Y108.081 E5.45974
G1 X124.641 Y108.278 E5.46759
G1 X124.427 Y108.462 E5.47698
G1 X124.146 Y108.591 E5.48726
G1 X123.829 Y108.641 E5.49794
G1 X123.423 Y108.561 E5.5117
G1 X123.062 Y108.407 E5.52475
G1 X122.812 Y108.253 E5.53452
G1 X122.565 Y108.138 E5.54358
G1 X122.379 Y108.064 E5.55024
G1 X122.134 Y107.924 E5.55962
G1 X121.917 Y107.692 E5.57019
G1 X121.739 Y107.427 E5.58081
G1 X121.602 Y107.123 E5.5919
G1 X121.48 Y106.718 E5.60597
G1 X121.425 Y106.441 E5.61536
G1 X121.468 Y106.137 E5.62557
G1 X121.424 Y105.914 E5.63313
G1 X121.45 Y105.633 E5.64252
G1 X121.544 Y105.318 E5.65345
G1 X121.638 Y104.959 E5.66579
G1 X121.91 Y104.334 E5.68846
G1 X122.285 Y103.721 E5.71237
G1 X122.465 Y103.504 E5.72174
G0 X122.862 Y103.71
G1 X123.029 Y103.524 E5.73006
G1 X123.4 Y103.245 E5.7455
G1 X123.665 Y103.141 E5.75496
G1 X123.853 Y103.007 E5.76264
G1 X124.295 Y102.964 E5.77741
G1 X124.513 Y102.983 E5.78469
G1 X124.709 Y103.078 E5.79194
G1 X124.858 Y103.237 E5.79918
G1 X124.948 Y103.48 E5.8078
G1 X124.987 Y103.769 E5.8175
G1 X125.134 Y104.696 E5.84872
G1 X125.128 Y104.914 E5.85597
G1 X125.045 Y105.116 E5.86324
G1 X124.895 Y105.274 E5.87048
G1 X124.73 Y105.337 E5.87636
G1 X124.588 Y105.505 E5.88367
G1 X124.738 Y105.848 E5.89612
G1 X124.877 Y106.22 E5.90933
G1 X125.02 Y106.51 E5.92009
G1 X125.11 Y106.804 E5.93031
G1 X125.151 Y107.069 E5.93923
G1 X125.128 Y107.286 E5.94649
G1 X125.029 Y107.48 E5.95373
G1 X124.866 Y107.626 E5.96101
G1 X124.663 Y107.704 E5.96825
G1 X124.482 Y107.702 E5.97427
G1 X124.421 Y107.898 E5.98109
G1 X124.286 Y108.069 E5.98834
G1 X124.066 Y108.192 E5.99672
G1 X123.713 Y108.25 E6.00862
G1 X123.219 Y108.039 E6.02649
G1 X123.03 Y107.91 E6.0341
G1 X122.723 Y107.77 E6.04532
G1 X122.526 Y107.692 E6.05237
G1 X122.306 Y107.554 E6.06101
G1 X122.023 Y107.132 E6.07791
G1 X121.809 Y106.428 E6.10238
G1 X121.885 Y106.108 E6.11332
G1 X121.832 Y105.964 E6.11842
G1 X121.835 Y105.746 E6.12567
G1 X121.931 Y105.419 E6.13701
G1 X122.017 Y105.09 E6.14832
G1 X122.287 Y104.484 E6.17038
G1 X122.626 Y103.93 E6.19199
G1 X122.862 Y103.71 E6.20272
G0 X123.225 Y103.878
G1 X123.641 Y103.565 E6.22003
G1 X123.759 Y103.525 E6.22418
G1 X123.861 Y103.556 E6.22772
G1 X123.951 Y103.399 E6.23374
G1 X124.334 Y103.362 E6.24654
G1 X124.456 Y103.389 E6.25069
G1 X124.551 Y103.534 E6.25646
G1 X124.739 Y104.759 E6.29768
G1 X124.719 Y104.882 E6.30183
G1 X124.629 Y104.969 E6.30599
G1 X124.403 Y104.981 E6.31352
G1 X124.401 Y105.113 E6.31791
G1 X124.324 Y105.211 E6.32205
G1 X124.119 Y105.267 E6.32912
G1 X124.119 Y105.433 E6.33464
G1 X124.377 Y106.022 E6.35603
G1 X124.513 Y106.389 E6.36905
G1 X124.637 Y106.627 E6.37797
G1 X124.727 Y106.921 E6.3882
