;FLAVOR:Marlin
;TIME:808
;Filament used: 0.272449m
;Layer height: 0.2
;MINX:101.504
;MINY:131.041
;MINZ:0.2
;MAXX:112.551
;MAXY:146.187
;MAXZ:15
;POSTPROCESSED
;Generated with Cura_SteamEngine 5.2.1
M140 S70
M105
M190 S70
M104 S200
M105
M109 S200
M82 ;absolute extrusion mode
; Ender 3 Custom Start G-code
G92 E0 ; Reset Extruder
G28 ; Home all axes
G1 Z2.0 F3000 ; Move Z Axis up little to prevent scratching of Heat Bed
G1 X0.1 Y20 Z0.3 F5000.0 ; Move to start position
G1 X0.1 Y200.0 Z0.3 F1500.0 E15 ; Draw the first line
G1 X0.4 Y200.0 Z0.3 F5000.0 ; Move to side a little
G1 X0.4 Y20 Z0.3 F1500.0 E30 ; Draw the second line
G92 E0 ; Reset Extruder
G1 Z2.0 F3000 ; Move Z Axis up little to prevent scratching of Heat Bed
G1 X5 Y20 Z0.3 F5000.0 ; Move over to prevent blob squish
G92 E0
G92 E0
G1 F2700 E-5
;LAYER_COUNT:75
;LAYER:0
M117 Layer 0 of 74 Untitled
M107
G0 F6000 X105.9 Y134.337 Z0.2
;TYPE:SKIRT
G1 F2700 E0
G1 F600 X106.267 Y134.154 E0.01364
G1 X106.659 Y134.067 E0.027
G1 X107.053 Y134.075 E0.0401
G1 X107.607 Y134.241 E0.05934
G1 X107.746 Y134.3 E0.06436
G1 X108.128 Y134.428 E0.07776
G1 X108.379 Y134.555 E0.08712
G1 X108.683 Y134.763 E0.09937
G1 X108.91 Y134.967 E0.10952
G1 X109.092 Y135.165 E0.11846
G1 X109.251 Y135.376 E0.12725
G1 X109.756 Y136.151 E0.15802
G1 X109.906 Y136.45 E0.16914
G1 X109.98 Y136.776 E0.18026
G1 X109.975 Y137.11 E0.19137
G1 X109.892 Y137.433 E0.20246
G1 X109.734 Y137.727 E0.21356
G1 X109.511 Y137.976 E0.22468
G1 X109.285 Y138.142 E0.23401
G1 X108.989 Y138.296 E0.24511
G1 X108.664 Y138.375 E0.25623
G1 X108.284 Y138.385 E0.26887
G1 X107.895 Y138.311 E0.28204
G1 X107.857 Y138.473 E0.28758
G1 X107.706 Y138.771 E0.29869
G1 X107.488 Y139.025 E0.30982
G1 X107.057 Y139.316 E0.32712
G1 X106.497 Y139.47 E0.34644
G1 X105.717 Y139.542 E0.37249
G1 X105.383 Y139.533 E0.3836
G1 X105.06 Y139.445 E0.39474
G1 X104.768 Y139.283 E0.40584
G1 X104.523 Y139.056 E0.41695
G1 X104.338 Y138.778 E0.42806
G1 X104.224 Y138.464 E0.43917
G1 X104.189 Y138.004 E0.45451
G1 X104.264 Y137.634 E0.46707
G1 X104.403 Y137.344 E0.47777
G1 X104.265 Y136.957 E0.49143
G1 X104.231 Y136.624 E0.50257
G1 X104.277 Y136.294 E0.51365
G1 X104.4 Y135.983 E0.52477
G1 X104.593 Y135.71 E0.53589
G1 X104.91 Y135.418 E0.55023
G1 X105.195 Y135.244 E0.56133
G1 X105.288 Y135.219 E0.56453
G1 X105.45 Y134.823 E0.57876
G1 X105.646 Y134.553 E0.58986
G1 X105.9 Y134.337 E0.60095
G0 F6000 X105.987 Y134.776
G1 F600 X106.388 Y134.533 E0.61655
G1 X106.743 Y134.462 E0.62859
G1 X107.084 Y134.502 E0.64001
G1 X107.492 Y134.624 E0.65417
G1 X107.665 Y134.698 E0.66043
G1 X107.947 Y134.785 E0.67024
G1 X108.198 Y134.912 E0.6796
G1 X108.415 Y135.06 E0.68834
G1 X108.716 Y135.331 E0.70181
G1 X108.932 Y135.617 E0.71373
G1 X109.045 Y135.802 E0.72094
G1 X109.422 Y136.372 E0.74367
G1 X109.543 Y136.627 E0.75306
G1 X109.588 Y136.905 E0.76242
G1 X109.553 Y137.185 E0.77181
G1 X109.441 Y137.444 E0.78119
G1 X109.12 Y137.781 E0.79667
G1 X108.807 Y137.936 E0.80829
G1 X108.339 Y137.994 E0.82398
G1 X107.936 Y137.908 E0.83768
G1 X107.549 Y137.878 E0.85059
G1 X107.513 Y138.233 E0.86246
G1 X107.407 Y138.495 E0.87186
G1 X107.232 Y138.717 E0.88126
G1 X106.888 Y138.954 E0.89516
G1 X106.46 Y139.072 E0.90992
G1 X105.68 Y139.144 E0.93598
G1 X105.398 Y139.13 E0.94537
G1 X105.131 Y139.038 E0.95476
G1 X104.901 Y138.875 E0.96414
G1 X104.725 Y138.654 E0.97353
G1 X104.618 Y138.393 E0.98291
G1 X104.588 Y138.033 E0.99493
G1 X104.659 Y137.718 E1.00567
G1 X104.795 Y137.471 E1.01505
G1 X104.922 Y137.344 E1.02102
G1 X104.788 Y137.188 E1.02786
G1 X104.671 Y136.931 E1.03725
G1 X104.631 Y136.651 E1.04666
G1 X104.67 Y136.372 E1.05603
G1 X104.786 Y136.115 E1.06541
G1 X105.012 Y135.85 E1.07699
G1 X105.304 Y135.637 E1.08901
G1 X105.676 Y135.524 E1.10194
G1 X105.704 Y135.258 E1.11084
G1 X105.811 Y134.997 E1.12022
G1 X105.987 Y134.776 E1.12962
G0 F6000 X106.2 Y135.135
G1 F600 X106.363 Y134.99 E1.13688
G1 X106.599 Y134.894 E1.14535
G1 X106.861 Y134.853 E1.15417
G1 X107.378 Y135.007 E1.17211
G1 X107.767 Y135.142 E1.18581
G1 X108.089 Y135.305 E1.19781
G1 X108.418 Y135.601 E1.21253
G1 X108.612 Y135.858 E1.22324
G1 X108.696 Y135.997 E1.22864
G1 X109.089 Y136.592 E1.25236
G1 X109.174 Y136.793 E1.25962
G1 X109.181 Y137.011 E1.26687
G1 X109.111 Y137.218 E1.27414
G1 X108.926 Y137.419 E1.28323
G1 X108.635 Y137.569 E1.29411
G1 X108.248 Y137.57 E1.30699
G1 X108.024 Y137.516 E1.31465
G1 X107.745 Y137.495 E1.32396
G1 X107.345 Y137.433 E1.33742
G1 X106.795 Y137.355 E1.35589
G1 X107.035 Y137.651 E1.36857
G1 X107.125 Y137.85 E1.37583
G1 X107.137 Y138.068 E1.38309
G1 X107.071 Y138.276 E1.39035
G1 X106.935 Y138.446 E1.39759
G1 X106.626 Y138.618 E1.40936
G1 X106.423 Y138.673 E1.41635
G1 X105.643 Y138.745 E1.4424
G1 X105.426 Y138.726 E1.44965
G1 X105.23 Y138.63 E1.45691
G1 X105.082 Y138.47 E1.46416
G1 X105 Y138.267 E1.47144
G1 X104.996 Y138.025 E1.47949
G1 X105.052 Y137.814 E1.48675
G1 X105.18 Y137.637 E1.49402
G1 X105.363 Y137.518 E1.50128
G1 X105.675 Y137.473 E1.51176
G1 X105.836 Y137.319 E1.51917
G1 X105.99 Y137.256 E1.5247
G1 X105.929 Y137.242 E1.52679
G1 X105.655 Y137.261 E1.53592
G1 X105.333 Y137.171 E1.54704
G1 X105.167 Y137.03 E1.55429
G1 X105.061 Y136.839 E1.56155
G1 X105.032 Y136.623 E1.5688
G1 X105.081 Y136.41 E1.57607
G1 X105.203 Y136.229 E1.58333
G1 X105.29 Y136.174 E1.58675
G1 X105.473 Y136 E1.59515
G1 X105.714 Y135.922 E1.60358
G1 X105.892 Y135.904 E1.60953
G1 X106.182 Y135.832 E1.61946
G1 X106.074 Y135.546 E1.62963
G1 X106.099 Y135.329 E1.6369
G1 X106.2 Y135.135 E1.64417
G0 F6000 X106.525 Y135.369
G1 F600 X106.732 Y135.271 E1.65179
G1 X106.855 Y135.268 E1.65588
G1 X107.263 Y135.39 E1.67005
G1 X107.429 Y135.48 E1.67633
G1 X107.586 Y135.499 E1.68159
G1 X107.864 Y135.64 E1.69195
G1 X108.108 Y135.859 E1.70286
G1 X108.308 Y136.122 E1.71385
G1 X108.356 Y136.209 E1.71715
G1 X108.755 Y136.813 E1.74123
G1 X108.788 Y136.933 E1.74537
G1 X108.701 Y137.088 E1.75128
G1 X108.484 Y137.185 E1.75919
G1 X108.111 Y137.124 E1.77176
G1 X107.824 Y137.103 E1.78133
G1 X107.567 Y137.051 E1.79005
G1 X107.371 Y137.033 E1.7966
G1 X106.802 Y136.952 E1.81571
G1 X106.6 Y136.904 E1.82262
G1 X106.151 Y136.888 E1.83756
G1 X106 Y136.817 E1.84311
G1 X105.789 Y136.863 E1.85029
G1 X105.6 Y136.848 E1.8566
G1 X105.489 Y136.791 E1.86075
G1 X105.433 Y136.679 E1.86491
G1 X105.454 Y136.556 E1.86906
G1 X105.754 Y136.32 E1.88176
G1 X105.96 Y136.299 E1.88865
G1 X106.323 Y136.209 E1.90109
G1 X106.595 Y136.234 E1.91017
G1 X106.561 Y136.1 E1.91477
G1 X106.616 Y135.988 E1.91892
G1 X106.727 Y135.931 E1.92307
G1 X106.87 Y135.943 E1.92784
G1 X106.698 Y135.733 E1.93687
G1 X106.501 Y135.605 E1.94468
G1 X106.474 Y135.483 E1.94884
G1 X106.525 Y135.369 E1.95299
G0 F6000 X106.42 Y137.62
G1 F600 X106.539 Y137.658 E1.95715
G1 X106.706 Y137.879 E1.96636
G1 X106.742 Y137.999 E1.97053
G1 X106.688 Y138.149 E1.97583
G1 X106.386 Y138.275 E1.98672
G1 X105.606 Y138.347 E2.01277
G1 X105.485 Y138.319 E2.0169
G1 X105.403 Y138.225 E2.02105
G1 X105.395 Y138.056 E2.02668
G1 X105.443 Y137.941 E2.03082
G1 X105.597 Y137.872 E2.03643
G1 X105.978 Y137.877 E2.04911
G1 X105.965 Y137.789 E2.05207
G1 X106.023 Y137.679 E2.0562
G1 X106.16 Y137.623 E2.06112
G1 X106.42 Y137.62 E2.06977
;MESH:Jake.stl(18)
G0 F6000 X106.355 Y137.905
;TYPE:WALL-OUTER
G1 F1132.1 X106.317 Y137.927 E2.07055
G1 X106.369 Y137.927 E2.07146
G0 F6000 X106.381 Y136.551
G1 F839.2 X106.722 Y136.582 E2.07961
G0 F6000 X106.864 Y136.593
G1 F789.5 X106.722 Y136.582 E2.08321
G1 X106.864 Y136.593 E2.08681
G0 F6000 X107.15 Y135.719
G1 F761.9 X107.459 Y135.849 E2.09559
G1 F661.2 X107.73 Y136.049 E2.10575
G0 F6000 X108.229 Y136.747
G1 F597 X108.013 Y136.421 E2.11882
G1 F606.1 X107.829 Y136.141 E2.12986
G1 F618.6 X107.73 Y136.049 E2.13422
G1 X107.77 Y136.165 E2.13818
G1 F606.1 X107.721 Y136.309 E2.14318
G1 F598.5 X107.63 Y136.365 E2.14675
G1 F597 X107.317 Y136.406 E2.1573
G1 X107.307 Y136.482 E2.15986
G1 X107.152 Y136.596 E2.16629
G1 X107.624 Y136.653 E2.18218
G1 X107.885 Y136.694 E2.19102
G1 X108.177 Y136.726 E2.20083
G1 X108.229 Y136.747 E2.20271
G1 F2700 E-2.79729
;MESH:NONMESH
G0 F300 X108.229 Y136.747 Z0.4
G0 F6000 X107.93 Y137.581
G0 X107.104 Y138.606
G0 X105.304 Y140.396
;TIME_ELAPSED:12.143524
;LAYER:1
M117 Layer 1 of 74 Untitled
M106 S85
;TYPE:WALL-OUTER
;MESH:Jake.stl(18)
G1 F2700 E2.20271
G1 F335.7 X105.117 Y140.484 E2.215
G1 F385.9 X104.795 Y140.677 E2.23441
G1 F549.2 X104.692 Y140.889 E2.24298
G1 F863.3 X104.497 Y141.063 E2.24902
G1 F1052.6 X104.318 Y141.201 E2.2533
G1 F2700 E-2.7467
G0 F7500 X105.32 Y141.95
G0 X106.732 Y142.191
;TYPE:WALL-INNER
G1 F2700 E2.2533
G1 F600 X107.345 Y142.106 E2.27389
G1 X108.006 Y141.898 E2.29693
G1 X108.375 Y141.478 E2.31553
G1 X108.556 Y141.316 E2.32361
G1 X108.712 Y140.845 E2.34011
G1 X108.883 Y140.526 E2.35215
G1 X109.111 Y140.259 E2.36383
G1 X109.122 Y140.009 E2.37215
G1 X109.019 Y139.432 E2.39164
G1 X108.899 Y139.013 E2.40614
G1 X108.548 Y138.077 E2.43939
G1 X108.466 Y137.79 E2.44932
G1 X108.377 Y137.549 E2.45786
G1 X107.909 Y136.827 E2.48648
G1 X107.673 Y136.511 E2.4996
G1 X107.399 Y136.237 E2.51248
G1 X106.719 Y136.029 E2.53614
G1 X106.51 Y135.999 E2.54316
G1 X106.134 Y136.045 E2.55576
G1 X105.807 Y136.098 E2.56678
G1 X105.506 Y136.254 E2.57805
G1 X105.341 Y136.403 E2.58545
G1 X105.175 Y136.473 E2.59144
G1 X104.94 Y136.768 E2.60398
G1 X104.703 Y137.142 E2.61871
G1 X104.31 Y137.939 E2.64826
G1 X104.162 Y138.461 E2.66631
G1 X104.025 Y138.755 E2.6771
G1 X104.027 Y138.851 E2.68029
G1 X103.977 Y139.138 E2.68998
G1 X104.014 Y139.282 E2.69493
G1 X104.041 Y139.55 E2.70389
G1 X104.136 Y139.78 E2.71216
G1 X104.695 Y139.487 E2.73315
G1 X104.944 Y139.475 E2.74145
G1 X105.247 Y139.545 E2.75179
G1 X105.472 Y139.681 E2.76053
G1 X105.561 Y139.788 E2.76516
G1 X105.643 Y140.067 E2.77483
G1 X105.735 Y140.053 E2.77793
G1 X106.11 Y140.186 E2.79116
G1 X106.313 Y140.364 E2.80014
G1 X106.419 Y140.59 E2.80845
G1 X106.433 Y140.746 E2.81365
G1 X106.371 Y141.022 E2.82306
G1 X105.878 Y141.582 E2.84788
G1 X105.571 Y141.913 E2.86289
G1 X105.897 Y142.09 E2.87523
G1 X106.228 Y142.159 E2.88648
G1 X106.732 Y142.191 E2.90327
G0 F7500 X106.84 Y142.58
;TYPE:WALL-OUTER
G1 F600 X107.436 Y142.498 E2.92328
G1 X107.834 Y142.367 E2.93722
G1 X108.231 Y142.249 E2.951
G1 X108.66 Y141.759 E2.97266
G1 X108.831 Y141.609 E2.98022
G1 X108.956 Y141.386 E2.98872
G1 X109.073 Y141.018 E3.00157
G1 X109.193 Y140.848 E3.00849
G1 X109.231 Y140.723 E3.01283
G1 X109.403 Y140.534 E3.02133
G1 X109.457 Y140.523 E3.02317
G1 X109.526 Y140.364 E3.02893
G1 X109.503 Y140.115 E3.03725
G1 X109.519 Y140.055 E3.03931
G1 X109.531 Y140.027 E3.04033
G1 X109.409 Y139.341 E3.0635
G1 X109.279 Y138.887 E3.07921
G1 X108.928 Y137.952 E3.11243
G1 X108.846 Y137.666 E3.12232
G1 X108.737 Y137.369 E3.13284
G1 X108.237 Y136.598 E3.16341
G1 X107.976 Y136.249 E3.1779
G1 X107.701 Y135.973 E3.19086
G1 X107.509 Y135.852 E3.19841
G1 X106.807 Y135.637 E3.22283
G1 X106.514 Y135.595 E3.23267
G1 X106.084 Y135.648 E3.24708
G1 X105.698 Y135.71 E3.26009
G1 X105.447 Y135.813 E3.26911
G1 X105.227 Y135.943 E3.27761
G1 X105.141 Y136.056 E3.28233
G1 X104.931 Y136.137 E3.28982
G1 X104.61 Y136.541 E3.30698
G1 X104.356 Y136.942 E3.32277
G1 X103.966 Y137.732 E3.35207
G1 X103.886 Y137.969 E3.36039
G1 X103.78 Y138.333 E3.373
G1 X103.615 Y138.686 E3.38596
G1 X103.627 Y138.827 E3.39067
G1 X103.573 Y139.175 E3.40238
G1 X103.629 Y139.403 E3.41019
G1 X103.647 Y139.666 E3.41896
G1 X103.724 Y139.805 E3.42424
G1 X103.789 Y140.099 E3.43426
G1 X103.752 Y140.345 E3.44253
G1 X104.149 Y140.206 E3.45652
G1 X104.167 Y140.172 E3.4578
G1 X104.462 Y140.062 E3.46827
G1 X104.838 Y139.863 E3.48242
G1 X105.165 Y139.945 E3.49364
G1 F497.9 X105.323 Y140.208 E3.50593
G1 F365.3 X105.304 Y140.396 E3.51625
G1 X105.523 Y140.395 E3.52822
G1 F497.9 X105.657 Y140.456 E3.53412
G1 F600 X105.931 Y140.549 E3.54374
G1 X106.013 Y140.635 E3.5477
G1 X106.033 Y140.801 E3.55326
G1 X105.586 Y141.308 E3.57574
G1 X105.347 Y141.564 E3.58739
G1 X105.204 Y141.753 E3.59527
G1 X104.998 Y141.94 E3.60452
G1 X105.357 Y142.274 E3.62083
G1 X105.777 Y142.477 E3.63635
G1 X106.158 Y142.556 E3.64929
G1 X106.583 Y142.582 E3.66345
G1 X106.84 Y142.58 E3.672
G0 F7500 X106.467 Y142.073
G0 X106.022 Y142.008
G0 X106.173 Y141.795
;TYPE:SKIN
G1 F600 X106.725 Y141.829 E3.69039
G1 X107.262 Y141.753 E3.70843
G1 X107.805 Y141.581 E3.72738
G1 X108.107 Y141.234 E3.74268
G1 X108.244 Y141.11 E3.74882
G1 X108.389 Y140.685 E3.76376
G1 X108.57 Y140.349 E3.77645
G1 X108.748 Y140.119 E3.78612
G1 X108.753 Y140.046 E3.78856
G1 X108.756 Y140.017 E3.78953
G1 X108.666 Y139.513 E3.80656
G1 X108.557 Y139.126 E3.81993
G1 X108.199 Y138.174 E3.85376
G1 X108.085 Y137.763 E3.86794
G1 X107.613 Y137.034 E3.89683
G1 X107.398 Y136.748 E3.90873
G1 X107.206 Y136.555 E3.91778
G1 X106.558 Y136.357 E3.94032
G1 X106.208 Y136.399 E3.95204
G1 X105.915 Y136.446 E3.96191
G1 X105.616 Y136.654 E3.97403
G1 X105.401 Y136.768 E3.98212
G1 X105.237 Y136.973 E3.99085
G1 X105.176 Y137.079 E3.99492
G1 X105.016 Y137.323 E4.00463
G1 X104.764 Y137.823 E4.02325
G1 X104.65 Y138.07 E4.0323
G1 X104.526 Y138.502 E4.04725
G1 X104.386 Y138.832 E4.05917
G1 X104.343 Y139.11 E4.06853
G1 X104.372 Y139.251 E4.07331
G1 X104.615 Y139.134 E4.08228
G1 X104.944 Y139.116 E4.09324
G1 X105.272 Y139.176 E4.10433
G1 X105.549 Y139.288 E4.11427
G1 X105.85 Y139.574 E4.12808
G1 X105.931 Y139.739 E4.13419
G1 X106.288 Y139.868 E4.14682
G1 X106.605 Y140.147 E4.16086
G1 X106.768 Y140.497 E4.17371
G1 X106.796 Y140.759 E4.18247
G1 X106.73 Y141.062 E4.19278
G1 X106.573 Y141.334 E4.20323
G1 X106.173 Y141.795 E4.22353
G0 F7500 X106.022 Y142.008
G0 X106.477 Y142.012
G0 X107.547 Y141.935
G0 X107.404 Y141.497
G1 F600 X108.154 Y140.747 E4.25881
G0 F7500 X108.515 Y139.82
G1 F600 X106.708 Y141.627 E4.3438
G0 F7500 X106.998 Y140.771
G1 F600 X108.413 Y139.356 E4.41036
G0 F7500 X108.27 Y138.933
G1 F600 X106.901 Y140.302 E4.47475
G0 F7500 X106.686 Y139.952
G1 F600 X108.116 Y138.522 E4.54202
G0 F7500 X107.97 Y138.102
G1 F600 X106.382 Y139.69 E4.61671
G0 F7500 X106.025 Y139.482
G1 F600 X107.805 Y137.701 E4.70046
G0 F7500 X107.582 Y137.359
G1 F600 X105.745 Y139.196 E4.78687
G0 F7500 X105.372 Y139.003
G1 F600 X107.353 Y137.022 E4.88005
G0 F7500 X107.084 Y136.726
G1 F600 X104.89 Y138.92 E4.98325
G0 F7500 X104.73 Y138.513
G1 F600 X106.65 Y136.593 E5.07356
G0 F7500 X106.053 Y136.625
G1 F600 X105.12 Y137.558 E5.11744
;MESH:NONMESH
G0 F300 X105.12 Y137.558 Z0.6
G0 F7500 X104.711 Y137.35
G0 X104.187 Y138.86
G0 X104.17 Y139.244
G0 X104.236 Y139.538
G0 X105.451 Y139.754
G0 X106.596 Y140.544
G0 X105.892 Y141.714
G0 X105.888 Y142.186
;TIME_ELAPSED:23.062880
;LAYER:2
M117 Layer 2 of 74 Untitled
M106 S170
;TYPE:WALL-INNER
;MESH:Jake.stl(18)
G1 F600 X106.198 Y142.253 E5.12799
G1 X106.835 Y142.289 E5.14921
G1 X107.428 Y142.188 E5.16922
G1 X108.101 Y141.901 E5.19355
G1 X108.321 Y141.651 E5.20463
G1 X108.442 Y141.544 E5.21
G1 X108.674 Y141.281 E5.22167
G1 X108.786 Y140.937 E5.2337
G1 X108.935 Y140.672 E5.24381
G1 X109.159 Y140.431 E5.25475
G1 X109.174 Y140.127 E5.26488
G1 X109.172 Y140.066 E5.26691
G1 X109.114 Y139.778 E5.27668
G1 X109.048 Y139.333 E5.29164
G1 X108.872 Y138.8 E5.31031
G1 X108.623 Y138.187 E5.33232
G1 X108.528 Y137.847 E5.34406
G1 X108.449 Y137.496 E5.35603
G1 X107.977 Y136.75 E5.38539
G1 X107.583 Y136.318 E5.40483
G1 X107.254 Y136.081 E5.41832
G1 X106.678 Y135.961 E5.43789
G1 X106.313 Y136.002 E5.45011
G1 X106.035 Y136.047 E5.45947
G1 X105.745 Y136.12 E5.46942
G1 X105.323 Y136.27 E5.48431
G1 X105.103 Y136.459 E5.49396
G1 X104.932 Y136.674 E5.5031
G1 X104.812 Y136.951 E5.51314
G1 X104.716 Y137.127 E5.51981
G1 X104.383 Y137.798 E5.54472
G1 X104.145 Y138.525 E5.57016
G1 X103.992 Y138.818 E5.58116
G1 X103.945 Y139.151 E5.59234
G1 X104.049 Y139.772 E5.61329
G1 X104.072 Y140.378 E5.63346
G1 X104.147 Y140.533 E5.63918
G1 X104.42 Y140.879 E5.65384
G1 X105.074 Y141.482 E5.68343
G1 X105.386 Y141.876 E5.70014
G1 X105.613 Y142.061 E5.70988
G1 X105.888 Y142.186 E5.71993
G0 F9000 X105.896 Y142.079
G0 X106.718 Y142.182
G0 X106.857 Y142.691
;TYPE:WALL-OUTER
G1 F600 X107.542 Y142.574 E5.74304
G1 X108.208 Y142.29 E5.76713
G1 X108.409 Y142.157 E5.77514
